G10 P0 R240 S240 ; sets the standby temperature
; generated by SuperSlicer 2.3.55 on 2023-09-13 at 19:12:33 UTC

; TODO: check the size of the extruder and the y-bar clearance. Optimize & test supports.

; external perimeters extrusion width = 0.39mm
; perimeters extrusion width = 0.40mm
; infill extrusion width = 0.60mm
; solid infill extrusion width = 0.60mm
; top infill extrusion width = 0.32mm
; first layer extrusion width = 0.45mm

; object:{"name":"[a]_tensioner_right","id":"[a]_tensioner_right.stl id:0 copy 0","object_center":[124.999990,125.000617,0.000000],"boundingbox_center":[124.999990,125.000617,9.000086],"boundingbox_size":[45.000000,25.000000,18.000172]}
; plater:{"center":[124.999990,125.000617,0.000000],"boundingbox_center":[124.999990,125.000617,9.000086],"boundingbox_size":[45.000000,25.000000,18.000172]}

;TYPE:Custom
; custom gcode: start_gcode
M106 P4 S255
M140 S95 ; set bed final temp
M104 S240 ; set extruder final temp
M190 S95 ; wait for bed final temp
M109 S240 ; wait for extruder final temp
;G29
G28
;M98 P"/macros/nozzle/brush.g"
;PRINT_START

G92 E0 ;Reset Extruder
;;G1 Z2.0 F3000 ;Move Z Axis up


G1 X100 Y4.6 Z0.3 F18000.0 ; Move to side a little

G1 X5 Y4.6 Z0.3 F1500.0 E10 ; Draw the second line

G1 X5 Y4.2 Z0.3 F1500.0 E10 ; Draw the third line

G1 X100 Y4.2 Z0.3 F1500.0 E10 ; Draw the third line


;G92 E0;		Reset extruder
;G1 X1 Y10 F6000;
;G1 Z1.7;
;G1 X1 Y60 E140 F50;
;G1 E-<DESTRING> F1500;
;G1 Z4
;G1 X<NEXTX> Y<NEXTY> F12000;
;G92 E0 ;Reset Extruder

;G1 Z2.0 F3000 ;Move Z Axis up
; custom gcode end: start_gcode
M107
G21 ; set units to millimeters
G90 ; use absolute coordinates
M83 ; use relative distances for extrusion
; custom gcode: start_filament_gcode
; Filament gcode
M572 D0 S0.055
; custom gcode end: start_filament_gcode
;LAYER_CHANGE
;Z:0.2
;HEIGHT:0.2
; custom gcode: before_layer_gcode
;BEFORE_LAYER_CHANGE
;0.2

; custom gcode end: before_layer_gcode

G1 Z0.200000 F18000.000
; custom gcode: layer_gcode
;AFTER_LAYER_CHANGE
;0.2
; custom gcode end: layer_gcode

G1 E-0.80000 F3000.00000
G1 Z1.000000 F18000.000
G1 X100.290 Y109.341
G1 Z0.200000
G1 E0.80000 F2100.00000
; custom gcode: feature_gcode
;Skirt
M204 P2000 T5000
; custom gcode end: feature_gcode

;TYPE:Skirt
G1 F2400.000
G1 X101.002 Y108.804 E0.02897
G1 X101.920 Y108.272 E0.03449
G1 X103.068 Y107.808 E0.04024
G1 X104.093 Y107.558 E0.03428
G1 X105.289 Y107.437 E0.03905
G1 X144.499 Y107.433 E1.27413
G1 X146.016 Y107.577 E0.04952
G1 X147.465 Y107.998 E0.04905
G1 X148.844 Y108.703 E0.05032
G1 X149.984 Y109.585 E0.04682
G1 X150.879 Y110.565 E0.04313
G1 X151.696 Y111.855 E0.04963
G1 X152.236 Y113.214 E0.04751
G1 X152.528 Y114.713 E0.04964
G1 X152.567 Y131.548 E0.54705
G1 X152.369 Y133.585 E0.06651
G1 X152.140 Y134.544 E0.03205
G1 X151.732 Y135.719 E0.04040
G1 X151.341 Y136.563 E0.03023
G1 X150.713 Y137.633 E0.04033
G1 X150.150 Y138.402 E0.03096
G1 X149.338 Y139.315 E0.03970
G1 X148.641 Y139.954 E0.03073
G1 X147.644 Y140.706 E0.04059
G1 X146.391 Y141.429 E0.04701
G1 X145.038 Y141.987 E0.04756
G1 X143.606 Y142.366 E0.04810
G1 X142.103 Y142.551 E0.04923
G1 X107.795 Y142.546 E1.11482
G1 X106.493 Y142.384 E0.04264
G1 X105.439 Y142.135 E0.03520
G1 X104.209 Y141.703 E0.04236
G1 X102.971 Y141.088 E0.04492
G1 X101.815 Y140.321 E0.04508
G1 X100.828 Y139.475 E0.04224
G1 X100.081 Y138.684 E0.03536
G1 X99.294 Y137.644 E0.04236
G1 X98.580 Y136.407 E0.04642
G1 X98.031 Y135.090 E0.04638
G1 X97.649 Y133.678 E0.04751
G1 X97.463 Y132.315 E0.04472
G1 X97.452 Y114.947 E0.56436
G1 X97.566 Y114.038 E0.02977
G1 X97.771 Y113.189 E0.02840
G1 X98.064 Y112.372 E0.02818
G1 X98.471 Y111.545 E0.02997
G1 X98.941 Y110.805 E0.02847
G1 X99.621 Y109.977 E0.03483
G1 X100.247 Y109.383 E0.02802
G1 X100.538 Y109.729 F18000.000
G1 F2400.000
G1 X101.262 Y109.120 E0.03072
G1 X102.115 Y108.630 E0.03196
G1 X103.210 Y108.190 E0.03837
G1 X104.171 Y107.958 E0.03212
G1 X105.312 Y107.843 E0.03727
G1 X144.499 Y107.840 E1.27336
G1 X145.943 Y107.977 E0.04713
G1 X147.324 Y108.380 E0.04674
G1 X148.638 Y109.054 E0.04799
G1 X149.719 Y109.895 E0.04453
G1 X150.682 Y110.980 E0.04712
G1 X151.342 Y112.057 E0.04106
G1 X151.851 Y113.345 E0.04501
G1 X152.126 Y114.787 E0.04769
G1 X152.160 Y131.546 E0.54460
G1 X151.972 Y133.497 E0.06368
G1 X151.751 Y134.422 E0.03090
G1 X151.357 Y135.561 E0.03917
G1 X150.371 Y137.413 E0.06818
G1 X149.638 Y138.385 E0.03954
G1 X149.022 Y139.054 E0.02957
G1 X148.139 Y139.840 E0.03839
G1 X147.385 Y140.390 E0.03035
G1 X146.189 Y141.074 E0.04477
G1 X144.863 Y141.617 E0.04656
G1 X143.516 Y141.969 E0.04525
G1 X142.076 Y142.145 E0.04713
G1 X107.821 Y142.140 E1.11312
G1 X106.561 Y141.983 E0.04124
G1 X105.548 Y141.743 E0.03382
G1 X104.364 Y141.326 E0.04081
G1 X103.164 Y140.730 E0.04353
G1 X102.051 Y139.989 E0.04343
G1 X101.097 Y139.170 E0.04086
G1 X100.385 Y138.413 E0.03376
G1 X99.611 Y137.385 E0.04183
G1 X98.936 Y136.211 E0.04401
G1 X98.410 Y134.941 E0.04466
G1 X98.046 Y133.591 E0.04544
G1 X97.867 Y132.263 E0.04353
G1 X97.859 Y114.975 E0.56177
G1 X98.162 Y113.302 E0.05527
G1 X98.833 Y111.733 E0.05544
G1 X99.278 Y111.034 E0.02692
G1 X99.934 Y110.238 E0.03353
G1 X100.493 Y109.768 E0.02372
G1 X100.752 Y110.079 F18000.000
G1 F2400.000
G1 X101.515 Y109.441 E0.03230
G1 X102.484 Y108.906 E0.03597
G1 X103.346 Y108.574 E0.03001
G1 X104.249 Y108.357 E0.03018
G1 X105.336 Y108.250 E0.03548
G1 X144.499 Y108.247 E1.27260
G1 X145.870 Y108.378 E0.04474
G1 X147.181 Y108.762 E0.04442
G1 X148.426 Y109.402 E0.04546
G1 X149.455 Y110.205 E0.04242
G1 X150.360 Y111.229 E0.04442
G1 X150.982 Y112.248 E0.03880
G1 X151.463 Y113.471 E0.04270
G1 X151.724 Y114.853 E0.04569
G1 X151.753 Y131.539 E0.54222
G1 X151.575 Y133.405 E0.06090
G1 X151.361 Y134.306 E0.03010
G1 X150.981 Y135.404 E0.03775
G1 X150.032 Y137.188 E0.06568
G1 X148.727 Y138.774 E0.06675
G1 X147.133 Y140.068 E0.06671
G1 X146.004 Y140.712 E0.04221
G1 X144.730 Y141.232 E0.04473
G1 X143.442 Y141.568 E0.04324
G1 X142.049 Y141.739 E0.04560
G1 X107.851 Y141.734 E1.11125
G1 X106.635 Y141.582 E0.03984
G1 X105.667 Y141.353 E0.03233
G1 X104.524 Y140.952 E0.03936
G1 X103.363 Y140.374 E0.04214
G1 X102.293 Y139.662 E0.04179
G1 X101.368 Y138.866 E0.03965
G1 X100.687 Y138.139 E0.03235
G1 X99.932 Y137.133 E0.04086
G1 X99.296 Y136.020 E0.04166
G1 X98.791 Y134.799 E0.04295
G1 X98.443 Y133.498 E0.04375
G1 X98.272 Y132.219 E0.04195
G1 X98.264 Y115.008 E0.55925
G1 X98.552 Y113.420 E0.05245
G1 X99.188 Y111.931 E0.05261
G1 X99.725 Y111.114 E0.03176
G1 X100.242 Y110.505 E0.02598
G1 X100.706 Y110.117 E0.01964
; printing object [a]_tensioner_right.stl id:0 copy 0
G1 E-0.08000 F3000.00000
G1 F14400.000
G1 X101.515 Y109.441 E-0.20860
G1 X102.484 Y108.906 E-0.21909
G1 X103.346 Y108.574 E-0.18281
G1 X103.707 Y108.488 E-0.07350
G1 E-0.03600 F3000.00000
G1 Z0.600000 F18000.000
G1 X107.999 Y114.904
G1 Z0.200000
G1 E0.80000 F2100.00000
; custom gcode: feature_gcode
;Perimeter                        ;  Perimeter
M204 P1000 T5000
; custom gcode end: feature_gcode

;TYPE:Perimeter
G1 F2400.000
G1 X107.999 Y128.794 E0.45133
G1 X108.075 Y129.388 E0.01946
G1 X108.286 Y129.945 E0.01935
G1 X108.505 Y130.316 E0.01401
G1 X108.940 Y130.810 E0.02137
G1 X109.512 Y131.199 E0.02249
G1 X110.113 Y131.426 E0.02085
G1 X110.707 Y131.501 E0.01946
G1 X117.017 Y131.501 E0.20506
G1 X116.622 Y132.383 E0.03142
G1 X116.468 Y133.083 E0.02327
G1 X116.451 Y133.738 E0.02131
G1 X116.565 Y134.420 E0.02247
G1 X116.801 Y135.092 E0.02314
G1 X108.268 Y135.090 E0.27727
G1 X107.807 Y135.030 E0.01509
G1 X107.359 Y134.911 E0.01508
G1 X106.912 Y134.728 E0.01570
G1 X106.695 Y134.612 E0.00800
G1 X106.319 Y134.360 E0.01471
G1 X105.947 Y134.033 E0.01607
G1 X105.643 Y133.685 E0.01502
G1 X105.385 Y133.299 E0.01509
G1 X105.180 Y132.883 E0.01509
G1 X105.023 Y132.423 E0.01579
G1 X104.974 Y132.214 E0.00696
G1 X104.911 Y131.732 E0.01579
G1 X104.905 Y115.465 E0.52861
G1 X104.980 Y115.217 E0.00840
G1 X105.059 Y115.099 E0.00464
G1 X105.190 Y114.991 E0.00552
G1 X105.322 Y114.936 E0.00462
G1 X105.449 Y114.910 E0.00422
G1 X107.939 Y114.905 E0.08093
G1 X108.407 Y114.496 F18000.000
G1 F2400.000
G1 X108.407 Y128.768 E0.46375
G1 X108.473 Y129.289 E0.01706
G1 X108.654 Y129.768 E0.01665
G1 X108.836 Y130.076 E0.01162
G1 X109.211 Y130.502 E0.01845
G1 X109.701 Y130.835 E0.01926
G1 X110.212 Y131.028 E0.01773
G1 X110.733 Y131.094 E0.01706
G1 X117.874 Y131.094 E0.23207
G1 X117.273 Y131.926 E0.03336
G1 X117.010 Y132.512 E0.02085
G1 X116.874 Y133.132 E0.02064
G1 X116.859 Y133.709 E0.01877
G1 X116.961 Y134.318 E0.02006
G1 X117.103 Y134.723 E0.01395
G1 X117.507 Y135.500 E0.02844
G1 X108.242 Y135.497 E0.30109
G1 X107.729 Y135.430 E0.01680
G1 X107.229 Y135.298 E0.01680
G1 X106.738 Y135.097 E0.01724
G1 X106.485 Y134.961 E0.00934
G1 X106.070 Y134.683 E0.01622
G1 X105.658 Y134.321 E0.01781
G1 X105.319 Y133.933 E0.01675
G1 X105.032 Y133.503 E0.01680
G1 X104.803 Y133.039 E0.01680
G1 X104.631 Y132.535 E0.01730
G1 X104.573 Y132.287 E0.00829
G1 X104.504 Y131.759 E0.01730
G1 X104.500 Y115.413 E0.53114
G1 X104.538 Y115.221 E0.00639
G1 X104.619 Y115.025 E0.00686
G1 X104.736 Y114.849 E0.00687
G1 X104.951 Y114.660 E0.00931
G1 X105.202 Y114.545 E0.00897
G1 X105.408 Y114.503 E0.00682
G1 X108.347 Y114.497 E0.09549
G1 X108.814 Y114.088 F18000.000
G1 F2400.000
G1 X108.814 Y128.742 E0.47618
G1 X108.870 Y129.190 E0.01466
G1 X109.022 Y129.591 E0.01394
G1 X109.167 Y129.836 E0.00923
G1 X109.483 Y130.194 E0.01552
G1 X109.890 Y130.471 E0.01602
G1 X110.311 Y130.630 E0.01460
G1 X110.758 Y130.687 E0.01466
G1 X118.832 Y130.687 E0.26237
G1 X118.912 Y130.969 E0.00952
G1 X118.363 Y131.304 E0.02089
G1 X117.954 Y131.678 E0.01801
G1 X117.627 Y132.131 E0.01814
G1 X117.399 Y132.640 E0.01814
G1 X117.280 Y133.181 E0.01801
G1 X117.267 Y133.681 E0.01623
G1 X117.357 Y134.217 E0.01766
G1 X117.477 Y134.561 E0.01186
G1 X117.702 Y134.992 E0.01577
G1 X118.050 Y135.425 E0.01806
G1 X118.635 Y135.907 E0.02463
G1 X108.215 Y135.904 E0.33858
G1 X107.650 Y135.830 E0.01852
G1 X107.099 Y135.684 E0.01851
G1 X106.564 Y135.466 E0.01878
G1 X106.275 Y135.310 E0.01068
G1 X105.821 Y135.007 E0.01774
G1 X105.369 Y134.609 E0.01955
G1 X104.995 Y134.181 E0.01849
G1 X104.679 Y133.707 E0.01852
G1 X104.426 Y133.196 E0.01852
G1 X104.239 Y132.648 E0.01882
G1 X104.172 Y132.360 E0.00961
G1 X104.097 Y131.785 E0.01882
G1 X104.086 Y115.519 E0.52857
G1 X104.095 Y115.362 E0.00512
G1 X104.147 Y115.102 E0.00860
G1 X104.257 Y114.833 E0.00945
G1 X104.414 Y114.598 E0.00918
G1 X104.498 Y114.506 E0.00407
G1 X104.822 Y114.262 E0.01318
G1 X105.082 Y114.153 E0.00916
G1 X105.367 Y114.096 E0.00943
G1 X108.754 Y114.089 E0.11005
G1 E-0.08000 F3000.00000
G1 F14400.000
G1 X108.768 Y117.545 E-0.68400
G1 E-0.03600 F3000.00000
G1 X122.933 Y131.501 F18000.000
G1 E0.80000 F2100.00000
G1 F2400.000
G1 X139.285 Y131.501 E0.53136
G1 X139.794 Y131.442 E0.01665
G1 X140.250 Y131.303 E0.01551
G1 X140.748 Y131.040 E0.01831
G1 X141.085 Y130.780 E0.01383
G1 X141.458 Y130.365 E0.01814
G1 X141.709 Y129.959 E0.01551
G1 X141.909 Y129.431 E0.01834
G1 X141.990 Y129.007 E0.01403
G1 X142.000 Y114.901 E0.45836
G1 X144.429 Y114.901 E0.07895
G1 X144.646 Y114.922 E0.00709
G1 X144.804 Y114.987 E0.00552
G1 X144.973 Y115.135 E0.00730
G1 X145.063 Y115.301 E0.00615
G1 X145.087 Y115.425 E0.00411
G1 X145.099 Y131.454 E0.52083
G1 X145.066 Y131.964 E0.01662
G1 X144.973 Y132.441 E0.01579
G1 X144.911 Y132.646 E0.00696
G1 X144.724 Y133.094 E0.01577
G1 X144.492 Y133.496 E0.01509
G1 X144.197 Y133.882 E0.01577
G1 X144.050 Y134.038 E0.00696
G1 X143.684 Y134.358 E0.01579
G1 X143.298 Y134.615 E0.01509
G1 X142.884 Y134.820 E0.01501
G1 X142.417 Y134.978 E0.01602
G1 X141.963 Y135.067 E0.01502
G1 X141.453 Y135.100 E0.01663
G1 X123.161 Y135.094 E0.59439
G1 X123.317 Y134.789 E0.01115
G1 X123.507 Y134.098 E0.02328
G1 X123.556 Y133.444 E0.02131
G1 X123.474 Y132.734 E0.02324
G1 X123.247 Y132.045 E0.02357
G1 X122.963 Y131.553 E0.01845
G1 E-0.08000 F3000.00000
G1 F14400.000
G1 X126.419 Y131.542 E-0.68400
G1 E-0.03600 F3000.00000
G1 X122.051 Y131.094 F18000.000
G1 E0.80000 F2100.00000
G1 F2400.000
G1 X139.261 Y131.094 E0.55925
G1 X139.710 Y131.042 E0.01468
G1 X140.094 Y130.925 E0.01305
G1 X140.527 Y130.697 E0.01589
G1 X140.806 Y130.480 E0.01149
G1 X141.131 Y130.120 E0.01577
G1 X141.342 Y129.778 E0.01305
G1 X141.516 Y129.320 E0.01592
G1 X141.583 Y128.968 E0.01163
G1 X141.593 Y114.494 E0.47033
G1 X144.449 Y114.494 E0.09280
G1 X144.714 Y114.520 E0.00865
G1 X145.039 Y114.654 E0.01145
G1 X145.222 Y114.803 E0.00765
G1 X145.322 Y114.923 E0.00508
G1 X145.435 Y115.134 E0.00778
G1 X145.494 Y115.385 E0.00838
G1 X145.507 Y131.467 E0.52257
G1 X145.471 Y132.017 E0.01791
G1 X145.368 Y132.539 E0.01730
G1 X145.294 Y132.783 E0.00829
G1 X145.090 Y133.275 E0.01729
G1 X144.831 Y133.723 E0.01681
G1 X144.508 Y134.145 E0.01729
G1 X144.333 Y134.331 E0.00829
G1 X143.932 Y134.682 E0.01730
G1 X143.502 Y134.968 E0.01680
G1 X143.040 Y135.197 E0.01675
G1 X142.522 Y135.372 E0.01778
G1 X142.016 Y135.472 E0.01675
G1 X141.466 Y135.507 E0.01792
G1 X122.496 Y135.501 E0.61643
G1 X122.935 Y134.641 E0.03140
G1 X123.104 Y134.028 E0.02065
G1 X123.147 Y133.452 E0.01877
G1 X123.075 Y132.822 E0.02062
G1 X122.873 Y132.212 E0.02086
G1 X122.552 Y131.656 E0.02085
G1 X122.091 Y131.139 E0.02253
G1 E-0.08000 F3000.00000
G1 F14400.000
G1 X125.547 Y131.130 E-0.68400
G1 E-0.03600 F3000.00000
G1 X121.068 Y130.988 F18000.000
G1 E0.80000 F2100.00000
G1 F2400.000
G1 X121.137 Y130.687 E0.01003
G1 X139.238 Y130.687 E0.58820
G1 X139.627 Y130.642 E0.01272
G1 X139.939 Y130.547 E0.01059
G1 X140.306 Y130.354 E0.01348
G1 X140.528 Y130.181 E0.00915
G1 X140.804 Y129.874 E0.01340
G1 X140.975 Y129.597 E0.01059
G1 X141.122 Y129.209 E0.01350
G1 X141.176 Y128.930 E0.00924
G1 X141.186 Y114.087 E0.48231
G1 X144.468 Y114.087 E0.10666
G1 X144.783 Y114.117 E0.01028
G1 X144.904 Y114.148 E0.00407
G1 X145.272 Y114.319 E0.01318
G1 X145.503 Y114.506 E0.00965
G1 X145.667 Y114.705 E0.00837
G1 X145.808 Y114.969 E0.00974
G1 X145.901 Y115.345 E0.01258
G1 X145.914 Y131.480 E0.52430
G1 X145.875 Y132.069 E0.01920
G1 X145.764 Y132.638 E0.01882
G1 X145.678 Y132.921 E0.00961
G1 X145.456 Y133.455 E0.01882
G1 X145.171 Y133.949 E0.01852
G1 X144.819 Y134.409 E0.01882
G1 X144.616 Y134.625 E0.00961
G1 X144.180 Y135.006 E0.01882
G1 X143.706 Y135.322 E0.01852
G1 X143.196 Y135.574 E0.01848
G1 X142.627 Y135.766 E0.01953
G1 X142.069 Y135.876 E0.01849
G1 X141.479 Y135.914 E0.01921
G1 X121.364 Y135.908 E0.65362
G1 X121.950 Y135.425 E0.02467
G1 X122.300 Y134.990 E0.01815
G1 X122.554 Y134.493 E0.01814
G1 X122.701 Y133.958 E0.01802
G1 X122.738 Y133.460 E0.01623
G1 X122.675 Y132.910 E0.01800
G1 X122.500 Y132.380 E0.01814
G1 X122.221 Y131.896 E0.01814
G1 X121.849 Y131.479 E0.01814
G1 X121.404 Y131.149 E0.01800
G1 X121.122 Y131.014 E0.01017
G1 X120.944 Y131.385 F18000.000
; custom gcode: feature_gcode
;ExternalPerimeter                   ;  ExternalPerimeter
M204 P750 T5000
; custom gcode end: feature_gcode

;TYPE:External perimeter
G1 F1800.000
G1 X120.812 Y131.321 E0.00477
G1 X120.355 Y131.202 E0.01536
G1 X119.881 Y131.177 E0.01539
G1 X119.413 Y131.250 E0.01540
G1 X118.970 Y131.415 E0.01535
G1 X118.612 Y131.635 E0.01366
G1 X118.263 Y131.953 E0.01535
G1 X117.985 Y132.337 E0.01540
G1 X117.792 Y132.770 E0.01540
G1 X117.690 Y133.231 E0.01535
G1 X117.679 Y133.652 E0.01366
G1 X117.757 Y134.114 E0.01523
G1 X117.856 Y134.397 E0.00975
G1 X118.048 Y134.766 E0.01350
G1 X118.344 Y135.134 E0.01537
G1 X118.709 Y135.435 E0.01535
G1 X119.078 Y135.636 E0.01366
G1 X119.529 Y135.779 E0.01535
G1 X120.000 Y135.827 E0.01540
G1 X120.471 Y135.779 E0.01540
G1 X120.922 Y135.636 E0.01535
G1 X121.291 Y135.435 E0.01366
G1 X121.656 Y135.134 E0.01535
G1 X121.953 Y134.765 E0.01540
G1 X122.168 Y134.343 E0.01539
G1 X122.293 Y133.887 E0.01536
G1 X122.325 Y133.468 E0.01366
G1 X122.271 Y132.999 E0.01535
G1 X122.123 Y132.549 E0.01540
G1 X121.886 Y132.138 E0.01539
G1 X121.570 Y131.785 E0.01540
G1 X121.191 Y131.503 E0.01535
G1 X120.998 Y131.411 E0.00694
G1 X120.933 Y131.238 F18000.000
G1 E-0.08000 F3000.00000
G1 F14400.000
G1 X120.812 Y131.321 E-0.04094
G1 X120.355 Y131.202 E-0.09353
G1 X119.881 Y131.177 E-0.09376
