G10 P0 R250 S250 ; sets the standby temperature
; generated by SuperSlicer 2.3.55 on 2023-09-14 at 07:41:16 UTC

; TODO: check the size of the extruder and the y-bar clearance. Optimize & test supports.

; external perimeters extrusion width = 0.39mm
; perimeters extrusion width = 0.60mm
; infill extrusion width = 0.80mm
; solid infill extrusion width = 0.60mm
; top infill extrusion width = 0.32mm
; first layer extrusion width = 0.45mm

; object:{"name":"[a]_y_endstop_housing","id":"[a]_y_endstop_housing.stl id:0 copy 0","object_center":[125.000000,125.000000,0.000000],"boundingbox_center":[125.000000,125.000000,5.300000],"boundingbox_size":[20.000000,34.000000,10.600000]}
; plater:{"center":[125.000000,125.000000,0.000000],"boundingbox_center":[125.000000,125.000000,5.300000],"boundingbox_size":[20.000000,34.000000,10.600000]}

;TYPE:Custom
; custom gcode: start_gcode
M106 P4 S255
M140 S95 ; set bed final temp
M104 S250 ; set extruder final temp
M190 S95 ; wait for bed final temp
M109 S250 ; wait for extruder final temp
;G29
G28
;M98 P"/macros/nozzle/brush.g"
;PRINT_START

G92 E0 ;Reset Extruder
;;G1 Z2.0 F3000 ;Move Z Axis up


G1 X100 Y4.6 Z0.3 F18000.0 ; Move to side a little

G1 X5 Y4.6 Z0.3 F1500.0 E10 ; Draw the second line

G1 X5 Y4.2 Z0.3 F1500.0 E10 ; Draw the third line

G1 X100 Y4.2 Z0.3 F1500.0 E10 ; Draw the third line


;G92 E0;		Reset extruder
;G1 X1 Y10 F6000;
;G1 Z1.7;
;G1 X1 Y60 E140 F50;
;G1 E-<DESTRING> F1500;
;G1 Z4
;G1 X<NEXTX> Y<NEXTY> F12000;
;G92 E0 ;Reset Extruder

;G1 Z2.0 F3000 ;Move Z Axis up
; custom gcode end: start_gcode
M107
G21 ; set units to millimeters
G90 ; use absolute coordinates
M83 ; use relative distances for extrusion
; custom gcode: start_filament_gcode
; Filament gcode
M572 D0 S0.055
; custom gcode end: start_filament_gcode
;LAYER_CHANGE
;Z:0.2
;HEIGHT:0.2
; custom gcode: before_layer_gcode
;BEFORE_LAYER_CHANGE
;0.2

; custom gcode end: before_layer_gcode

G1 Z0.200000 F18000.000
; custom gcode: layer_gcode
;AFTER_LAYER_CHANGE
;0.2
; custom gcode end: layer_gcode

G1 E-0.80000 F3000.00000
G1 Z1.000000 F18000.000
G1 X111.531 Y105.232
G1 Z0.200000
G1 E0.80000 F2100.00000
; custom gcode: feature_gcode
;Skirt
M204 P2000 T5000
; custom gcode end: feature_gcode

;TYPE:Skirt
G1 F2400.000
G1 X112.307 Y104.464 E0.03549
G1 X113.089 Y103.859 E0.03213
G1 X114.009 Y103.306 E0.03487
G1 X114.893 Y102.909 E0.03148
G1 X115.938 Y102.582 E0.03558
G1 X116.845 Y102.410 E0.02999
G1 X117.907 Y102.333 E0.03463
G1 X132.005 Y102.332 E0.45811
G1 X133.424 Y102.450 E0.04625
G1 X134.886 Y102.828 E0.04908
G1 X136.315 Y103.484 E0.05109
G1 X137.515 Y104.314 E0.04742
G1 X138.556 Y105.330 E0.04728
G1 X139.398 Y106.484 E0.04641
G1 X140.049 Y107.786 E0.04729
G1 X140.478 Y109.204 E0.04814
G1 X140.668 Y110.962 E0.05746
G1 X140.667 Y139.072 E0.91343
G1 X140.520 Y140.589 E0.04954
G1 X140.078 Y142.141 E0.05243
G1 X139.640 Y143.092 E0.03402
G1 X139.028 Y144.072 E0.03754
G1 X138.316 Y144.934 E0.03634
G1 X137.573 Y145.638 E0.03326
G1 X136.660 Y146.308 E0.03679
G1 X135.749 Y146.814 E0.03387
G1 X134.677 Y147.244 E0.03753
G1 X133.611 Y147.515 E0.03572
G1 X132.056 Y147.667 E0.05077
G1 X117.862 Y147.666 E0.46126
G1 X116.387 Y147.515 E0.04816
G1 X114.859 Y147.078 E0.05165
G1 X113.865 Y146.617 E0.03559
G1 X112.825 Y145.953 E0.04010
G1 X111.903 Y145.161 E0.03951
G1 X111.133 Y144.287 E0.03786
G1 X110.519 Y143.377 E0.03565
G1 X110.007 Y142.352 E0.03724
G1 X109.625 Y141.229 E0.03856
G1 X109.410 Y140.155 E0.03556
G1 X109.332 Y139.014 E0.03718
G1 X109.333 Y110.904 E0.91343
G1 X109.483 Y109.399 E0.04915
G1 X109.922 Y107.859 E0.05204
G1 X110.351 Y106.924 E0.03344
G1 X110.940 Y105.972 E0.03636
G1 X111.494 Y105.279 E0.02883
G1 X111.811 Y105.533 F18000.000
G1 F2400.000
G1 X112.593 Y104.755 E0.03585
G1 X113.335 Y104.184 E0.03040
G1 X114.218 Y103.656 E0.03344
G1 X115.059 Y103.282 E0.02992
G1 X116.077 Y102.967 E0.03464
G1 X116.912 Y102.812 E0.02758
G1 X117.918 Y102.740 E0.03277
G1 X132.005 Y102.739 E0.45776
G1 X133.365 Y102.853 E0.04435
G1 X134.769 Y103.218 E0.04715
G1 X136.141 Y103.853 E0.04911
G1 X137.309 Y104.671 E0.04635
G1 X138.295 Y105.651 E0.04515
G1 X139.121 Y106.814 E0.04636
G1 X139.710 Y108.037 E0.04412
G1 X140.116 Y109.468 E0.04832
G1 X140.261 Y110.970 E0.04906
G1 X140.260 Y139.069 E0.91307
G1 X140.118 Y140.520 E0.04738
G1 X139.690 Y142.014 E0.05049
G1 X139.277 Y142.909 E0.03203
G1 X138.689 Y143.847 E0.03597
G1 X137.976 Y144.701 E0.03616
G1 X137.295 Y145.340 E0.03032
G1 X136.427 Y145.974 E0.03495
G1 X135.560 Y146.453 E0.03218
G1 X134.532 Y146.863 E0.03596
G1 X133.498 Y147.123 E0.03465
G1 X132.047 Y147.260 E0.04735
G1 X117.872 Y147.259 E0.46062
G1 X116.462 Y147.115 E0.04605
G1 X114.986 Y146.691 E0.04992
G1 X114.055 Y146.257 E0.03337
G1 X113.059 Y145.620 E0.03843
G1 X112.181 Y144.863 E0.03767
G1 X111.442 Y144.021 E0.03640
G1 X110.859 Y143.151 E0.03404
G1 X110.357 Y142.132 E0.03691
G1 X110.009 Y141.092 E0.03562
G1 X109.811 Y140.077 E0.03362
G1 X109.739 Y139.012 E0.03467
G1 X109.740 Y110.913 E0.91307
G1 X109.883 Y109.474 E0.04700
G1 X110.309 Y107.986 E0.05030
G1 X110.718 Y107.101 E0.03166
G1 X111.280 Y106.196 E0.03463
G1 X111.774 Y105.580 E0.02564
G1 X112.091 Y105.835 F18000.000
G1 F2400.000
G1 X112.873 Y105.051 E0.03600
G1 X113.574 Y104.514 E0.02868
G1 X114.420 Y104.010 E0.03200
G1 X115.361 Y103.604 E0.03331
G1 X116.214 Y103.352 E0.02888
G1 X117.934 Y103.147 E0.05629
G1 X132.005 Y103.146 E0.45724
G1 X133.295 Y103.254 E0.04207
G1 X134.635 Y103.603 E0.04500
G1 X135.940 Y104.207 E0.04673
G1 X137.055 Y104.990 E0.04428
G1 X137.990 Y105.920 E0.04284
G1 X138.776 Y107.030 E0.04419
G1 X139.335 Y108.197 E0.04205
G1 X139.723 Y109.579 E0.04666
G1 X139.853 Y110.979 E0.04566
G1 X139.853 Y139.067 E0.91272
G1 X139.717 Y140.451 E0.04520
G1 X139.304 Y141.886 E0.04853
G1 X138.913 Y142.725 E0.03007
G1 X138.353 Y143.616 E0.03420
G1 X137.671 Y144.432 E0.03456
G1 X137.023 Y145.036 E0.02878
G1 X136.199 Y145.636 E0.03313
G1 X135.372 Y146.092 E0.03066
G1 X134.389 Y146.481 E0.03437
G1 X133.387 Y146.729 E0.03353
G1 X132.038 Y146.853 E0.04402
G1 X117.877 Y146.852 E0.46017
G1 X116.530 Y146.713 E0.04401
G1 X115.114 Y146.304 E0.04789
G1 X114.104 Y145.818 E0.03642
G1 X113.280 Y145.276 E0.03206
G1 X112.447 Y144.553 E0.03584
G1 X111.724 Y143.721 E0.03582
G1 X111.185 Y142.901 E0.03186
G1 X110.703 Y141.903 E0.03602
G1 X110.370 Y140.858 E0.03566
G1 X110.195 Y139.855 E0.03309
G1 X110.147 Y110.916 E0.94034
G1 X110.284 Y109.543 E0.04484
G1 X110.696 Y108.114 E0.04834
G1 X111.082 Y107.285 E0.02971
G1 X111.620 Y106.420 E0.03310
G1 X112.053 Y105.882 E0.02245
; printing object [a]_y_endstop_housing.stl id:0 copy 0
G1 E-0.08000 F3000.00000
G1 F14400.000
G1 X112.873 Y105.051 E-0.23109
G1 X113.574 Y104.514 E-0.17469
G1 X114.420 Y104.010 E-0.19491
G1 X114.807 Y103.843 E-0.08331
G1 E-0.03600 F3000.00000
G1 Z0.600000 F18000.000
G1 X123.768 Y131.344
G1 Z0.200000
G1 E0.80000 F2100.00000
; custom gcode: feature_gcode
;Perimeter                        ;  Perimeter
M204 P1000 T5000
; custom gcode end: feature_gcode

;TYPE:Perimeter
G1 F2400.000
G1 X123.306 Y131.566 E0.01666
G1 X122.883 Y131.856 E0.01666
G1 X122.666 Y132.045 E0.00934
G1 X122.322 Y132.424 E0.01666
G1 X122.033 Y132.863 E0.01706
G1 X121.821 Y133.330 E0.01666
G1 X121.733 Y133.604 E0.00934
G1 X121.637 Y134.094 E0.01626
G1 X121.615 Y134.381 E0.00934
G1 X121.635 Y134.893 E0.01666
G1 X121.733 Y135.396 E0.01666
G1 X121.821 Y135.670 E0.00934
G1 X122.028 Y136.126 E0.01626
G1 X122.177 Y136.372 E0.00934
G1 X122.491 Y136.777 E0.01666
G1 X122.864 Y137.129 E0.01666
G1 X123.094 Y137.300 E0.00934
G1 X123.538 Y137.557 E0.01666
G1 X124.017 Y137.742 E0.01666
G1 X124.295 Y137.813 E0.00934
G1 X124.803 Y137.883 E0.01666
G1 X125.328 Y137.872 E0.01706
G1 X125.833 Y137.783 E0.01666
G1 X126.108 Y137.701 E0.00934
G1 X126.579 Y137.498 E0.01666
G1 X127.013 Y137.224 E0.01666
G1 X127.237 Y137.044 E0.00934
G1 X127.587 Y136.687 E0.01626
G1 X127.763 Y136.460 E0.00934
G1 X128.028 Y136.021 E0.01666
G1 X128.227 Y135.535 E0.01706
G1 X128.348 Y135.024 E0.01706
G1 X128.387 Y134.512 E0.01666
G1 X128.345 Y133.964 E0.01786
G1 X128.227 Y133.465 E0.01666
G1 X128.028 Y132.979 E0.01706
G1 X127.763 Y132.540 E0.01666
G1 X127.587 Y132.313 E0.00934
G1 X127.237 Y131.956 E0.01626
G1 X127.013 Y131.776 E0.00934
G1 X126.579 Y131.502 E0.01666
G1 X126.108 Y131.299 E0.01666
G1 X125.833 Y131.217 E0.00934
G1 X125.328 Y131.128 E0.01666
G1 X124.803 Y131.117 E0.01706
G1 X124.295 Y131.187 E0.01666
G1 X123.825 Y131.325 E0.01591
G1 X123.958 Y131.714 F18000.000
; custom gcode: feature_gcode
;ExternalPerimeter                   ;  ExternalPerimeter
M204 P750 T5000
; custom gcode end: feature_gcode

;TYPE:External perimeter
G1 F1800.000
G1 X123.512 Y131.923 E0.01601
G1 X123.135 Y132.181 E0.01484
G1 X122.955 Y132.339 E0.00778
G1 X122.648 Y132.677 E0.01484
G1 X122.395 Y133.062 E0.01499
G1 X122.206 Y133.478 E0.01484
G1 X122.132 Y133.706 E0.00778
G1 X122.045 Y134.150 E0.01470
G1 X122.027 Y134.389 E0.00778
G1 X122.044 Y134.845 E0.01484
G1 X122.132 Y135.294 E0.01484
G1 X122.206 Y135.522 E0.00778
G1 X122.393 Y135.934 E0.01470
G1 X122.517 Y136.139 E0.00778
G1 X122.796 Y136.500 E0.01484
G1 X123.129 Y136.813 E0.01484
G1 X123.321 Y136.956 E0.00778
G1 X123.716 Y137.185 E0.01484
G1 X124.142 Y137.349 E0.01484
G1 X124.374 Y137.409 E0.00778
G1 X124.827 Y137.471 E0.01484
G1 X125.288 Y137.462 E0.01499
G1 X125.738 Y137.382 E0.01484
G1 X125.967 Y137.314 E0.00778
G1 X126.387 Y137.133 E0.01484
G1 X126.773 Y136.889 E0.01484
G1 X126.960 Y136.739 E0.00778
G1 X127.276 Y136.416 E0.01470
G1 X127.423 Y136.227 E0.00778
G1 X127.659 Y135.835 E0.01484
G1 X127.834 Y135.409 E0.01499
G1 X127.940 Y134.960 E0.01499
G1 X127.975 Y134.504 E0.01484
G1 X127.939 Y134.036 E0.01527
G1 X127.834 Y133.591 E0.01484
G1 X127.659 Y133.165 E0.01499
G1 X127.423 Y132.773 E0.01484
G1 X127.276 Y132.584 E0.00778
G1 X126.960 Y132.261 E0.01470
G1 X126.773 Y132.111 E0.00778
G1 X126.387 Y131.867 E0.01484
G1 X125.967 Y131.686 E0.01484
G1 X125.738 Y131.618 E0.00778
G1 X125.288 Y131.538 E0.01484
G1 X124.827 Y131.529 E0.01499
G1 X124.374 Y131.591 E0.01484
G1 X124.015 Y131.695 E0.01215
G1 X123.642 Y131.469 F18000.000
G1 E-0.08000 F3000.00000
G1 F14400.000
G1 X123.512 Y131.923 E-0.10931
G1 X123.135 Y132.181 E-0.09041
G1 X122.955 Y132.339 E-0.04740
G1 X122.648 Y132.677 E-0.09041
G1 X122.395 Y133.062 E-0.09128
G1 X122.206 Y133.478 E-0.09041
G1 X122.132 Y133.706 E-0.04740
G1 X122.045 Y134.150 E-0.08954
G1 X122.034 Y134.291 E-0.02785
G1 E-0.03600 F3000.00000
G1 X127.721 Y114.976 F18000.000
G1 E0.80000 F2100.00000
; custom gcode: feature_gcode
;Perimeter                        ;  Perimeter
M204 P1000 T5000
; custom gcode end: feature_gcode

;TYPE:Perimeter
G1 F2400.000
G1 X128.017 Y115.035 E0.00981
G1 X128.518 Y115.035 E0.01629
G1 X129.002 Y114.905 E0.01629
G1 X129.273 Y114.772 E0.00981
G1 X129.524 Y114.604 E0.00981
G1 X129.878 Y114.250 E0.01629
G1 X130.129 Y113.815 E0.01629
G1 X130.226 Y113.529 E0.00981
G1 X130.285 Y113.233 E0.00981
G1 X130.285 Y112.732 E0.01629
G1 X130.155 Y112.248 E0.01629
G1 X130.022 Y111.977 E0.00981
G1 X129.854 Y111.726 E0.00981
G1 X129.524 Y111.396 E0.01516
G1 X129.244 Y111.209 E0.01093
G1 X128.813 Y111.031 E0.01516
G1 X128.483 Y110.965 E0.01093
G1 X127.982 Y110.965 E0.01629
G1 X127.498 Y111.095 E0.01629
G1 X127.227 Y111.228 E0.00981
G1 X126.976 Y111.396 E0.00981
G1 X126.646 Y111.726 E0.01516
G1 X126.459 Y112.006 E0.01093
G1 X126.281 Y112.437 E0.01516
G1 X126.215 Y112.767 E0.01093
G1 X126.215 Y113.233 E0.01516
G1 X126.281 Y113.563 E0.01093
G1 X126.459 Y113.994 E0.01516
G1 X126.646 Y114.274 E0.01093
G1 X127.000 Y114.628 E0.01629
G1 X127.435 Y114.879 E0.01629
G1 X127.664 Y114.957 E0.00786
G1 X127.795 Y114.571 F18000.000
G1 F2400.000
G1 X128.057 Y114.628 E0.00872
G1 X128.464 Y114.628 E0.01324
G1 X128.858 Y114.522 E0.01324
G1 X129.069 Y114.418 E0.00764
G1 X129.264 Y114.288 E0.00764
G1 X129.553 Y114.000 E0.01324
G1 X129.756 Y113.647 E0.01324
G1 X129.832 Y113.424 E0.00764
G1 X129.878 Y113.193 E0.00764
G1 X129.878 Y112.786 E0.01324
G1 X129.772 Y112.392 E0.01324
G1 X129.668 Y112.181 E0.00764
G1 X129.538 Y111.986 E0.00764
G1 X129.264 Y111.712 E0.01256
G1 X129.051 Y111.570 E0.00832
G1 X128.694 Y111.422 E0.01256
G1 X128.443 Y111.372 E0.00832
G1 X128.036 Y111.372 E0.01324
G1 X127.642 Y111.478 E0.01324
G1 X127.431 Y111.582 E0.00764
G1 X127.236 Y111.712 E0.00764
G1 X126.962 Y111.986 E0.01256
G1 X126.820 Y112.199 E0.00832
G1 X126.672 Y112.556 E0.01256
G1 X126.622 Y112.807 E0.00832
G1 X126.622 Y113.193 E0.01256
G1 X126.672 Y113.444 E0.00832
G1 X126.820 Y113.801 E0.01256
G1 X126.962 Y114.014 E0.00832
G1 X127.250 Y114.303 E0.01324
G1 X127.603 Y114.506 E0.01324
G1 X127.738 Y114.552 E0.00461
G1 X127.870 Y114.162 F18000.000
; custom gcode: feature_gcode
;ExternalPerimeter                   ;  ExternalPerimeter
M204 P750 T5000
; custom gcode end: feature_gcode

;TYPE:External perimeter
G1 F1800.000
G1 X128.097 Y114.217 E0.00759
G1 X128.410 Y114.217 E0.01017
G1 X128.712 Y114.136 E0.01017
G1 X128.863 Y114.061 E0.00545
G1 X129.002 Y113.968 E0.00545
G1 X129.223 Y113.747 E0.01017
G1 X129.380 Y113.476 E0.01017
G1 X129.434 Y113.317 E0.00545
G1 X129.467 Y113.153 E0.00545
G1 X129.467 Y112.840 E0.01017
G1 X129.386 Y112.538 E0.01017
G1 X129.311 Y112.387 E0.00545
G1 X129.218 Y112.248 E0.00545
G1 X129.002 Y112.032 E0.00992
G1 X128.857 Y111.934 E0.00569
G1 X128.574 Y111.818 E0.00992
G1 X128.403 Y111.783 E0.00569
G1 X128.090 Y111.783 E0.01017
G1 X127.788 Y111.864 E0.01017
G1 X127.637 Y111.939 E0.00545
G1 X127.498 Y112.032 E0.00545
G1 X127.282 Y112.248 E0.00992
G1 X127.184 Y112.393 E0.00569
G1 X127.068 Y112.676 E0.00992
G1 X127.033 Y112.847 E0.00569
G1 X127.033 Y113.153 E0.00992
G1 X127.068 Y113.324 E0.00569
G1 X127.184 Y113.607 E0.00992
G1 X127.282 Y113.752 E0.00569
G1 X127.503 Y113.973 E0.01017
G1 X127.813 Y114.143 E0.01149
G1 X127.919 Y114.391 F18000.000
G1 E-0.08000 F3000.00000
G1 F14400.000
G1 X128.097 Y114.217 E-0.05808
G1 X128.410 Y114.217 E-0.06192
G1 X128.712 Y114.136 E-0.06192
G1 X128.863 Y114.061 E-0.03320
G1 X129.002 Y113.968 E-0.03320
G1 X129.223 Y113.747 E-0.06192
G1 X129.380 Y113.476 E-0.06192
G1 X129.434 Y113.317 E-0.03320
G1 X129.467 Y113.153 E-0.03320
G1 X129.467 Y112.840 E-0.06192
G1 X129.386 Y112.538 E-0.06192
G1 X129.311 Y112.387 E-0.03320
G1 X129.218 Y112.248 E-0.03320
G1 X129.021 Y112.050 E-0.05522
G1 E-0.03600 F3000.00000
G1 X123.764 Y113.338 F18000.000
G1 E0.80000 F2100.00000
; custom gcode: feature_gcode
;Perimeter                        ;  Perimeter
M204 P1000 T5000
; custom gcode end: feature_gcode

;TYPE:Perimeter
G1 F2400.000
G1 X123.785 Y113.233 E0.00346
G1 X123.785 Y112.767 E0.01516
G1 X123.719 Y112.437 E0.01093
G1 X123.528 Y111.974 E0.01629
G1 X123.222 Y111.576 E0.01629
G1 X122.970 Y111.354 E0.01093
G1 X122.565 Y111.121 E0.01516
G1 X122.279 Y111.024 E0.00981
G1 X121.983 Y110.965 E0.00981
G1 X121.482 Y110.965 E0.01629
G1 X120.998 Y111.095 E0.01629
G1 X120.696 Y111.243 E0.01093
G1 X120.326 Y111.528 E0.01516
G1 X120.127 Y111.755 E0.00981
G1 X119.959 Y112.006 E0.00981
G1 X119.767 Y112.469 E0.01629
G1 X119.702 Y112.966 E0.01629
G1 X119.722 Y113.267 E0.00981
G1 X119.781 Y113.563 E0.00981
G1 X119.972 Y114.026 E0.01629
G1 X120.278 Y114.424 E0.01629
G1 X120.530 Y114.646 E0.01093
G1 X120.935 Y114.879 E0.01516
G1 X121.221 Y114.976 E0.00981
G1 X121.517 Y115.035 E0.00981
G1 X122.018 Y115.035 E0.01629
G1 X122.502 Y114.905 E0.01629
G1 X122.804 Y114.757 E0.01093
G1 X123.174 Y114.472 E0.01516
G1 X123.396 Y114.220 E0.01093
G1 X123.629 Y113.815 E0.01516
G1 X123.753 Y113.397 E0.01419
G1 X123.353 Y113.317 F18000.000
G1 F2400.000
G1 X123.378 Y113.193 E0.00411
G1 X123.378 Y112.807 E0.01256
G1 X123.328 Y112.556 E0.00832
G1 X123.172 Y112.179 E0.01324
G1 X122.924 Y111.856 E0.01324
G1 X122.731 Y111.687 E0.00832
G1 X122.397 Y111.494 E0.01256
G1 X122.174 Y111.418 E0.00764
G1 X121.943 Y111.372 E0.00764
G1 X121.536 Y111.372 E0.01324
G1 X121.142 Y111.478 E0.01324
G1 X120.912 Y111.591 E0.00832
G1 X120.606 Y111.826 E0.01256
G1 X120.451 Y112.003 E0.00764
G1 X120.320 Y112.199 E0.00764
G1 X120.164 Y112.575 E0.01324
G1 X120.111 Y112.979 E0.01324
