G10 P0 R235 S235 ; sets the standby temperature
; generated by SuperSlicer 2.3.55 on 2023-09-14 at 09:04:44 UTC

; TODO: check the size of the extruder and the y-bar clearance. Optimize & test supports.

; external perimeters extrusion width = 0.39mm
; perimeters extrusion width = 0.40mm
; infill extrusion width = 0.60mm
; solid infill extrusion width = 0.60mm
; top infill extrusion width = 0.32mm
; first layer extrusion width = 0.45mm

; object:{"name":"[a]_z_carriage_left","id":"[a]_z_carriage_left.stl id:0 copy 0","object_center":[128.767412,107.971847,0.000000],"boundingbox_center":[128.767412,107.971847,2.000000],"boundingbox_size":[74.568830,75.267632,4.000000]}
; object:{"name":"[a]_tensioner_left","id":"[a]_tensioner_left.stl id:1 copy 0","object_center":[124.985174,147.731881,0.000000],"boundingbox_center":[124.985174,147.731881,9.000092],"boundingbox_size":[45.015758,25.028375,18.000183]}
; plater:{"center":[128.767412,115.292050,0.000000],"boundingbox_center":[128.767412,115.292050,9.000092],"boundingbox_size":[74.568830,89.908038,18.000183]}

;TYPE:Custom
; custom gcode: start_gcode
M106 P4 S255
M140 S95 ; set bed final temp
M104 S235 ; set extruder final temp
M190 S95 ; wait for bed final temp
M109 S235 ; wait for extruder final temp
;G29
G28
;M98 P"/macros/nozzle/brush.g"
;PRINT_START

G92 E0 ;Reset Extruder
;;G1 Z2.0 F3000 ;Move Z Axis up


G1 X100 Y4.6 Z0.3 F18000.0 ; Move to side a little

G1 X5 Y4.6 Z0.3 F1500.0 E10 ; Draw the second line

G1 X5 Y4.2 Z0.3 F1500.0 E10 ; Draw the third line

G1 X100 Y4.2 Z0.3 F1500.0 E10 ; Draw the third line


;G92 E0;		Reset extruder
;G1 X1 Y10 F6000;
;G1 Z1.7;
;G1 X1 Y60 E140 F50;
;G1 E-<DESTRING> F1500;
;G1 Z4
;G1 X<NEXTX> Y<NEXTY> F12000;
;G92 E0 ;Reset Extruder

;G1 Z2.0 F3000 ;Move Z Axis up
; custom gcode end: start_gcode
M107
G21 ; set units to millimeters
G90 ; use absolute coordinates
M83 ; use relative distances for extrusion
; custom gcode: start_filament_gcode
; Filament gcode
M572 D0 S0.05
; custom gcode end: start_filament_gcode
;LAYER_CHANGE
;Z:0.2
;HEIGHT:0.2
; custom gcode: before_layer_gcode
;BEFORE_LAYER_CHANGE
;0.2

; custom gcode end: before_layer_gcode

G1 Z0.200000 F18000.000
; custom gcode: layer_gcode
;AFTER_LAYER_CHANGE
;0.2
; custom gcode end: layer_gcode

G1 E-0.80000 F3000.00000
G1 Z1.000000 F18000.000
G1 X94.511 Y91.583
G1 Z0.200000
G1 E0.80000 F2100.00000
; custom gcode: feature_gcode
;Skirt
M204 P2000 T5000
; custom gcode end: feature_gcode

;TYPE:Skirt
G1 F2400.000
G1 X102.071 Y84.891 E0.31441
G1 X103.396 Y84.019 E0.04941
G1 X104.900 Y83.495 E0.04960
G1 X106.212 Y83.354 E0.04107
G1 X140.786 Y83.340 E1.07667
G1 X142.399 Y83.419 E0.05030
G1 X143.551 Y83.572 E0.03618
G1 X145.130 Y83.915 E0.05032
G1 X146.673 Y84.415 E0.05052
G1 X147.745 Y84.862 E0.03617
G1 X149.185 Y85.609 E0.05052
G1 X150.545 Y86.494 E0.05051
G1 X151.472 Y87.215 E0.03657
G1 X152.652 Y88.299 E0.04993
G1 X153.734 Y89.508 E0.05051
G1 X154.434 Y90.436 E0.03618
G1 X155.307 Y91.817 E0.05091
G1 X156.029 Y93.256 E0.05012
G1 X156.467 Y94.347 E0.03660
G1 X156.943 Y95.890 E0.05029
G1 X157.279 Y97.560 E0.05304
G1 X157.460 Y100.185 E0.08195
G1 X157.210 Y120.231 E0.62431
G1 X157.113 Y121.975 E0.05437
G1 X153.311 Y155.739 E1.05811
G1 X152.947 Y157.516 E0.05650
G1 X152.322 Y159.206 E0.05611
G1 X151.614 Y160.525 E0.04663
G1 X150.751 Y161.742 E0.04645
G1 X149.751 Y162.832 E0.04606
G1 X148.584 Y163.820 E0.04763
G1 X147.382 Y164.605 E0.04470
G1 X146.000 Y165.277 E0.04785
G1 X144.439 Y165.794 E0.05120
G1 X142.918 Y166.080 E0.04820
G1 X141.491 Y166.167 E0.04453
G1 X108.311 Y166.144 E1.03326
G1 X107.051 Y166.060 E0.03932
G1 X105.885 Y165.859 E0.03684
G1 X104.599 Y165.496 E0.04161
G1 X103.517 Y165.062 E0.03631
G1 X102.198 Y164.354 E0.04663
G1 X100.991 Y163.499 E0.04605
G1 X99.904 Y162.505 E0.04588
G1 X98.929 Y161.360 E0.04683
G1 X98.134 Y160.149 E0.04510
G1 X97.467 Y158.792 E0.04707
G1 X96.989 Y157.400 E0.04585
G1 X96.664 Y155.814 E0.05042
G1 X92.560 Y96.570 E1.84933
G1 X92.660 Y95.018 E0.04844
G1 X93.130 Y93.535 E0.04844
G1 X93.729 Y92.494 E0.03739
G1 X94.472 Y91.629 E0.03552
G1 X94.780 Y91.894 F18000.000
G1 F2400.000
G1 X102.338 Y85.199 E0.31443
G1 X103.586 Y84.379 E0.04650
G1 X105.003 Y83.890 E0.04668
G1 X106.218 Y83.761 E0.03806
G1 X140.786 Y83.747 E1.07647
G1 X142.366 Y83.825 E0.04928
G1 X143.482 Y83.973 E0.03504
G1 X145.023 Y84.308 E0.04913
G1 X146.536 Y84.798 E0.04950
G1 X147.568 Y85.229 E0.03484
G1 X148.979 Y85.961 E0.04951
G1 X150.306 Y86.824 E0.04931
G1 X151.211 Y87.528 E0.03568
G1 X152.362 Y88.585 E0.04867
G1 X153.422 Y89.770 E0.04950
G1 X154.096 Y90.663 E0.03485
G1 X154.955 Y92.022 E0.05007
G1 X155.699 Y93.515 E0.05195
G1 X156.260 Y94.996 E0.04931
G1 X156.573 Y96.090 E0.03542
G1 X156.880 Y97.643 E0.04931
G1 X157.053 Y100.186 E0.07939
G1 X156.803 Y120.226 E0.62409
G1 X156.708 Y121.942 E0.05353
G1 X152.908 Y155.684 E1.05741
G1 X152.555 Y157.408 E0.05478
G1 X151.946 Y159.049 E0.05450
G1 X151.264 Y160.316 E0.04483
G1 X150.433 Y161.487 E0.04472
G1 X149.471 Y162.537 E0.04434
G1 X148.338 Y163.496 E0.04623
G1 X147.180 Y164.251 E0.04302
G1 X145.846 Y164.900 E0.04619
G1 X144.329 Y165.402 E0.04976
G1 X142.853 Y165.678 E0.04679
G1 X141.485 Y165.760 E0.04267
G1 X108.322 Y165.737 E1.03271
G1 X107.101 Y165.656 E0.03812
G1 X105.971 Y165.461 E0.03570
G1 X104.723 Y165.108 E0.04041
G1 X103.675 Y164.687 E0.03517
G1 X102.412 Y164.008 E0.04464
G1 X101.246 Y163.181 E0.04452
G1 X100.194 Y162.220 E0.04435
G1 X99.249 Y161.107 E0.04547
G1 X98.484 Y159.942 E0.04341
G1 X97.842 Y158.632 E0.04544
G1 X97.380 Y157.288 E0.04424
G1 X97.065 Y155.743 E0.04909
G1 X92.967 Y96.550 E1.84773
G1 X93.061 Y95.090 E0.04556
G1 X93.504 Y93.696 E0.04556
G1 X94.067 Y92.721 E0.03505
G1 X94.740 Y91.939 E0.03214
G1 X95.048 Y92.205 F18000.000
G1 F2400.000
G1 X102.601 Y85.510 E0.31430
G1 X103.771 Y84.741 E0.04362
G1 X105.102 Y84.285 E0.04380
G1 X106.223 Y84.168 E0.03511
G1 X140.786 Y84.154 E1.07631
G1 X142.333 Y84.230 E0.04825
G1 X143.424 Y84.376 E0.03426
G1 X144.939 Y84.707 E0.04830
G1 X146.486 Y85.213 E0.05067
G1 X147.919 Y85.849 E0.04885
G1 X148.874 Y86.372 E0.03390
G1 X150.169 Y87.227 E0.04830
G1 X151.359 Y88.193 E0.04776
G1 X152.153 Y88.955 E0.03426
G1 X153.180 Y90.117 E0.04830
G1 X154.087 Y91.376 E0.04830
G1 X154.648 Y92.308 E0.03390
G1 X155.333 Y93.693 E0.04812
G1 X155.880 Y95.145 E0.04830
G1 X156.179 Y96.192 E0.03390
G1 X156.481 Y97.725 E0.04866
G1 X156.646 Y100.182 E0.07668
G1 X156.396 Y120.220 E0.62405
G1 X156.302 Y121.909 E0.05270
G1 X152.505 Y155.630 E1.05672
G1 X152.162 Y157.299 E0.05305
G1 X151.571 Y158.890 E0.05287
G1 X150.918 Y160.102 E0.04287
G1 X150.115 Y161.233 E0.04318
G1 X149.186 Y162.246 E0.04282
G1 X148.091 Y163.172 E0.04464
G1 X146.984 Y163.894 E0.04118
G1 X145.691 Y164.524 E0.04479
G1 X144.226 Y165.008 E0.04805
G1 X142.788 Y165.276 E0.04554
G1 X141.485 Y165.353 E0.04065
G1 X108.339 Y165.330 E1.03218
G1 X107.151 Y165.252 E0.03710
G1 X106.063 Y165.065 E0.03436
G1 X104.852 Y164.722 E0.03920
G1 X103.833 Y164.311 E0.03421
G1 X102.621 Y163.658 E0.04287
G1 X101.495 Y162.860 E0.04299
G1 X100.485 Y161.935 E0.04264
G1 X99.572 Y160.860 E0.04390
G1 X98.838 Y159.739 E0.04174
G1 X98.218 Y158.476 E0.04381
G1 X97.773 Y157.182 E0.04263
G1 X97.467 Y155.679 E0.04775
G1 X93.374 Y96.531 E1.84635
G1 X93.462 Y95.162 E0.04272
G1 X93.879 Y93.855 E0.04272
G1 X94.407 Y92.945 E0.03275
G1 X95.009 Y92.251 E0.02861
G1 X95.315 Y92.517 F18000.000
G1 F2400.000
G1 X95.385 Y92.436 E0.00334
G1 X102.867 Y85.818 E0.31108
G1 X103.963 Y85.100 E0.04078
G1 X105.203 Y84.680 E0.04078
G1 X106.222 Y84.575 E0.03189
G1 X140.786 Y84.561 E1.07634
G1 X142.300 Y84.636 E0.04722
G1 X143.349 Y84.776 E0.03294
G1 X144.827 Y85.099 E0.04710
G1 X146.344 Y85.595 E0.04974
G1 X147.742 Y86.216 E0.04763
G1 X148.660 Y86.718 E0.03259
G1 X149.928 Y87.555 E0.04728
G1 X151.093 Y88.501 E0.04676
G1 X151.857 Y89.233 E0.03294
G1 X152.862 Y90.371 E0.04728
G1 X153.749 Y91.603 E0.04728
G1 X154.291 Y92.505 E0.03277
G1 X154.960 Y93.855 E0.04693
G1 X155.495 Y95.276 E0.04728
G1 X155.783 Y96.288 E0.03277
G1 X156.080 Y97.800 E0.04798
G1 X156.239 Y100.172 E0.07403
G1 X155.949 Y121.213 E0.65531
G1 X152.101 Y155.576 E1.07677
G1 X151.772 Y157.184 E0.05114
G1 X151.198 Y158.726 E0.05121
G1 X150.568 Y159.894 E0.04134
G1 X149.798 Y160.978 E0.04140
G1 X148.906 Y161.951 E0.04111
G1 X147.846 Y162.847 E0.04322
G1 X146.743 Y163.563 E0.04094
G1 X145.373 Y164.212 E0.04719
G1 X144.078 Y164.625 E0.04233
G1 X142.724 Y164.873 E0.04286
G1 X141.485 Y164.946 E0.03868
G1 X108.350 Y164.923 E1.03183
G1 X107.200 Y164.848 E0.03590
G1 X106.149 Y164.667 E0.03320
G1 X104.981 Y164.336 E0.03780
G1 X103.998 Y163.939 E0.03304
G1 X102.835 Y163.312 E0.04111
G1 X101.750 Y162.542 E0.04146
G1 X100.780 Y161.654 E0.04095
G1 X99.900 Y160.618 E0.04234
G1 X99.191 Y159.537 E0.04025
G1 X98.592 Y158.316 E0.04235
G1 X98.164 Y157.069 E0.04105
G1 X97.869 Y155.610 E0.04636
G1 X93.780 Y96.510 E1.84482
G1 X93.863 Y95.231 E0.03991
G1 X94.253 Y94.017 E0.03974
G1 X94.747 Y93.171 E0.03049
G1 X95.276 Y92.562 E0.02511
; printing object [a]_z_carriage_left.stl id:0 copy 0
G1 E-0.08000 F3000.00000
G1 F14400.000
G1 X95.385 Y92.436 E-0.03312
G1 X97.849 Y90.257 E-0.65088
G1 E-0.03600 F3000.00000
G1 Z0.600000 F18000.000
G1 X119.449 Y123.910
G1 Z0.200000
G1 E0.80000 F2100.00000
; custom gcode: feature_gcode
;Perimeter                        ;  Perimeter
M204 P1000 T5000
; custom gcode end: feature_gcode

;TYPE:Perimeter
G1 F2400.000
G1 X118.992 Y124.267 E0.01806
G1 X118.713 Y124.583 E0.01315
G1 X118.558 Y124.805 E0.00843
G1 X118.396 Y125.102 E0.01051
G1 X118.271 Y125.419 E0.01061
G1 X118.185 Y125.748 E0.01060
G1 X118.140 Y126.084 E0.01056
G1 X118.136 Y126.354 E0.00840
G1 X118.172 Y126.759 E0.01266
G1 X118.251 Y127.097 E0.01082
G1 X118.374 Y127.430 E0.01105
G1 X118.658 Y127.929 E0.01788
G1 X118.932 Y128.250 E0.01312
G1 X119.128 Y128.435 E0.00841
G1 X119.399 Y128.638 E0.01056
G1 X119.694 Y128.807 E0.01056
G1 X119.942 Y128.912 E0.00839
G1 X120.344 Y129.037 E0.01311
G1 X120.920 Y129.100 E0.01805
G1 X121.362 Y129.068 E0.01378
G1 X121.923 Y128.924 E0.01805
G1 X122.304 Y128.744 E0.01312
G1 X122.535 Y128.604 E0.00840
G1 X122.802 Y128.395 E0.01056
G1 X123.042 Y128.155 E0.01056
G1 X123.209 Y127.944 E0.00840
G1 X123.426 Y127.600 E0.01265
G1 X123.568 Y127.283 E0.01082
G1 X123.673 Y126.944 E0.01105
G1 X123.750 Y126.375 E0.01788
G1 X123.728 Y125.954 E0.01313
G1 X123.684 Y125.688 E0.00841
G1 X123.592 Y125.361 E0.01055
G1 X123.460 Y125.048 E0.01059
G1 X123.291 Y124.752 E0.01061
G1 X123.089 Y124.481 E0.01053
G1 X122.904 Y124.284 E0.00843
G1 X122.583 Y124.010 E0.01314
G1 X122.085 Y123.725 E0.01787
G1 X121.752 Y123.602 E0.01106
G1 X121.413 Y123.521 E0.01084
G1 X121.009 Y123.486 E0.01263
G1 X120.740 Y123.489 E0.00838
G1 X120.403 Y123.534 E0.01058
G1 X120.076 Y123.619 E0.01054
G1 X119.824 Y123.716 E0.00841
G1 X119.502 Y123.882 E0.01126
G1 X119.692 Y124.248 F18000.000
; custom gcode: feature_gcode
;ExternalPerimeter                   ;  ExternalPerimeter
M204 P750 T5000
; custom gcode end: feature_gcode

;TYPE:External perimeter
G1 F1800.000
G1 X119.276 Y124.568 E0.01633
G1 X119.038 Y124.839 E0.01124
G1 X118.909 Y125.023 E0.00698
G1 X118.771 Y125.277 E0.00901
G1 X118.664 Y125.547 E0.00905
G1 X118.591 Y125.828 E0.00903
G1 X118.552 Y126.115 E0.00903
G1 X118.548 Y126.339 E0.00697
G1 X118.580 Y126.693 E0.01106
G1 X118.647 Y126.978 E0.00912
G1 X118.749 Y127.255 E0.00920
G1 X118.997 Y127.691 E0.01561
G1 X119.231 Y127.965 E0.01123
G1 X119.394 Y128.119 E0.00698
G1 X119.626 Y128.293 E0.00903
G1 X119.877 Y128.437 E0.00902
G1 X120.083 Y128.525 E0.00697
G1 X120.428 Y128.631 E0.01122
G1 X120.928 Y128.685 E0.01567
G1 X121.295 Y128.659 E0.01146
G1 X121.782 Y128.534 E0.01567
G1 X122.108 Y128.380 E0.01122
G1 X122.300 Y128.264 E0.00697
G1 X122.528 Y128.085 E0.00902
G1 X122.733 Y127.881 E0.00902
G1 X122.872 Y127.705 E0.00697
G1 X123.062 Y127.405 E0.01106
G1 X123.182 Y127.137 E0.00912
G1 X123.269 Y126.855 E0.00920
G1 X123.336 Y126.358 E0.01561
G1 X123.317 Y125.998 E0.01123
G1 X123.281 Y125.777 E0.00698
G1 X123.202 Y125.498 E0.00903
G1 X123.090 Y125.231 E0.00903
G1 X122.946 Y124.978 E0.00905
G1 X122.772 Y124.746 E0.00902
G1 X122.619 Y124.583 E0.00698
G1 X122.344 Y124.349 E0.01123
G1 X121.910 Y124.100 E0.01560
G1 X121.632 Y123.997 E0.00921
G1 X121.347 Y123.930 E0.00913
G1 X120.994 Y123.898 E0.01105
G1 X120.770 Y123.901 E0.00696
G1 X120.483 Y123.939 E0.00903
G1 X120.202 Y124.012 E0.00903
G1 X119.993 Y124.093 E0.00698
G1 X119.745 Y124.221 E0.00870
G1 X119.332 Y124.074 F18000.000
G1 E-0.08000 F3000.00000
G1 F14400.000
G1 X119.276 Y124.568 E-0.11546
G1 X119.038 Y124.839 E-0.07142
G1 X118.909 Y125.023 E-0.04439
G1 X118.771 Y125.277 E-0.05729
G1 X118.664 Y125.547 E-0.05752
G1 X118.591 Y125.828 E-0.05742
G1 X118.552 Y126.115 E-0.05736
G1 X118.548 Y126.339 E-0.04433
G1 X118.580 Y126.693 E-0.07031
G1 X118.647 Y126.978 E-0.05797
G1 X118.735 Y127.218 E-0.05052
G1 E-0.03600 F3000.00000
G1 X142.806 Y109.045 F18000.000
G1 E0.80000 F2100.00000
; custom gcode: feature_gcode
;Perimeter                        ;  Perimeter
M204 P1000 T5000
; custom gcode end: feature_gcode

;TYPE:Perimeter
G1 F2400.000
G1 X142.212 Y108.697 E0.02143
G1 X141.646 Y108.402 E0.01989
G1 X141.066 Y108.135 E0.01989
G1 X140.473 Y107.898 E0.01989
G1 X139.870 Y107.690 E0.01988
G1 X139.256 Y107.512 E0.01989
G1 X138.635 Y107.365 E0.01989
G1 X138.007 Y107.249 E0.01989
G1 X137.374 Y107.164 E0.01989
G1 X136.732 Y107.111 E0.02005
G1 X135.780 Y107.095 E0.02966
G1 X134.829 Y107.141 E0.02965
G1 X134.189 Y107.216 E0.02005
G1 X133.560 Y107.321 E0.01989
G1 X132.936 Y107.457 E0.01988
G1 X132.319 Y107.623 E0.01989
G1 X131.712 Y107.821 E0.01989
G1 X131.115 Y108.048 E0.01988
G1 X130.530 Y108.305 E0.01989
G1 X129.959 Y108.590 E0.01989
G1 X129.403 Y108.903 E0.01989
G1 X128.863 Y109.244 E0.01989
G1 X128.340 Y109.611 E0.01988
G1 X127.836 Y110.003 E0.01989
G1 X127.353 Y110.420 E0.01989
G1 X126.890 Y110.860 E0.01989
G1 X126.450 Y111.323 E0.01988
G1 X126.034 Y111.807 E0.01989
G1 X125.642 Y112.311 E0.01988
G1 X125.276 Y112.834 E0.01988
G1 X124.936 Y113.375 E0.01989
G1 X124.623 Y113.932 E0.01988
G1 X124.339 Y114.503 E0.01988
G1 X124.083 Y115.089 E0.01989
G1 X123.856 Y115.686 E0.01988
G1 X123.660 Y116.293 E0.01988
G1 X123.493 Y116.910 E0.01988
G1 X123.358 Y117.534 E0.01988
G1 X123.254 Y118.164 E0.01988
G1 X123.181 Y118.798 E0.01988
G1 X123.140 Y119.435 E0.01988
G1 X123.130 Y120.080 E0.02007
G1 X123.189 Y121.184 E0.03443
G1 X123.267 Y121.823 E0.02007
G1 X123.376 Y122.453 E0.01988
G1 X123.516 Y123.076 E0.01988
G1 X123.687 Y123.691 E0.01988
G1 X123.888 Y124.297 E0.01988
G1 X124.119 Y124.892 E0.01988
G1 X124.379 Y125.476 E0.01988
G1 X124.668 Y126.045 E0.01988
G1 X124.984 Y126.600 E0.01988
G1 X125.328 Y127.138 E0.01989
G1 X125.698 Y127.658 E0.01988
G1 X126.094 Y128.159 E0.01988
G1 X126.514 Y128.640 E0.01989
G1 X126.957 Y129.100 E0.01988
G1 X127.422 Y129.537 E0.01989
G1 X127.909 Y129.950 E0.01989
G1 X128.416 Y130.339 E0.01989
G1 X128.941 Y130.702 E0.01989
G1 X129.484 Y131.039 E0.01989
G1 X130.042 Y131.348 E0.01989
G1 X130.616 Y131.629 E0.01989
G1 X131.202 Y131.881 E0.01988
G1 X131.801 Y132.104 E0.01988
G1 X132.409 Y132.297 E0.01989
G1 X133.027 Y132.459 E0.01989
G1 X133.652 Y132.591 E0.01989
G1 X134.283 Y132.691 E0.01988
G1 X134.917 Y132.760 E0.01989
G1 X135.555 Y132.797 E0.01989
G1 X136.193 Y132.803 E0.01988
G1 X136.831 Y132.777 E0.01988
G1 X137.467 Y132.719 E0.01988
G1 X138.100 Y132.630 E0.01989
G1 X138.727 Y132.509 E0.01989
G1 X139.347 Y132.358 E0.01988
G1 X139.959 Y132.176 E0.01989
G1 X140.561 Y131.963 E0.01989
G1 X141.152 Y131.721 E0.01989
G1 X141.730 Y131.450 E0.01989
G1 X142.294 Y131.151 E0.01989
G1 X142.843 Y130.824 E0.01989
G1 X143.374 Y130.470 E0.01988
G1 X143.888 Y130.090 E0.01989
G1 X144.382 Y129.686 E0.01989
G1 X144.855 Y129.257 E0.01989
G1 X145.306 Y128.805 E0.01988
G1 X145.734 Y128.331 E0.01989
G1 X146.139 Y127.837 E0.01989
G1 X146.518 Y127.323 E0.01988
G1 X146.871 Y126.791 E0.01988
G1 X147.197 Y126.242 E0.01989
G1 X147.496 Y125.678 E0.01988
G1 X147.766 Y125.100 E0.01988
G1 X148.008 Y124.508 E0.01988
G1 X148.219 Y123.906 E0.01988
