G10 P0 R255 S255 ; sets the standby temperature
; generated by SuperSlicer 2.3.55 on 2024-02-08 at 19:45:55 UTC

; TODO: check the size of the extruder and the y-bar clearance. Optimize & test supports.

; external perimeters extrusion width = 0.39mm
; perimeters extrusion width = 0.60mm
; infill extrusion width = 0.60mm
; solid infill extrusion width = 0.60mm
; top infill extrusion width = 0.32mm
; support material extrusion width = 0.40mm
; first layer extrusion width = 0.45mm

; object:{"name":"[a]_key_6mm_x38_rev1","id":"[a]_key_6mm_x38_rev1.stl id:0 copy 0","object_center":[133.303360,105.543373,0.000000],"boundingbox_center":[133.303360,105.543373,2.000001],"boundingbox_size":[16.000000,22.000000,4.000002]}
; object:{"name":"lock_body_coro_6mm_x4_Rev1","id":"lock_body_coro_6mm_x4_Rev1.STL id:1 copy 0","object_center":[125.870587,125.542490,0.000000],"boundingbox_center":[125.870587,125.542490,5.000000],"boundingbox_size":[38.697975,19.211277,10.000000]}
; object:{"name":"[a]_key_6mm_x38_rev1","id":"[a]_key_6mm_x38_rev1.stl id:2 copy 0","object_center":[114.813160,108.124905,0.000000],"boundingbox_center":[114.813160,108.124905,2.000001],"boundingbox_size":[22.000000,16.000000,4.000002]}
; object:{"name":"lock_body_coro_6mm_x4_Rev1","id":"lock_body_coro_6mm_x4_Rev1.STL id:3 copy 0","object_center":[125.866755,144.957585,0.000000],"boundingbox_center":[125.866755,144.957585,5.000000],"boundingbox_size":[38.697975,19.211277,10.000000]}
; plater:{"center":[124.516367,124.553298,0.000000],"boundingbox_center":[124.516367,124.553298,5.000000],"boundingbox_size":[41.406415,60.019851,10.000000]}

;TYPE:Custom
; custom gcode: start_gcode
M106 P4 S255
M140 S95 ; set bed final temp
M104 S255 ; set extruder final temp
M190 S95 ; wait for bed final temp
M109 S255 ; wait for extruder final temp
;G29
G28
;M98 P"/macros/nozzle/brush.g"
;PRINT_START

G92 E0 ;Reset Extruder
;;G1 Z2.0 F3000 ;Move Z Axis up


G1 X100 Y4.6 Z0.3 F18000.0 ; Move to side a little

G1 X5 Y4.6 Z0.3 F1500.0 E10 ; Draw the second line

G1 X5 Y4.2 Z0.3 F1500.0 E10 ; Draw the third line

G1 X100 Y4.2 Z0.3 F1500.0 E10 ; Draw the third line


;G92 E0;		Reset extruder
;G1 X1 Y10 F6000;
;G1 Z1.7;
;G1 X1 Y60 E140 F50;
;G1 E-<DESTRING> F1500;
;G1 Z4
;G1 X<NEXTX> Y<NEXTY> F12000;
;G92 E0 ;Reset Extruder

;G1 Z2.0 F3000 ;Move Z Axis up
; custom gcode end: start_gcode
M107
G21 ; set units to millimeters
G90 ; use absolute coordinates
M83 ; use relative distances for extrusion
; custom gcode: start_filament_gcode
; Filament gcode
M572 D0 S0.07
; custom gcode end: start_filament_gcode
;LAYER_CHANGE
;Z:0.2
;HEIGHT:0.2
; custom gcode: before_layer_gcode
;BEFORE_LAYER_CHANGE
;0.2

; custom gcode end: before_layer_gcode

G1 Z0.200000 F18000.000
; custom gcode: layer_gcode
;AFTER_LAYER_CHANGE
;0.2
; custom gcode end: layer_gcode

G1 E-0.80000 F3000.00000
G1 Z1.000000 F18000.000
G1 X101.210 Y97.156
G1 Z0.200000
G1 E0.80000 F2100.00000
; custom gcode: feature_gcode
;Skirt
M204 P2000 T5000
; custom gcode end: feature_gcode

;TYPE:Skirt
G1 F2400.000
G1 X102.220 Y96.239 E0.04167
G1 X102.901 Y95.735 E0.02588
G1 X103.741 Y95.270 E0.02935
G1 X104.614 Y94.934 E0.02856
G1 X129.327 Y89.031 E0.77618
G1 X130.292 Y88.933 E0.02964
G1 X136.241 Y88.933 E0.18173
G1 X137.265 Y89.028 E0.03142
G1 X138.255 Y89.309 E0.03142
G1 X139.181 Y89.768 E0.03160
G1 X140.003 Y90.386 E0.03142
G1 X143.456 Y94.270 E0.15875
G1 X144.040 Y95.255 E0.03498
G1 X144.411 Y96.338 E0.03498
G1 X150.391 Y124.323 E0.87420
G1 X150.427 Y145.678 E0.65235
G1 X150.285 Y146.904 E0.03769
G1 X149.967 Y148.010 E0.03519
G1 X149.470 Y149.063 E0.03556
G1 X145.400 Y156.112 E0.24866
G1 X144.864 Y156.903 E0.02918
G1 X144.095 Y157.746 E0.03485
G1 X143.213 Y158.450 E0.03447
G1 X142.237 Y159.006 E0.03431
G1 X141.154 Y159.414 E0.03537
G1 X140.199 Y159.621 E0.02985
G1 X139.207 Y159.697 E0.03039
G1 X112.563 Y159.697 E0.81394
G1 X111.309 Y159.583 E0.03844
G1 X110.081 Y159.248 E0.03890
G1 X109.016 Y158.752 E0.03589
G1 X108.068 Y158.109 E0.03500
G1 X107.202 Y157.290 E0.03641
G1 X106.578 Y156.480 E0.03124
G1 X102.189 Y148.913 E0.26722
G1 X101.758 Y147.964 E0.03186
G1 X101.450 Y146.871 E0.03466
G1 X98.234 Y112.597 E1.05165
G1 X98.234 Y103.645 E0.27346
G1 X98.433 Y102.260 E0.04274
G1 X98.910 Y100.688 E0.05019
G1 X99.382 Y99.656 E0.03466
G1 X99.906 Y98.766 E0.03157
G1 X100.523 Y97.922 E0.03193
G1 X101.170 Y97.201 E0.02960
G1 X101.487 Y97.458 F18000.000
G1 F2400.000
G1 X103.119 Y96.078 E0.06527
G1 X103.917 Y95.637 E0.02786
G1 X104.749 Y95.318 E0.02721
G1 X129.401 Y89.431 E0.77426
G1 X130.302 Y89.340 E0.02768
G1 X136.241 Y89.340 E0.18141
G1 X137.199 Y89.430 E0.02940
G1 X138.124 Y89.695 E0.02940
G1 X138.980 Y90.123 E0.02923
G1 X139.747 Y90.704 E0.02940
G1 X143.122 Y94.502 E0.15522
G1 X143.670 Y95.426 E0.03282
G1 X144.019 Y96.448 E0.03300
G1 X149.986 Y124.364 E0.87205
G1 X150.020 Y145.669 E0.65083
G1 X149.884 Y146.834 E0.03583
G1 X149.581 Y147.879 E0.03326
G1 X149.115 Y148.863 E0.03326
G1 X145.051 Y155.903 E0.24831
G1 X144.552 Y156.641 E0.02723
G1 X143.819 Y157.447 E0.03327
G1 X142.986 Y158.112 E0.03256
G1 X142.059 Y158.640 E0.03258
G1 X141.029 Y159.026 E0.03360
G1 X140.135 Y159.219 E0.02794
G1 X139.195 Y159.290 E0.02880
G1 X112.564 Y159.290 E0.81356
G1 X111.375 Y159.181 E0.03647
G1 X110.210 Y158.862 E0.03689
G1 X109.202 Y158.390 E0.03399
G1 X108.307 Y157.779 E0.03313
G1 X107.493 Y157.004 E0.03432
G1 X106.902 Y156.233 E0.02969
G1 X102.550 Y148.726 E0.26508
G1 X102.140 Y147.822 E0.03033
G1 X101.847 Y146.779 E0.03309
G1 X98.640 Y112.578 E1.04937
G1 X98.640 Y103.672 E0.27207
G1 X98.831 Y102.347 E0.04089
G1 X99.297 Y100.818 E0.04883
G1 X99.746 Y99.838 E0.03294
G1 X100.249 Y98.984 E0.03027
G1 X101.449 Y97.505 E0.05819
; printing object [a]_key_6mm_x38_rev1.stl id:0 copy 0
G1 E-0.08000 F3000.00000
G1 F14400.000
G1 X103.119 Y96.078 E-0.43456
G1 X103.917 Y95.637 E-0.18053
G1 X104.242 Y95.512 E-0.06891
G1 E-0.03600 F3000.00000
G1 Z0.600000 F18000.000
G1 X132.339 Y97.319
G1 Z0.200000
G1 E0.80000 F2100.00000
; custom gcode: feature_gcode
;Perimeter                        ;  Perimeter
M204 P1000 T5000
; custom gcode end: feature_gcode

;TYPE:Perimeter
G1 F2400.000
G1 X129.571 Y97.319 E0.08458
G1 X130.451 Y96.359 E0.03978
G1 X131.174 Y95.635 E0.03127
G1 X135.438 Y95.635 E0.13024
G1 X136.616 Y96.848 E0.05167
G1 X137.045 Y97.319 E0.01944
G1 X134.267 Y97.319 E0.08484
G1 X134.266 Y112.076 E0.45080
G1 X139.678 Y112.076 E0.16532
G1 X139.683 Y113.615 E0.04704
G1 X139.302 Y114.035 E0.01732
G1 X138.961 Y114.332 E0.01381
G1 X138.701 Y114.521 E0.00982
G1 X138.280 Y114.760 E0.01479
G1 X138.022 Y114.869 E0.00854
G1 X137.628 Y114.990 E0.01262
G1 X137.341 Y115.049 E0.00892
G1 X136.787 Y115.096 E0.01701
G1 X129.762 Y115.095 E0.21459
G1 X129.316 Y115.054 E0.01369
G1 X128.757 Y114.927 E0.01751
G1 X128.549 Y114.855 E0.00672
G1 X128.110 Y114.648 E0.01483
G1 X127.669 Y114.356 E0.01618
G1 X127.296 Y114.030 E0.01512
G1 X126.923 Y113.616 E0.01703
G1 X126.923 Y112.078 E0.04698
G1 X132.341 Y112.075 E0.16551
G1 X132.339 Y97.379 E0.44895
G1 X131.932 Y97.726 F18000.000
G1 F2400.000
G1 X128.644 Y97.726 E0.10045
G1 X130.157 Y96.078 E0.06834
G1 X131.005 Y95.228 E0.03669
G1 X135.610 Y95.228 E0.14066
G1 X136.913 Y96.569 E0.05713
G1 X137.965 Y97.726 E0.04777
G1 X134.674 Y97.726 E0.10052
G1 X134.673 Y111.668 E0.42593
G1 X140.083 Y111.668 E0.16528
G1 X140.082 Y113.752 E0.06364
G1 X140.021 Y113.849 E0.00350
G1 X139.587 Y114.326 E0.01970
G1 X139.215 Y114.651 E0.01510
G1 X138.921 Y114.864 E0.01107
G1 X138.460 Y115.126 E0.01620
G1 X138.162 Y115.252 E0.00990
G1 X137.729 Y115.385 E0.01384
G1 X137.408 Y115.451 E0.00999
G1 X136.798 Y115.504 E0.01872
G1 X129.744 Y115.502 E0.21549
G1 X129.261 Y115.458 E0.01481
G1 X128.639 Y115.317 E0.01948
G1 X128.395 Y115.233 E0.00788
G1 X127.910 Y115.004 E0.01640
G1 X127.421 Y114.680 E0.01790
G1 X127.010 Y114.320 E0.01669
G1 X126.532 Y113.770 E0.02226
G1 X126.516 Y113.645 E0.00384
G1 X126.516 Y111.671 E0.06031
G1 X131.934 Y111.668 E0.16551
G1 X131.932 Y97.786 E0.42409
G1 X131.523 Y98.135 F18000.000
; custom gcode: feature_gcode
;ExternalPerimeter                   ;  ExternalPerimeter
M204 P750 T5000
; custom gcode end: feature_gcode

;TYPE:External perimeter
G1 F2400.000
G1 X128.103 Y98.135 E0.10449
G1 X128.100 Y97.713 E0.01289
G1 X129.861 Y95.795 E0.07955
G1 X130.835 Y94.818 E0.04213
G1 X135.774 Y94.818 E0.15085
G1 X137.211 Y96.289 E0.06281
G1 X138.506 Y97.713 E0.05881
G1 X138.504 Y98.135 E0.01290
G1 X135.084 Y98.135 E0.10449
G1 X135.082 Y111.259 E0.40093
G1 X139.997 Y111.259 E0.15014
G1 X140.209 Y111.301 E0.00659
G1 X140.330 Y111.388 E0.00458
G1 X140.395 Y111.465 E0.00308
G1 X140.468 Y111.617 E0.00513
G1 X140.493 Y111.725 E0.00338
G1 X140.500 Y113.695 E0.06019
G1 X140.448 Y113.937 E0.00757
G1 X140.349 Y114.097 E0.00575
G1 X139.874 Y114.619 E0.02154
G1 X139.470 Y114.972 E0.01641
G1 X139.143 Y115.208 E0.01232
G1 X138.642 Y115.493 E0.01761
G1 X138.302 Y115.637 E0.01127
G1 X137.830 Y115.782 E0.01507
G1 X137.475 Y115.855 E0.01106
G1 X136.809 Y115.913 E0.02044
G1 X129.725 Y115.911 E0.21639
G1 X129.206 Y115.864 E0.01593
G1 X128.915 Y115.811 E0.00904
G1 X128.521 Y115.709 E0.01244
G1 X128.240 Y115.612 E0.00905
G1 X127.708 Y115.361 E0.01798
G1 X127.172 Y115.006 E0.01964
G1 X126.722 Y114.612 E0.01827
G1 X126.255 Y114.094 E0.02130
G1 X126.177 Y113.976 E0.00434
G1 X126.130 Y113.855 E0.00395
G1 X126.107 Y113.672 E0.00565
G1 X126.107 Y111.827 E0.05636
G1 X126.125 Y111.667 E0.00493
G1 X126.202 Y111.481 E0.00613
G1 X126.278 Y111.388 E0.00368
G1 X126.390 Y111.307 E0.00421
G1 X126.556 Y111.262 E0.00527
G1 X131.524 Y111.259 E0.15178
G1 X131.523 Y98.195 E0.39909
G1 X131.523 Y97.735 F18000.000
G1 E-0.08000 F3000.00000
G1 F14400.000
G1 X128.103 Y98.135 E-0.67709
G1 X128.102 Y98.100 E-0.00691
G1 E-0.03600 F3000.00000
G1 X132.478 Y97.598 F18000.000
G1 E0.80000 F2100.00000
; custom gcode: feature_gcode
;SolidInfill                      ;  SolidInfill
M204 P2000 T5000
; custom gcode end: feature_gcode

;TYPE:Solid infill
G1 F3600.000
G1 X133.946 Y98.446 E0.05178
G1 X133.946 Y98.916 E0.01436
G1 X132.661 Y98.174 E0.04532
G1 X132.661 Y98.644 E0.01436
G1 X133.946 Y99.386 E0.04531
G1 X133.946 Y99.856 E0.01436
G1 X132.661 Y99.114 E0.04531
G1 X132.661 Y99.584 E0.01436
G1 X133.946 Y100.326 E0.04531
G1 X133.945 Y100.796 E0.01436
G1 X132.661 Y100.054 E0.04530
G1 X132.661 Y100.524 E0.01436
G1 X133.945 Y101.266 E0.04530
G1 X133.945 Y101.736 E0.01436
G1 X132.661 Y100.994 E0.04530
G1 X132.661 Y101.465 E0.01436
G1 X133.945 Y102.206 E0.04529
G1 X133.945 Y102.676 E0.01436
G1 X132.661 Y101.935 E0.04529
G1 X132.661 Y102.405 E0.01436
G1 X133.945 Y103.146 E0.04529
G1 X133.945 Y103.616 E0.01436
G1 X132.661 Y102.875 E0.04528
G1 X132.662 Y103.345 E0.01436
G1 X133.945 Y104.086 E0.04528
G1 X133.945 Y104.556 E0.01436
G1 X132.662 Y103.815 E0.04527
G1 X132.662 Y104.285 E0.01436
G1 X133.945 Y105.026 E0.04527
G1 X133.945 Y105.496 E0.01436
G1 X132.662 Y104.755 E0.04527
G1 X132.662 Y105.225 E0.01436
G1 X133.945 Y105.966 E0.04526
G1 X133.945 Y106.436 E0.01436
G1 X132.662 Y105.695 E0.04526
G1 X132.662 Y106.165 E0.01436
G1 X133.945 Y106.906 E0.04526
G1 X133.945 Y107.376 E0.01436
G1 X132.662 Y106.635 E0.04525
G1 X132.662 Y107.106 E0.01436
G1 X133.945 Y107.846 E0.04525
G1 X133.945 Y108.316 E0.01436
G1 X132.662 Y107.576 E0.04525
G1 X132.662 Y108.046 E0.01436
G1 X133.945 Y108.786 E0.04524
G1 X133.945 Y109.256 E0.01436
G1 X132.662 Y108.516 E0.04524
G1 X132.662 Y108.986 E0.01436
G1 X133.945 Y109.726 E0.04524
G1 X133.944 Y110.196 E0.01436
G1 X132.662 Y109.456 E0.04523
G1 X132.662 Y109.926 E0.01436
G1 X133.944 Y110.666 E0.04523
G1 X133.944 Y111.136 E0.01436
G1 X132.662 Y110.396 E0.04523
G1 X132.662 Y110.866 E0.01436
G1 X134.128 Y111.712 E0.05168
G1 E-0.08000 F3000.00000
G1 F14400.000
G1 X132.662 Y110.866 E-0.33484
G1 X132.662 Y110.396 E-0.09304
G1 X133.783 Y111.043 E-0.25612
G1 E-0.03600 F3000.00000
G1 X138.253 Y112.214 F18000.000
G1 E0.80000 F2100.00000
G1 F3600.000
G1 X139.359 Y112.852 E0.03900
G1 X139.361 Y113.323 E0.01439
G1 X137.756 Y112.397 E0.05658
G1 X136.942 Y112.397 E0.02487
G1 X139.181 Y113.690 E0.07898
G1 X138.874 Y113.982 E0.01297
G1 X136.128 Y112.397 E0.09684
G1 X135.314 Y112.397 E0.02487
G1 X138.525 Y114.251 E0.11326
G1 X138.111 Y114.482 E0.01447
G1 X134.500 Y112.397 E0.12739
G1 X133.944 Y112.397 E0.01697
G1 X133.944 Y112.076 E0.00980
G1 X132.662 Y111.336 E0.04522
G1 X132.662 Y111.806 E0.01436
G1 X137.606 Y114.660 E0.17437
G1 X136.972 Y114.764 E0.01963
G1 X132.662 Y112.276 E0.15200
G1 X132.662 Y112.396 E0.00367
G1 X132.057 Y112.397 E0.01851
G1 X136.175 Y114.775 E0.14529
G1 X135.361 Y114.774 E0.02488
G1 X131.243 Y112.397 E0.14525
G1 X130.430 Y112.398 E0.02485
G1 X134.546 Y114.774 E0.14521
G1 X133.732 Y114.774 E0.02488
G1 X129.616 Y112.398 E0.14517
G1 X128.803 Y112.398 E0.02485
G1 X132.917 Y114.774 E0.14513
G1 X132.103 Y114.774 E0.02488
G1 X127.989 Y112.399 E0.14509
G1 X127.244 Y112.399 E0.02276
G1 X131.288 Y114.773 E0.14325
G1 X130.474 Y114.773 E0.02488
G1 X127.244 Y112.909 E0.11391
G1 X127.244 Y113.379 E0.01436
G1 X129.977 Y114.956 E0.09637
G1 E-0.08000 F3000.00000
G1 F14400.000
G1 X127.244 Y113.379 E-0.62437
G1 X127.244 Y113.078 E-0.05963
G1 E-0.03600 F3000.00000
G1 X130.251 Y96.782 F18000.000
G1 E0.80000 F2100.00000
G1 F3600.000
G1 X130.622 Y96.997 E0.01311
G1 X131.437 Y96.997 E0.02487
G1 X130.696 Y96.569 E0.02613
G1 X130.993 Y96.271 E0.01287
G1 X133.946 Y97.976 E0.10414
G1 X133.946 Y97.506 E0.01436
G1 X131.291 Y95.973 E0.09365
G1 X132.076 Y95.956 E0.02400
G1 X133.946 Y97.036 E0.06594
G1 X133.946 Y96.997 E0.00118
G1 X134.693 Y96.997 E0.02283
G1 X132.891 Y95.956 E0.06359
G1 X133.705 Y95.956 E0.02487
G1 X135.507 Y96.997 E0.06359
G1 X136.313 Y96.997 E0.02461
G1 X134.202 Y95.773 E0.07455
G1 X134.890 Y95.838 F18000.000
; custom gcode: feature_gcode
;GapFill
M204 P2000 T5000
; custom gcode end: feature_gcode

;TYPE:Gap fill
G1 F2400.000
G1 X135.070 Y95.907 E0.00220
G1 X135.143 Y95.935 E0.00119
G1 X135.215 Y95.962 E0.00148
G1 X135.386 Y96.067 E0.00457
G1 X135.485 Y96.144 E0.00247
G1 X135.584 Y96.221 E0.00208
G1 X135.684 Y96.298 E0.00168
G1 X135.783 Y96.375 E0.00129
G1 X135.900 Y96.467 E0.00107
G1 E-0.08000 F3000.00000
G1 F14400.000
G1 X135.783 Y96.375 E-0.02943
G1 E-0.69057 F3000.00000
G1 X138.940 Y112.324 F18000.000
G1 E0.80000 F2100.00000
G1 F2400.000
G1 X139.015 Y112.344 E0.00056
G1 X139.077 Y112.361 E0.00066
G1 X139.140 Y112.377 E0.00086
G1 X139.202 Y112.394 E0.00105
G1 X139.265 Y112.411 E0.00124
G1 X139.401 Y112.439 E0.00311
G1 X139.475 Y112.450 E0.00222
G1 E-0.08000 F3000.00000
G1 F14400.000
G1 X139.401 Y112.439 E-0.01487
G1 E-0.70513 F3000.00000
G1 X129.173 Y114.779 F18000.000
G1 E0.80000 F2100.00000
G1 F2400.000
G1 X129.026 Y114.716 E0.00107
G1 X128.905 Y114.664 E0.00137
G1 X128.783 Y114.612 E0.00179
G1 X128.467 Y114.459 E0.00585
G1 X128.068 Y114.230 E0.00893
G1 X127.675 Y113.969 E0.00809
G1 X127.434 Y113.791 E0.00312
G1 X127.365 Y113.735 E0.00065
; stop printing object [a]_key_6mm_x38_rev1.stl id:0 copy 0
; printing object [a]_key_6mm_x38_rev1.stl id:2 copy 0
G1 E-0.08000 F3000.00000
G1 F14400.000
G1 X127.434 Y113.791 E-0.01772
G1 E-0.70228 F3000.00000
G1 Z0.600000 F18000.000
G1 X123.038 Y109.089
G1 Z0.200000
G1 E0.80000 F2100.00000
; custom gcode: feature_gcode
;Perimeter                        ;  Perimeter
M204 P1000 T5000
; custom gcode end: feature_gcode

;TYPE:Perimeter
G1 F2400.000
G1 X108.281 Y109.087 E0.45080
G1 X108.281 Y114.499 E0.16532
G1 X106.740 Y114.505 E0.04707
G1 X106.322 Y114.124 E0.01728
G1 X106.024 Y113.783 E0.01383
G1 X105.836 Y113.522 E0.00982
G1 X105.596 Y113.101 E0.01479
G1 X105.488 Y112.844 E0.00854
G1 X105.366 Y112.449 E0.01262
G1 X105.278 Y111.935 E0.01594
G1 X105.259 Y111.484 E0.01377
G1 X105.259 Y104.713 E0.20687
G1 X105.299 Y104.153 E0.01713
G1 X105.425 Y103.595 E0.01746
G1 X105.582 Y103.180 E0.01355
G1 X105.841 Y102.713 E0.01631
G1 X106.161 Y102.293 E0.01616
G1 X106.367 Y102.079 E0.00907
G1 X106.734 Y101.751 E0.01501
G1 X108.279 Y101.747 E0.04719
G1 X108.282 Y107.162 E0.16543
G1 X123.038 Y107.161 E0.45079
G1 X123.038 Y104.392 E0.08458
G1 X123.997 Y105.273 E0.03978
