G10 P0 R250 S250 ; sets the standby temperature
; generated by SuperSlicer 2.3.55 on 2023-09-18 at 07:10:37 UTC

; TODO: check the size of the extruder and the y-bar clearance. Optimize & test supports.

; external perimeters extrusion width = 0.39mm
; perimeters extrusion width = 0.60mm
; infill extrusion width = 0.80mm
; solid infill extrusion width = 0.60mm
; top infill extrusion width = 0.32mm
; first layer extrusion width = 0.45mm

; object:{"name":"[a]_mini12864_case_front_insert","id":"[a]_mini12864_case_front_insert.stl id:0 copy 0","object_center":[125.000000,125.000000,0.000000],"boundingbox_center":[125.000000,125.000000,3.407162],"boundingbox_size":[44.600006,108.999878,6.814323]}
; plater:{"center":[125.000000,125.000000,0.000000],"boundingbox_center":[125.000000,125.000000,3.407162],"boundingbox_size":[44.600006,108.999878,6.814323]}

;TYPE:Custom
; custom gcode: start_gcode
M106 P4 S255
M140 S95 ; set bed final temp
M104 S250 ; set extruder final temp
M190 S95 ; wait for bed final temp
M109 S250 ; wait for extruder final temp
;G29
G28
;M98 P"/macros/nozzle/brush.g"
;PRINT_START

G92 E0 ;Reset Extruder
;;G1 Z2.0 F3000 ;Move Z Axis up


G1 X100 Y4.6 Z0.3 F18000.0 ; Move to side a little

G1 X5 Y4.6 Z0.3 F1500.0 E10 ; Draw the second line

G1 X5 Y4.2 Z0.3 F1500.0 E10 ; Draw the third line

G1 X100 Y4.2 Z0.3 F1500.0 E10 ; Draw the third line


;G92 E0;		Reset extruder
;G1 X1 Y10 F6000;
;G1 Z1.7;
;G1 X1 Y60 E140 F50;
;G1 E-<DESTRING> F1500;
;G1 Z4
;G1 X<NEXTX> Y<NEXTY> F12000;
;G92 E0 ;Reset Extruder

;G1 Z2.0 F3000 ;Move Z Axis up
; custom gcode end: start_gcode
M107
G21 ; set units to millimeters
G90 ; use absolute coordinates
M83 ; use relative distances for extrusion
; custom gcode: start_filament_gcode
; Filament gcode
M572 D0 S0.055
; custom gcode end: start_filament_gcode
;LAYER_CHANGE
;Z:0.2
;HEIGHT:0.2
; custom gcode: before_layer_gcode
;BEFORE_LAYER_CHANGE
;0.2

; custom gcode end: before_layer_gcode

G1 Z0.200000 F18000.000
; custom gcode: layer_gcode
;AFTER_LAYER_CHANGE
;0.2
; custom gcode end: layer_gcode

G1 E-0.80000 F3000.00000
G1 Z1.000000 F18000.000
G1 X99.151 Y69.851
G1 Z0.200000
G1 E0.80000 F2100.00000
; custom gcode: feature_gcode
;Skirt
M204 P2000 T5000
; custom gcode end: feature_gcode

;TYPE:Skirt
G1 F2400.000
G1 X99.681 Y69.098 E0.02992
G1 X100.785 Y67.929 E0.05224
G1 X102.136 Y66.855 E0.05607
G1 X103.495 Y66.058 E0.05119
G1 X104.878 Y65.477 E0.04877
G1 X106.578 Y65.028 E0.05712
G1 X108.667 Y64.832 E0.06818
G1 X141.305 Y64.832 E1.06059
G1 X143.367 Y65.017 E0.06726
G1 X144.520 Y65.286 E0.03848
G1 X145.458 Y65.600 E0.03211
G1 X147.319 Y66.506 E0.06727
G1 X148.232 Y67.115 E0.03566
G1 X149.147 Y67.867 E0.03848
G1 X150.567 Y69.412 E0.06818
G1 X151.663 Y71.140 E0.06649
G1 X152.166 Y72.252 E0.03968
G1 X152.530 Y73.302 E0.03609
G1 X152.792 Y74.225 E0.03118
G1 X152.947 Y75.216 E0.03260
G1 X153.018 Y76.477 E0.04105
G1 X153.018 Y173.536 E3.15393
G1 X152.930 Y174.932 E0.04543
G1 X152.676 Y176.225 E0.04283
G1 X152.057 Y178.019 E0.06166
G1 X151.387 Y179.362 E0.04878
G1 X150.348 Y180.865 E0.05935
G1 X149.258 Y182.032 E0.05191
G1 X147.871 Y183.140 E0.05771
G1 X146.495 Y183.947 E0.05181
G1 X144.863 Y184.609 E0.05722
G1 X143.331 Y184.989 E0.05132
G1 X141.333 Y185.168 E0.06518
G1 X108.652 Y185.167 E1.06195
G1 X106.850 Y185.019 E0.05877
G1 X105.368 Y184.682 E0.04939
G1 X103.863 Y184.116 E0.05222
G1 X102.283 Y183.244 E0.05864
G1 X100.820 Y182.104 E0.06030
G1 X99.655 Y180.869 E0.05517
G1 X98.667 Y179.454 E0.05609
G1 X97.917 Y177.955 E0.05445
G1 X97.254 Y175.916 E0.06968
G1 X97.007 Y174.256 E0.05454
G1 X96.982 Y76.476 E3.17734
G1 X97.099 Y74.866 E0.05245
G1 X97.445 Y73.399 E0.04897
G1 X97.977 Y71.901 E0.05168
G1 X98.699 Y70.492 E0.05143
G1 X99.116 Y69.900 E0.02354
G1 X99.448 Y70.134 F18000.000
G1 F2400.000
G1 X99.999 Y69.353 E0.03105
G1 X101.066 Y68.223 E0.05052
G1 X102.368 Y67.190 E0.05400
G1 X103.684 Y66.418 E0.04957
G1 X105.015 Y65.860 E0.04690
G1 X106.679 Y65.423 E0.05591
G1 X108.674 Y65.240 E0.06508
G1 X141.305 Y65.239 E1.06036
G1 X143.289 Y65.417 E0.06472
G1 X145.317 Y65.982 E0.06842
G1 X146.322 Y66.421 E0.03564
G1 X147.312 Y66.980 E0.03694
G1 X148.881 Y68.175 E0.06408
G1 X150.260 Y69.681 E0.06637
G1 X151.342 Y71.405 E0.06614
G1 X152.149 Y73.448 E0.07138
G1 X152.397 Y74.322 E0.02953
G1 X152.544 Y75.276 E0.03137
G1 X152.611 Y76.477 E0.03907
G1 X152.611 Y173.530 E3.15372
G1 X152.527 Y174.876 E0.04382
G1 X152.285 Y176.113 E0.04096
G1 X151.682 Y177.860 E0.06006
G1 X151.036 Y179.157 E0.04708
G1 X150.030 Y180.611 E0.05745
G1 X148.979 Y181.735 E0.05002
G1 X147.638 Y182.806 E0.05576
G1 X146.311 Y183.584 E0.04998
G1 X144.730 Y184.224 E0.05541
G1 X143.238 Y184.592 E0.04995
G1 X141.326 Y184.760 E0.06237
G1 X108.654 Y184.760 E1.06168
G1 X106.909 Y184.616 E0.05690
G1 X105.479 Y184.290 E0.04766
G1 X103.815 Y183.645 E0.05799
G1 X102.504 Y182.902 E0.04896
G1 X101.092 Y181.800 E0.05821
G1 X99.969 Y180.610 E0.05317
G1 X99.018 Y179.248 E0.05400
G1 X98.294 Y177.802 E0.05254
G1 X97.649 Y175.818 E0.06779
G1 X97.412 Y174.212 E0.05273
G1 X97.389 Y76.477 E3.17591
G1 X97.502 Y74.925 E0.05056
G1 X97.837 Y73.509 E0.04728
G1 X98.351 Y72.062 E0.04990
G1 X99.048 Y70.702 E0.04966
G1 X99.414 Y70.183 E0.02062
G1 X99.746 Y70.417 F18000.000
G1 F2400.000
G1 X100.313 Y69.612 E0.03199
G1 X101.343 Y68.521 E0.04878
G1 X102.600 Y67.524 E0.05213
G1 X103.868 Y66.781 E0.04775
G1 X105.379 Y66.169 E0.05297
G1 X106.779 Y65.818 E0.04691
G1 X108.675 Y65.647 E0.06185
G1 X141.305 Y65.647 E1.06031
G1 X143.217 Y65.817 E0.06237
G1 X145.171 Y66.362 E0.06592
G1 X146.140 Y66.785 E0.03436
G1 X147.104 Y67.330 E0.03597
G1 X148.610 Y68.479 E0.06157
G1 X149.935 Y69.926 E0.06377
G1 X150.980 Y71.592 E0.06388
G1 X151.759 Y73.566 E0.06896
G1 X151.999 Y74.408 E0.02848
G1 X152.140 Y75.330 E0.03031
G1 X152.203 Y76.477 E0.03732
G1 X152.203 Y173.529 E3.15370
G1 X152.123 Y174.820 E0.04203
G1 X151.893 Y176.001 E0.03910
G1 X151.307 Y177.701 E0.05844
G1 X150.687 Y178.947 E0.04519
G1 X149.712 Y180.357 E0.05574
G1 X148.700 Y181.439 E0.04813
G1 X147.401 Y182.475 E0.05399
G1 X146.122 Y183.223 E0.04816
G1 X144.598 Y183.839 E0.05341
G1 X143.147 Y184.195 E0.04855
G1 X141.325 Y184.353 E0.05942
G1 X108.661 Y184.353 E1.06140
G1 X106.968 Y184.213 E0.05521
G1 X105.590 Y183.898 E0.04593
G1 X103.967 Y183.266 E0.05662
G1 X102.661 Y182.518 E0.04890
G1 X101.347 Y181.482 E0.05438
G1 X100.284 Y180.352 E0.05043
G1 X99.366 Y179.037 E0.05211
G1 X98.671 Y177.648 E0.05044
G1 X98.044 Y175.720 E0.06590
G1 X97.818 Y174.176 E0.05070
G1 X97.796 Y76.478 E3.17469
G1 X97.904 Y74.984 E0.04867
G1 X98.229 Y73.619 E0.04557
G1 X98.725 Y72.223 E0.04814
G1 X99.394 Y70.916 E0.04771
G1 X99.711 Y70.466 E0.01790
; printing object [a]_mini12864_case_front_insert.stl id:0 copy 0
G1 E-0.08000 F3000.00000
G1 F14400.000
G1 X100.313 Y69.612 E-0.20669
G1 X101.343 Y68.521 E-0.29709
G1 X102.057 Y67.955 E-0.18022
G1 E-0.03600 F3000.00000
G1 Z0.600000 F18000.000
G1 X104.373 Y74.951
G1 Z0.200000
G1 E0.80000 F2100.00000
; custom gcode: feature_gcode
;Perimeter                        ;  Perimeter
M204 P1000 T5000
; custom gcode end: feature_gcode

;TYPE:Perimeter
G1 F2400.000
G1 X104.495 Y74.625 E0.01131
G1 X104.706 Y74.206 E0.01524
G1 X105.026 Y73.724 E0.01879
G1 X105.324 Y73.369 E0.01506
G1 X105.777 Y72.941 E0.02028
G1 X105.963 Y72.796 E0.00763
G1 X106.353 Y72.539 E0.01518
G1 X106.910 Y72.257 E0.02030
G1 X107.127 Y72.171 E0.00760
G1 X107.575 Y72.036 E0.01519
G1 X108.175 Y71.926 E0.01983
G1 X108.731 Y71.894 E0.01808
G1 X141.574 Y71.903 E1.06724
G1 X141.888 Y71.933 E0.01024
G1 X142.357 Y72.018 E0.01551
G1 X142.663 Y72.102 E0.01030
G1 X143.111 Y72.266 E0.01551
G1 X143.398 Y72.401 E0.01030
G1 X143.802 Y72.635 E0.01516
G1 X144.241 Y72.956 E0.01766
G1 X144.475 Y73.165 E0.01020
G1 X144.803 Y73.511 E0.01551
G1 X145.001 Y73.759 E0.01031
G1 X145.264 Y74.157 E0.01551
G1 X145.415 Y74.433 E0.01023
G1 X145.633 Y74.939 E0.01789
G1 X144.875 Y75.022 E0.02480
G1 X144.545 Y75.106 E0.01106
G1 X144.220 Y75.222 E0.01123
G1 X143.692 Y75.496 E0.01933
G1 X143.192 Y75.886 E0.02059
G1 X142.796 Y76.330 E0.01933
G1 X142.591 Y76.636 E0.01197
G1 X142.340 Y77.149 E0.01855
G1 X142.225 Y77.498 E0.01197
G1 X142.122 Y78.059 E0.01852
G1 X142.105 Y78.419 E0.01172
G1 X142.160 Y79.028 E0.01985
G1 X142.320 Y79.600 E0.01933
G1 X142.467 Y79.938 E0.01197
G1 X142.763 Y80.426 E0.01855
G1 X142.995 Y80.712 E0.01197
G1 X143.412 Y81.102 E0.01855
G1 X143.713 Y81.315 E0.01197
G1 X144.240 Y81.589 E0.01930
G1 X144.816 Y81.767 E0.01957
G1 X145.180 Y81.826 E0.01200
G1 X145.913 Y81.844 E0.02384
G1 X145.907 Y107.405 E0.83060
G1 X145.444 Y107.083 E0.01833
G1 X145.444 Y104.385 E0.08767
G1 X139.226 Y98.167 E0.28573
G1 X138.968 Y97.837 E0.01362
G1 X138.822 Y97.511 E0.01159
G1 X138.763 Y97.267 E0.00817
G1 X138.740 Y96.974 E0.00954
G1 X138.740 Y80.943 E0.52092
G1 X138.696 Y80.527 E0.01360
G1 X138.596 Y80.169 E0.01207
G1 X138.398 Y79.761 E0.01474
G1 X138.208 Y79.489 E0.01079
G1 X137.836 Y79.117 E0.01707
G1 X137.370 Y78.830 E0.01782
G1 X136.892 Y78.663 E0.01642
G1 X136.409 Y78.606 E0.01581
G1 X120.285 Y78.606 E0.52397
G1 X119.802 Y78.663 E0.01581
G1 X119.353 Y78.819 E0.01543
G1 X119.089 Y78.962 E0.00976
G1 X118.840 Y79.136 E0.00989
G1 X118.496 Y79.474 E0.01563
G1 X118.180 Y79.969 E0.01910
G1 X118.010 Y80.454 E0.01672
G1 X117.954 Y80.938 E0.01581
G1 X117.954 Y83.945 E0.09773
G1 X117.936 Y84.114 E0.00553
G1 X117.884 Y84.269 E0.00530
G1 X117.826 Y84.369 E0.00378
G1 X117.683 Y84.498 E0.00623
G1 X117.592 Y84.551 E0.00344
G1 X117.413 Y84.599 E0.00602
G1 X116.489 Y84.603 E0.03003
G1 X116.489 Y84.320 E0.00920
G1 X116.423 Y83.881 E0.01443
G1 X116.217 Y83.431 E0.01609
G1 X115.874 Y83.033 E0.01706
G1 X115.430 Y82.753 E0.01704
G1 X114.955 Y82.615 E0.01609
G1 X106.416 Y82.607 E0.27747
G1 X105.976 Y82.673 E0.01445
G1 X105.562 Y82.863 E0.01481
G1 X105.291 Y83.063 E0.01094
G1 X104.974 Y83.431 E0.01578
G1 X104.784 Y83.846 E0.01482
G1 X104.710 Y84.173 E0.01089
G1 X104.702 Y92.640 E0.27516
G1 X104.721 Y92.897 E0.00836
G1 X104.840 Y93.307 E0.01388
G1 X105.016 Y93.623 E0.01174
G1 X105.295 Y93.941 E0.01375
G1 X105.562 Y94.138 E0.01076
G1 X105.976 Y94.328 E0.01482
G1 X106.416 Y94.394 E0.01445
G1 X114.955 Y94.386 E0.27747
G1 X115.430 Y94.247 E0.01609
G1 X115.874 Y93.968 E0.01704
G1 X116.217 Y93.570 E0.01706
G1 X116.423 Y93.119 E0.01609
G1 X116.489 Y92.680 E0.01443
G1 X116.489 Y92.397 E0.00922
G1 X117.285 Y92.394 E0.02588
G1 X117.501 Y92.420 E0.00706
G1 X117.699 Y92.510 E0.00709
G1 X117.778 Y92.581 E0.00343
G1 X117.891 Y92.736 E0.00624
G1 X117.927 Y92.846 E0.00377
G1 X117.954 Y93.064 E0.00712
G1 X117.953 Y96.384 E0.10789
G1 X117.930 Y96.676 E0.00951
G1 X117.866 Y96.940 E0.00883
G1 X117.713 Y97.261 E0.01157
G1 X117.565 Y97.465 E0.00818
G1 X110.657 Y104.385 E0.31774
G1 X110.657 Y106.808 E0.07873
G1 X105.452 Y106.816 E0.16914
G1 X105.126 Y106.873 E0.01076
G1 X104.669 Y107.032 E0.01573
G1 X104.093 Y107.401 E0.02220
G1 X104.093 Y82.648 E0.80434
G1 X104.080 Y81.813 E0.02715
G1 X104.480 Y81.846 E0.01306
G1 X105.064 Y81.808 E0.01902
G1 X105.419 Y81.735 E0.01177
G1 X105.966 Y81.542 E0.01886
G1 X106.288 Y81.376 E0.01176
G1 X106.782 Y81.028 E0.01964
G1 X107.205 Y80.597 E0.01964
G1 X107.421 Y80.306 E0.01176
G1 X107.700 Y79.797 E0.01886
G1 X107.821 Y79.482 E0.01098
G1 X107.912 Y79.156 E0.01098
G1 X107.991 Y78.581 E0.01886
G1 X107.991 Y78.219 E0.01176
G1 X107.909 Y77.621 E0.01964
G1 X107.719 Y77.047 E0.01964
G1 X107.560 Y76.722 E0.01176
G1 X107.222 Y76.221 E0.01964
G1 X106.782 Y75.772 E0.02041
G1 X106.288 Y75.425 E0.01964
G1 X105.987 Y75.270 E0.01099
G1 X105.674 Y75.143 E0.01099
G1 X105.085 Y74.994 E0.01973
G1 X104.433 Y74.955 E0.02124
G1 X103.774 Y75.474 F18000.000
G1 F2400.000
G1 X103.885 Y75.095 E0.01283
G1 X104.121 Y74.462 E0.02197
G1 X104.350 Y74.009 E0.01650
G1 X104.495 Y73.770 E0.00907
G1 X104.703 Y73.476 E0.01170
G1 X105.027 Y73.090 E0.01639
G1 X105.512 Y72.632 E0.02167
G1 X105.725 Y72.466 E0.00878
G1 X106.148 Y72.187 E0.01646
G1 X106.743 Y71.885 E0.02168
G1 X106.994 Y71.786 E0.00876
G1 X107.479 Y71.640 E0.01647
G1 X108.126 Y71.521 E0.02139
G1 X108.719 Y71.486 E0.01929
G1 X141.594 Y71.496 E1.06826
G1 X141.943 Y71.530 E0.01141
G1 X142.448 Y71.620 E0.01665
G1 X142.787 Y71.714 E0.01145
G1 X143.268 Y71.890 E0.01665
G1 X143.587 Y72.040 E0.01145
G1 X144.025 Y72.293 E0.01644
G1 X144.497 Y72.639 E0.01901
G1 X144.759 Y72.872 E0.01139
G1 X145.111 Y73.244 E0.01665
G1 X145.330 Y73.520 E0.01145
G1 X145.613 Y73.947 E0.01665
G1 X145.782 Y74.255 E0.01140
G1 X146.016 Y74.799 E0.01926
G1 X146.228 Y75.436 E0.02182
G1 X145.491 Y75.364 E0.02407
G1 X144.948 Y75.423 E0.01777
G1 X144.664 Y75.496 E0.00951
G1 X144.383 Y75.596 E0.00971
G1 X143.912 Y75.840 E0.01722
G1 X143.471 Y76.184 E0.01818
G1 X143.119 Y76.580 E0.01722
G1 X142.944 Y76.840 E0.01016
G1 X142.718 Y77.302 E0.01674
G1 X142.620 Y77.599 E0.01016
G1 X142.527 Y78.106 E0.01673
G1 X142.513 Y78.411 E0.00991
G1 X142.562 Y78.954 E0.01773
G1 X142.705 Y79.464 E0.01722
G1 X142.829 Y79.751 E0.01016
G1 X143.097 Y80.191 E0.01674
G1 X143.294 Y80.434 E0.01016
G1 X143.670 Y80.786 E0.01674
G1 X143.925 Y80.967 E0.01016
G1 X144.395 Y81.211 E0.01720
G1 X144.909 Y81.369 E0.01746
G1 X145.218 Y81.420 E0.01018
G1 X145.733 Y81.432 E0.01674
G1 X146.045 Y81.398 E0.01019
G1 X146.338 Y81.322 E0.00986
G1 X146.314 Y83.231 E0.06205
G1 X146.314 Y108.144 E0.80952
G1 X146.047 Y108.231 E0.00911
G1 X145.816 Y107.915 E0.01270
G1 X145.543 Y107.648 E0.01244
G1 X145.328 Y107.498 E0.00850
G1 X145.037 Y107.358 E0.01050
G1 X145.037 Y104.553 E0.09116
G1 X138.933 Y98.449 E0.28051
G1 X138.825 Y98.332 E0.00517
G1 X138.624 Y98.057 E0.01107
G1 X138.434 Y97.637 E0.01497
G1 X138.360 Y97.331 E0.01026
G1 X138.333 Y96.990 E0.01110
G1 X138.333 Y80.965 E0.52074
G1 X138.295 Y80.604 E0.01179
G1 X138.213 Y80.314 E0.00980
G1 X138.046 Y79.967 E0.01250
G1 X137.895 Y79.751 E0.00856
G1 X137.582 Y79.439 E0.01437
G1 X137.194 Y79.199 E0.01483
G1 X136.801 Y79.062 E0.01353
G1 X136.386 Y79.014 E0.01358
G1 X120.308 Y79.014 E0.52243
G1 X119.893 Y79.062 E0.01358
G1 X119.518 Y79.193 E0.01292
G1 X119.303 Y79.309 E0.00794
G1 X119.101 Y79.450 E0.00801
G1 X118.815 Y79.732 E0.01304
G1 X118.548 Y80.148 E0.01605
G1 X118.409 Y80.546 E0.01371
G1 X118.361 Y80.961 E0.01358
G1 X118.361 Y83.966 E0.09764
G1 X118.336 Y84.201 E0.00768
G1 X118.257 Y84.438 E0.00811
G1 X118.121 Y84.651 E0.00821
G1 X117.925 Y84.828 E0.00861
G1 X117.662 Y84.961 E0.00957
G1 X117.324 Y85.013 E0.01110
G1 X116.082 Y85.009 E0.04037
G1 X116.082 Y84.351 E0.02139
G1 X116.029 Y83.998 E0.01158
G1 X115.870 Y83.653 E0.01236
G1 X115.605 Y83.345 E0.01320
G1 X115.262 Y83.128 E0.01320
G1 X114.897 Y83.022 E0.01236
G1 X106.446 Y83.014 E0.27460
G1 X106.093 Y83.067 E0.01159
G1 X105.770 Y83.215 E0.01158
G1 X105.570 Y83.363 E0.00808
G1 X105.320 Y83.653 E0.01242
G1 X105.172 Y83.977 E0.01158
G1 X105.117 Y84.218 E0.00805
G1 X105.109 Y92.625 E0.27319
G1 X105.124 Y92.824 E0.00648
G1 X105.218 Y93.150 E0.01101
G1 X105.350 Y93.387 E0.00883
G1 X105.572 Y93.640 E0.01092
G1 X105.769 Y93.785 E0.00797
G1 X106.093 Y93.934 E0.01158
G1 X106.446 Y93.987 E0.01159
G1 X114.897 Y93.978 E0.27460
G1 X115.262 Y93.872 E0.01236
G1 X115.605 Y93.656 E0.01320
G1 X115.870 Y93.348 E0.01320
G1 X116.029 Y93.002 E0.01236
G1 X116.082 Y92.650 E0.01158
G1 X116.082 Y91.991 E0.02141
G1 X117.309 Y91.986 E0.03987
G1 X117.590 Y92.020 E0.00920
G1 X117.840 Y92.116 E0.00871
G1 X118.081 Y92.307 E0.00998
G1 X118.238 Y92.521 E0.00863
G1 X118.327 Y92.757 E0.00819
G1 X118.361 Y93.039 E0.00924
G1 X118.360 Y96.400 E0.10921
G1 X118.333 Y96.740 E0.01107
G1 X118.256 Y97.058 E0.01065
G1 X118.061 Y97.475 E0.01494
G1 X117.876 Y97.730 E0.01025
G1 X111.064 Y104.554 E0.31330
G1 X111.064 Y107.215 E0.08647
G1 X105.488 Y107.223 E0.18120
G1 X105.229 Y107.268 E0.00855
G1 X104.848 Y107.401 E0.01310
G1 X104.432 Y107.668 E0.01605
G1 X104.151 Y107.954 E0.01304
G1 X103.957 Y108.231 E0.01098
G1 X103.686 Y108.145 E0.00921
G1 X103.686 Y82.651 E0.82842
G1 X103.649 Y81.322 E0.04322
G1 X104.184 Y81.413 E0.01765
G1 X104.484 Y81.437 E0.00977
G1 X105.010 Y81.403 E0.01714
G1 X105.310 Y81.342 E0.00995
G1 X105.805 Y81.167 E0.01704
G1 X106.077 Y81.027 E0.00995
