G10 P0 R240 S240 ; sets the standby temperature
; generated by SuperSlicer 2.3.55 on 2023-10-04 at 10:56:18 UTC

; TODO: check the size of the extruder and the y-bar clearance. Optimize & test supports.

; external perimeters extrusion width = 0.39mm
; perimeters extrusion width = 0.40mm
; infill extrusion width = 0.60mm
; solid infill extrusion width = 0.60mm
; top infill extrusion width = 0.32mm
; first layer extrusion width = 0.45mm

; object:{"name":"[a]_Display_Faceplate_x1","id":"[a]_Display_Faceplate_x1.stl id:0 copy 0","object_center":[125.000000,125.000000,0.000000],"boundingbox_center":[125.000000,125.000000,4.316284],"boundingbox_size":[84.399994,39.400101,8.632568]}
; plater:{"center":[125.000000,125.000000,0.000000],"boundingbox_center":[125.000000,125.000000,4.316284],"boundingbox_size":[84.399994,39.400101,8.632568]}

;TYPE:Custom
; custom gcode: start_gcode
M106 P4 S255
M140 S95 ; set bed final temp
M104 S240 ; set extruder final temp
M190 S95 ; wait for bed final temp
M109 S240 ; wait for extruder final temp
;G29
G28
;M98 P"/macros/nozzle/brush.g"
;PRINT_START

G92 E0 ;Reset Extruder
;;G1 Z2.0 F3000 ;Move Z Axis up


G1 X100 Y4.6 Z0.3 F18000.0 ; Move to side a little

G1 X5 Y4.6 Z0.3 F1500.0 E10 ; Draw the second line

G1 X5 Y4.2 Z0.3 F1500.0 E10 ; Draw the third line

G1 X100 Y4.2 Z0.3 F1500.0 E10 ; Draw the third line


;G92 E0;		Reset extruder
;G1 X1 Y10 F6000;
;G1 Z1.7;
;G1 X1 Y60 E140 F50;
;G1 E-<DESTRING> F1500;
;G1 Z4
;G1 X<NEXTX> Y<NEXTY> F12000;
;G92 E0 ;Reset Extruder

;G1 Z2.0 F3000 ;Move Z Axis up
; custom gcode end: start_gcode
M107
G21 ; set units to millimeters
G90 ; use absolute coordinates
M83 ; use relative distances for extrusion
; custom gcode: start_filament_gcode
; Filament gcode
M572 D0 S0.07
; custom gcode end: start_filament_gcode
;LAYER_CHANGE
;Z:0.2
;HEIGHT:0.2
; custom gcode: before_layer_gcode
;BEFORE_LAYER_CHANGE
;0.2

; custom gcode end: before_layer_gcode

G1 Z0.200000 F18000.000
; custom gcode: layer_gcode
;AFTER_LAYER_CHANGE
;0.2
; custom gcode end: layer_gcode

G1 E-0.80000 F3000.00000
G1 Z1.000000 F18000.000
G1 X82.437 Y102.935
G1 Z0.200000
G1 E0.80000 F2100.00000
; custom gcode: feature_gcode
;Skirt
M204 P2000 T5000
; custom gcode end: feature_gcode

;TYPE:Skirt
G1 F2400.000
G1 X83.356 Y102.601 E0.03076
G1 X84.379 Y102.475 E0.03247
G1 X165.605 Y102.475 E2.55693
G1 X166.426 Y102.554 E0.02597
G1 X167.266 Y102.801 E0.02757
G1 X167.999 Y103.182 E0.02599
G1 X168.649 Y103.694 E0.02605
G1 X169.218 Y104.353 E0.02741
G1 X169.630 Y105.073 E0.02610
G1 X169.899 Y105.856 E0.02607
G1 X170.021 Y106.727 E0.02769
G1 X170.017 Y143.340 E1.15253
G1 X169.808 Y144.467 E0.03609
G1 X169.299 Y145.528 E0.03705
G1 X168.528 Y146.417 E0.03705
G1 X167.563 Y147.065 E0.03659
G1 X166.645 Y147.399 E0.03076
G1 X165.621 Y147.525 E0.03247
G1 X84.312 Y147.524 E2.55955
G1 X83.126 Y147.337 E0.03778
G1 X82.025 Y146.833 E0.03814
G1 X81.102 Y146.050 E0.03811
G1 X80.435 Y145.063 E0.03749
G1 X80.103 Y144.154 E0.03044
G1 X79.976 Y143.145 E0.03203
G1 X79.980 Y106.714 E1.14682
G1 X80.181 Y105.565 E0.03672
G1 X80.690 Y104.488 E0.03749
G1 X81.465 Y103.589 E0.03736
G1 X82.387 Y102.968 E0.03501
G1 X82.630 Y103.294 F18000.000
G1 F2400.000
G1 X83.455 Y102.996 E0.02763
G1 X84.385 Y102.882 E0.02949
G1 X165.605 Y102.882 E2.55674
G1 X166.349 Y102.953 E0.02354
G1 X167.115 Y103.179 E0.02514
G1 X167.779 Y103.524 E0.02354
G1 X168.371 Y103.992 E0.02375
G1 X168.889 Y104.593 E0.02500
G1 X169.263 Y105.250 E0.02380
G1 X169.506 Y105.960 E0.02361
G1 X169.615 Y106.760 E0.02541
G1 X169.612 Y143.294 E1.15009
G1 X169.425 Y144.328 E0.03307
G1 X168.960 Y145.302 E0.03398
G1 X168.256 Y146.114 E0.03383
G1 X167.370 Y146.706 E0.03354
G1 X166.545 Y147.004 E0.02762
G1 X165.615 Y147.118 E0.02950
G1 X84.326 Y147.117 E2.55892
G1 X83.247 Y146.949 E0.03439
G1 X82.244 Y146.490 E0.03471
G1 X81.401 Y145.773 E0.03483
G1 X80.794 Y144.870 E0.03425
G1 X80.498 Y144.054 E0.02733
G1 X80.383 Y143.138 E0.02907
G1 X80.386 Y106.743 E1.14570
G1 X80.567 Y105.698 E0.03338
G1 X81.030 Y104.713 E0.03425
G1 X81.737 Y103.892 E0.03412
G1 X82.580 Y103.327 E0.03194
G1 X82.825 Y103.651 F18000.000
G1 F2400.000
G1 X83.556 Y103.390 E0.02441
G1 X84.387 Y103.289 E0.02637
G1 X165.604 Y103.289 E2.55667
G1 X166.273 Y103.353 E0.02114
G1 X166.968 Y103.559 E0.02283
G1 X167.563 Y103.869 E0.02111
G1 X168.093 Y104.289 E0.02130
G1 X168.560 Y104.833 E0.02255
G1 X168.895 Y105.423 E0.02136
G1 X169.111 Y106.060 E0.02118
G1 X169.209 Y106.787 E0.02307
G1 X169.206 Y143.261 E1.14819
G1 X169.040 Y144.196 E0.02991
G1 X168.618 Y145.081 E0.03086
G1 X167.981 Y145.814 E0.03058
G1 X167.175 Y146.349 E0.03045
G1 X166.440 Y146.611 E0.02454
G1 X165.613 Y146.711 E0.02624
G1 X84.339 Y146.710 E2.55845
G1 X83.362 Y146.558 E0.03114
G1 X82.458 Y146.144 E0.03128
G1 X81.700 Y145.497 E0.03139
G1 X81.153 Y144.678 E0.03098
G1 X80.892 Y143.953 E0.02426
G1 X80.790 Y143.130 E0.02611
G1 X80.792 Y106.774 E1.14448
G1 X80.954 Y105.824 E0.03033
G1 X81.372 Y104.933 E0.03098
G1 X82.016 Y104.188 E0.03099
G1 X82.775 Y103.684 E0.02870
G1 X83.012 Y104.013 F18000.000
G1 F2400.000
G1 X83.653 Y103.786 E0.02139
G1 X84.390 Y103.697 E0.02338
G1 X165.604 Y103.696 E2.55657
G1 X166.198 Y103.753 E0.01878
G1 X166.817 Y103.937 E0.02033
G1 X167.343 Y104.212 E0.01870
G1 X167.813 Y104.585 E0.01887
G1 X168.231 Y105.072 E0.02020
G1 X168.526 Y105.596 E0.01893
G1 X168.716 Y106.161 E0.01875
G1 X168.802 Y106.812 E0.02069
G1 X168.801 Y143.226 E1.14627
G1 X168.655 Y144.063 E0.02673
G1 X168.281 Y144.854 E0.02756
G1 X167.709 Y145.512 E0.02744
G1 X166.988 Y145.987 E0.02718
G1 X166.348 Y146.214 E0.02139
G1 X165.610 Y146.303 E0.02338
G1 X84.351 Y146.303 E2.55798
G1 X83.480 Y146.168 E0.02776
G1 X82.673 Y145.798 E0.02796
G1 X81.999 Y145.221 E0.02794
G1 X81.513 Y144.488 E0.02768
G1 X81.287 Y143.852 E0.02125
G1 X81.197 Y143.122 E0.02314
G1 X81.198 Y106.799 E1.14345
G1 X81.341 Y105.949 E0.02713
G1 X81.715 Y105.153 E0.02768
G1 X82.288 Y104.491 E0.02756
G1 X82.962 Y104.046 E0.02542
; printing object [a]_Display_Faceplate_x1.stl id:0 copy 0
G1 E-0.08000 F3000.00000
G1 F14400.000
G1 X83.653 Y103.786 E-0.14604
G1 X84.390 Y103.697 E-0.14698
G1 X86.365 Y103.697 E-0.39098
G1 E-0.03600 F3000.00000
G1 Z0.600000 F18000.000
G1 X110.950 Y142.158
G1 Z0.200000
G1 E0.80000 F2100.00000
; custom gcode: feature_gcode
;Perimeter                        ;  Perimeter
M204 P1000 T5000
; custom gcode end: feature_gcode

;TYPE:Perimeter
G1 F1800.000
G1 X110.873 Y142.445 E0.00936
G1 X108.730 Y142.443 E0.06746
G1 X108.654 Y142.155 E0.00935
G1 X109.207 Y141.839 E0.02004
G1 X109.403 Y141.701 E0.00755
G1 X109.595 Y141.509 E0.00856
G1 X109.800 Y141.217 E0.01123
G1 X110.005 Y141.509 E0.01123
G1 X110.197 Y141.701 E0.00857
G1 X110.394 Y141.839 E0.00755
G1 X110.898 Y142.128 E0.01829
G1 E-0.08000 F3000.00000
G1 F14400.000
G1 X110.873 Y142.445 E-0.06297
G1 X108.730 Y142.443 E-0.42411
G1 X108.654 Y142.155 E-0.05879
G1 X109.207 Y141.839 E-0.12601
G1 X109.257 Y141.804 E-0.01212
G1 E-0.03600 F3000.00000
G1 X99.708 Y134.338 F18000.000
G1 E0.80000 F2100.00000
G1 F1800.000
G1 X99.575 Y134.672 E0.01131
G1 X99.538 Y135.231 E0.01763
G1 X99.271 Y135.159 E0.00871
G1 X99.000 Y135.135 E0.00856
G1 X98.718 Y135.160 E0.00891
G1 X98.789 Y134.755 E0.01293
G1 X98.740 Y134.335 E0.01333
G1 X99.292 Y134.351 E0.01740
G1 X99.648 Y134.340 E0.01122
G1 E-0.08000 F3000.00000
G1 F14400.000
G1 X99.575 Y134.672 E-0.06726
G1 X99.538 Y135.231 E-0.11085
G1 X99.271 Y135.159 E-0.05473
G1 X99.000 Y135.135 E-0.05384
G1 X98.718 Y135.160 E-0.05603
G1 X98.789 Y134.755 E-0.08132
G1 X98.740 Y134.335 E-0.08378
G1 X99.292 Y134.351 E-0.10937
G1 X99.630 Y134.340 E-0.06682
G1 E-0.03600 F3000.00000
G1 X96.550 Y142.158 F18000.000
G1 E0.80000 F2100.00000
G1 F1800.000
G1 X96.474 Y142.445 E0.00936
G1 X94.325 Y142.446 E0.06764
G1 X94.249 Y142.159 E0.00936
G1 X94.806 Y141.839 E0.02024
G1 X95.003 Y141.701 E0.00755
G1 X95.195 Y141.509 E0.00857
G1 X95.400 Y141.217 E0.01123
G1 X95.605 Y141.509 E0.01123
G1 X95.797 Y141.701 E0.00856
G1 X95.994 Y141.839 E0.00755
G1 X96.498 Y142.128 E0.01831
G1 E-0.08000 F3000.00000
G1 F14400.000
G1 X96.474 Y142.445 E-0.06293
G1 X94.325 Y142.446 E-0.42526
G1 X94.249 Y142.159 E-0.05884
G1 X94.806 Y141.839 E-0.12723
G1 X94.847 Y141.811 E-0.00974
G1 E-0.03600 F3000.00000
G1 X87.511 Y141.631 F18000.000
G1 E0.80000 F2100.00000
G1 F2400.000
G1 X85.871 Y141.630 E0.05164
G1 X85.868 Y136.925 E0.14812
G1 X87.070 Y137.627 E0.04382
G1 X87.245 Y137.709 E0.00607
G1 X87.228 Y137.897 E0.00595
G1 X87.228 Y140.575 E0.08429
G1 X87.259 Y140.919 E0.01087
G1 X87.366 Y141.319 E0.01305
G1 X87.486 Y141.577 E0.00896
G1 X88.279 Y142.039 F18000.000
G1 F2400.000
G1 X85.464 Y142.036 E0.08862
G1 X85.461 Y136.215 E0.18326
G1 X87.259 Y137.266 E0.06558
G1 X87.527 Y137.391 E0.00929
G1 X87.710 Y137.440 E0.00598
G1 X87.661 Y137.624 E0.00598
G1 X87.636 Y137.915 E0.00920
G1 X87.636 Y140.557 E0.08317
G1 X87.661 Y140.848 E0.00919
G1 X87.750 Y141.179 E0.01081
G1 X87.895 Y141.491 E0.01081
G1 X88.245 Y141.990 E0.01920
G1 E-0.08000 F3000.00000
G1 F14400.000
G1 X85.464 Y142.036 E-0.55041
G1 X85.464 Y141.362 E-0.13359
G1 E-0.03600 F3000.00000
G1 X89.354 Y142.160 F18000.000
G1 E0.80000 F2100.00000
G1 F2400.000
G1 X89.277 Y142.447 E0.00936
G1 X85.057 Y142.443 E0.13284
G1 X85.053 Y135.505 E0.21841
G1 X87.448 Y136.905 E0.08734
G1 X87.666 Y137.007 E0.00757
G1 X87.929 Y137.078 E0.00856
G1 X88.285 Y137.109 E0.01124
G1 X88.134 Y137.432 E0.01124
G1 X88.063 Y137.695 E0.00856
G1 X88.043 Y137.933 E0.00752
G1 X88.043 Y140.539 E0.08205
G1 X88.063 Y140.777 E0.00751
G1 X88.134 Y141.040 E0.00856
G1 X88.249 Y141.286 E0.00857
G1 X88.405 Y141.509 E0.00856
G1 X88.597 Y141.701 E0.00856
G1 X88.794 Y141.839 E0.00755
G1 X89.302 Y142.130 E0.01844
G1 E-0.08000 F3000.00000
G1 F14400.000
G1 X89.277 Y142.447 E-0.06296
G1 X86.139 Y142.444 E-0.62104
G1 E-0.03600 F3000.00000
G1 X95.960 Y129.078 F18000.000
G1 E0.80000 F2100.00000
G1 F2400.000
G1 X95.623 Y128.943 E0.01143
G1 X95.299 Y128.928 E0.01021
G1 X95.466 Y128.569 E0.01247
G1 X95.537 Y128.306 E0.00856
G1 X95.557 Y128.068 E0.00752
G1 X95.557 Y125.462 E0.08205
G1 X95.537 Y125.224 E0.00752
G1 X95.466 Y124.961 E0.00856
G1 X95.317 Y124.642 E0.01111
G1 X95.947 Y124.497 E0.02035
G1 X95.958 Y129.018 E0.14234
G1 E-0.08000 F3000.00000
G1 F14400.000
G1 X95.623 Y128.943 E-0.06797
G1 X95.299 Y128.928 E-0.06419
G1 X95.466 Y128.569 E-0.07840
G1 X95.537 Y128.306 E-0.05384
G1 X95.557 Y128.068 E-0.04726
G1 X95.557 Y126.187 E-0.37234
G1 E-0.03600 F3000.00000
G1 X110.801 Y135.457 F18000.000
G1 E0.80000 F2100.00000
G1 F1800.000
G1 X109.955 Y135.946 E0.03077
G1 X109.800 Y136.055 E0.00595
G1 X109.645 Y135.946 E0.00595
G1 X108.799 Y135.457 E0.03077
G1 X108.876 Y135.171 E0.00934
G1 X110.724 Y135.171 E0.05820
G1 X110.786 Y135.400 E0.00745
G1 E-0.08000 F3000.00000
G1 F14400.000
G1 X109.955 Y135.946 E-0.19684
G1 X109.800 Y136.055 E-0.03741
G1 X109.645 Y135.946 E-0.03739
G1 X108.799 Y135.457 E-0.19347
G1 X108.876 Y135.171 E-0.05873
G1 X109.685 Y135.171 E-0.16016
G1 E-0.03600 F3000.00000
G1 X112.320 Y135.050 F18000.000
G1 E0.80000 F2100.00000
G1 F2400.000
G1 X110.174 Y136.290 E0.07803
G1 X109.934 Y136.457 E0.00920
G1 X109.800 Y136.592 E0.00598
G1 X109.666 Y136.457 E0.00598
G1 X109.426 Y136.290 E0.00920
G1 X107.279 Y135.050 E0.07804
G1 X107.356 Y134.764 E0.00934
G1 X112.244 Y134.764 E0.15385
G1 X112.305 Y134.993 E0.00745
G1 E-0.08000 F3000.00000
G1 F14400.000
G1 X110.174 Y136.290 E-0.49378
G1 X109.934 Y136.457 E-0.05784
G1 X109.800 Y136.592 E-0.03761
G1 X109.666 Y136.457 E-0.03758
G1 X109.429 Y136.292 E-0.05719
G1 E-0.03600 F3000.00000
G1 X161.447 Y123.975 F18000.000
G1 E0.80000 F2100.00000
G1 F2400.000
G1 X164.103 Y119.962 E0.15147
G1 X163.674 Y119.164 E0.02852
G1 X162.776 Y119.165 E0.02827
G1 X161.788 Y119.206 E0.03111
G1 X162.041 Y118.865 E0.01337
G1 X163.360 Y116.882 E0.07496
G1 X162.931 Y116.084 E0.02855
G1 X161.154 Y116.093 E0.05593
G1 X160.298 Y116.150 E0.02702
G1 X160.238 Y116.269 E0.00420
G1 X159.325 Y116.122 E0.02910
G1 X158.845 Y116.089 E0.01516
G1 X157.552 Y116.082 E0.04069
G1 X154.897 Y120.094 E0.15147
G1 X155.326 Y120.894 E0.02860
G1 X156.665 Y120.886 E0.04214
G1 X157.218 Y120.848 E0.01744
G1 X156.964 Y121.192 E0.01345
G1 X155.645 Y123.174 E0.07494
G1 X156.076 Y123.975 E0.02865
G1 X157.851 Y123.962 E0.05589
G1 X158.707 Y123.902 E0.02702
G1 X158.767 Y123.783 E0.00421
G1 X159.671 Y123.933 E0.02883
G1 X160.153 Y123.966 E0.01522
G1 X161.387 Y123.974 E0.03884
G1 E-0.08000 F3000.00000
G1 F14400.000
G1 X163.324 Y121.112 E-0.68400
G1 E-0.03600 F3000.00000
G1 X157.646 Y120.355 F18000.000
G1 E0.80000 F2100.00000
; custom gcode: feature_gcode
;ExternalPerimeter                   ;  ExternalPerimeter
M204 P750 T5000
; custom gcode end: feature_gcode

;TYPE:External perimeter
G1 F1957.950
G1 X159.963 Y116.854 E0.13216
G1 X159.838 Y116.623 E0.00826
G1 X159.278 Y116.532 E0.01786
G1 X158.830 Y116.502 E0.01416
G1 X157.773 Y116.495 E0.03326
G1 X155.377 Y120.116 E0.13667
G1 X155.572 Y120.480 E0.01302
G1 X156.650 Y120.473 E0.03392
G1 X157.099 Y120.443 E0.01417
G1 X157.586 Y120.364 E0.01555
G1 X158.023 Y120.487 F18000.000
G1 E-0.08000 F3000.00000
G1 F14400.000
G1 X159.524 Y117.502 E-0.68400
G1 E-0.03600 F3000.00000
G1 X158.444 Y123.507 F18000.000
G1 E0.80000 F2100.00000
G1 X158.730 Y122.937 E0.02007
G1 X160.827 Y119.763 E0.11976
G1 X161.097 Y119.386 E0.01459
G1 X161.410 Y119.023 E0.01510
G1 X161.704 Y118.627 E0.01551
G1 X162.880 Y116.860 E0.06684
G1 X162.685 Y116.496 E0.01300
G1 X161.170 Y116.506 E0.04767
G1 X160.560 Y116.546 E0.01924
G1 X160.273 Y117.117 E0.02012
G1 X158.176 Y120.291 E0.11977
G1 X157.906 Y120.669 E0.01460
G1 X157.594 Y121.033 E0.01509
G1 X157.301 Y121.429 E0.01549
G1 X156.125 Y123.196 E0.06684
G1 X156.321 Y123.561 E0.01304
G1 X157.835 Y123.549 E0.04765
G1 X158.384 Y123.511 E0.01733
G1 X158.828 Y123.620 F18000.000
G1 E-0.08000 F3000.00000
G1 F14400.000
G1 X158.730 Y122.937 E-0.13260
G1 X160.266 Y120.613 E-0.55140
G1 E-0.03600 F3000.00000
G1 X161.226 Y123.561 F18000.000
G1 E0.80000 F2100.00000
G1 F1961.956
G1 X163.623 Y119.940 E0.13668
G1 X163.427 Y119.577 E0.01299
G1 X162.785 Y119.577 E0.02024
G1 X161.902 Y119.614 E0.02780
G1 X161.354 Y119.705 E0.01751
G1 X158.929 Y123.391 E0.13889
G1 X159.719 Y123.523 E0.02521
G1 X160.169 Y123.554 E0.01419
G1 X161.166 Y123.560 E0.03140
G1 X161.596 Y123.714 F18000.000
G1 E-0.08000 F3000.00000
G1 F14400.000
G1 X163.107 Y120.701 E-0.68400
G1 E-0.03600 F3000.00000
G1 X163.842 Y124.618 F18000.000
G1 E0.80000 F2100.00000
; custom gcode: feature_gcode
;Perimeter                        ;  Perimeter
M204 P1000 T5000
; custom gcode end: feature_gcode

;TYPE:Perimeter
G1 F2169.229
G1 X163.302 Y123.678 E0.03411
G1 X162.620 Y123.678 E0.02149
G1 X163.853 Y121.814 E0.07037
G1 X164.129 Y121.897 E0.00905
G1 X164.129 Y124.542 E0.08325
G1 X163.900 Y124.603 E0.00746
G1 E-0.08000 F3000.00000
G1 F14400.000
G1 X163.302 Y123.678 E-0.21780
G1 X162.620 Y123.678 E-0.13512
G1 X163.543 Y122.283 E-0.33108
G1 E-0.03600 F3000.00000
G1 X164.249 Y126.145 F18000.000
G1 E0.80000 F2100.00000
G1 F2400.000
G1 X163.067 Y124.085 E0.07476
G1 X161.862 Y124.085 E0.03792
G1 X164.260 Y120.462 E0.13680
G1 X164.536 Y120.545 E0.00905
G1 X164.536 Y126.069 E0.17389
G1 X164.307 Y126.130 E0.00746
G1 E-0.08000 F3000.00000
G1 F14400.000
G1 X163.067 Y124.085 E-0.47321
G1 X162.001 Y124.085 E-0.21079
G1 E-0.03600 F3000.00000
G1 X164.129 Y118.350 F18000.000
G1 E0.80000 F2100.00000
G1 F1800.000
G1 X163.362 Y118.350 E0.02414
G1 X163.854 Y117.611 E0.02796
G1 X164.129 Y117.694 E0.00904
G1 X164.129 Y118.290 E0.01876
G1 E-0.08000 F3000.00000
G1 F14400.000
G1 X163.362 Y118.350 E-0.15227
G1 X163.854 Y117.611 E-0.17582
G1 X164.129 Y117.694 E-0.05682
G1 X164.129 Y118.290 E-0.11794
G1 E-0.21715 F3000.00000
G1 X149.607 Y129.305 F18000.000
G1 E0.80000 F2100.00000
G1 F2400.000
G1 X149.952 Y128.837 E0.01830
G1 X150.256 Y128.341 E0.01830
G1 X150.522 Y127.812 E0.01865
G1 X150.771 Y127.161 E0.02196
G1 X150.903 Y126.724 E0.01437
G1 X151.025 Y126.158 E0.01823
G1 X151.098 Y125.581 E0.01831
G1 X151.123 Y125.000 E0.01830
G1 X151.098 Y124.419 E0.01830
G1 X151.025 Y123.842 E0.01831
