G10 P0 R230 S230 ; sets the standby temperature
; generated by SuperSlicer 2.3.55 on 2023-05-12 at 07:19:42 UTC

; TODO: check the size of the extruder and the y-bar clearance. Optimize & test supports.

; external perimeters extrusion width = 0.39mm
; perimeters extrusion width = 0.60mm
; infill extrusion width = 0.80mm
; solid infill extrusion width = 0.60mm
; top infill extrusion width = 0.32mm
; first layer extrusion width = 0.45mm

; object:{"name":"[a]_pcb_spacer","id":"[a]_pcb_spacer.stl id:0 copy 0","object_center":[145.205787,118.086979,0.000000],"boundingbox_center":[145.205787,118.086979,1.900000],"boundingbox_size":[18.770620,17.983913,3.800000]}
; object:{"name":"[a]_guidler_a","id":"[a]_guidler_a.stl id:1 copy 0","object_center":[126.487023,118.405373,0.000000],"boundingbox_center":[126.487023,118.405373,8.099999],"boundingbox_size":[19.482613,44.973404,16.199999]}
; object:{"name":"[a]_guidler_b","id":"[a]_guidler_b.stl id:2 copy 0","object_center":[105.008763,144.695134,0.000000],"boundingbox_center":[105.008763,144.695134,5.400000],"boundingbox_size":[19.188231,31.402088,10.800000]}
; object:{"name":"[a]_latch","id":"[a]_latch.stl id:3 copy 0","object_center":[112.245759,109.624123,0.000000],"boundingbox_center":[112.245759,109.624123,5.200510],"boundingbox_size":[25.248573,40.050552,10.401019]}
; object:{"name":"[a]_latch_shuttle (1)","id":"[a]_latch_shuttle (1).stl id:4 copy 0","object_center":[138.184972,132.338903,0.000000],"boundingbox_center":[138.184972,132.338903,5.200001],"boundingbox_size":[23.585247,12.460510,10.400002]}
; plater:{"center":[125.002872,124.997512,0.000000],"boundingbox_center":[125.002872,124.997512,8.099999],"boundingbox_size":[59.176449,70.797331,16.199999]}

;TYPE:Custom
; custom gcode: start_gcode
M106 P4 S255
M140 S95 ; set bed final temp
M104 S240 ; set extruder final temp
M190 S95 ; wait for bed final temp
M109 S240 ; wait for extruder final temp
;G29
G28
;M98 P"/macros/nozzle/brush.g"
;PRINT_START

G92 E0 ;Reset Extruder
;;G1 Z2.0 F3000 ;Move Z Axis up


G1 X100 Y4.6 Z0.3 F18000.0 ; Move to side a little

G1 X5 Y4.6 Z0.3 F1500.0 E10 ; Draw the second line

G1 X5 Y4.2 Z0.3 F1500.0 E10 ; Draw the third line

G1 X100 Y4.2 Z0.3 F1500.0 E10 ; Draw the third line


;G92 E0;		Reset extruder
;G1 X1 Y10 F6000;
;G1 Z1.7;
;G1 X1 Y60 E140 F50;
;G1 E-<DESTRING> F1500;
;G1 Z4
;G1 X<NEXTX> Y<NEXTY> F12000;
;G92 E0 ;Reset Extruder

;G1 Z2.0 F3000 ;Move Z Axis up
; custom gcode end: start_gcode
M107
G21 ; set units to millimeters
G90 ; use absolute coordinates
M83 ; use relative distances for extrusion
; custom gcode: start_filament_gcode
; Filament gcode
M572 D0 S0.065
M593 F20
; custom gcode end: start_filament_gcode
;LAYER_CHANGE
;Z:0.2
;HEIGHT:0.2
; custom gcode: before_layer_gcode
;BEFORE_LAYER_CHANGE
;0.2

; custom gcode end: before_layer_gcode

G1 Z0.200000 F18000.000
; custom gcode: layer_gcode
;AFTER_LAYER_CHANGE
;0.2
; custom gcode end: layer_gcode

G1 E-0.80000 F3000.00000
G1 Z1.000000 F18000.000
G1 X96.929 Y98.000
G1 Z0.200000
G1 E0.80000 F2100.00000
; custom gcode: feature_gcode
;Skirt
M204 P2000 T5000
; custom gcode end: feature_gcode

;TYPE:Skirt
G1 F2400.000
M204 P1200
G1 X97.961 Y97.209 E0.04349
G1 X120.954 Y85.148 E0.86832
G1 X122.252 Y84.683 E0.04611
G1 X123.622 Y84.526 E0.04611
G1 X125.021 Y84.692 E0.04712
G1 X126.348 Y85.182 E0.04732
G1 X138.317 Y92.007 E0.46078
G1 X138.960 Y92.544 E0.02802
G1 X154.489 Y107.376 E0.71816
G1 X159.178 Y113.451 E0.25662
G1 X159.769 Y114.449 E0.03879
G1 X160.207 Y115.516 E0.03859
G1 X160.485 Y116.623 E0.03818
G1 X160.607 Y117.873 E0.04197
G1 X160.608 Y124.194 E0.21141
G1 X160.458 Y125.721 E0.05132
G1 X160.009 Y127.309 E0.05519
G1 X155.250 Y138.913 E0.41943
G1 X154.842 Y139.667 E0.02868
G1 X154.356 Y140.350 E0.02801
G1 X153.783 Y140.976 E0.02839
G1 X153.158 Y141.513 E0.02756
G1 X113.382 Y164.906 E1.54322
G1 X112.191 Y165.438 E0.04360
G1 X110.848 Y165.779 E0.04636
G1 X109.496 Y165.882 E0.04535
G1 X108.110 Y165.744 E0.04657
G1 X106.685 Y165.333 E0.04959
G1 X101.945 Y163.284 E0.17270
G1 X101.193 Y162.810 E0.02974
G1 X100.456 Y162.215 E0.03165
G1 X99.308 Y160.914 E0.05804
G1 X98.552 Y159.580 E0.05129
G1 X90.417 Y141.453 E0.66444
G1 X90.037 Y140.458 E0.03565
G1 X89.756 Y139.428 E0.03569
G1 X89.561 Y138.244 E0.04014
G1 X89.497 Y137.051 E0.03994
G1 X89.805 Y130.636 E0.21480
G1 X93.810 Y102.625 E0.94629
G1 X94.229 Y101.292 E0.04671
G1 X94.944 Y100.092 E0.04671
G1 X96.888 Y98.044 E0.09443
G1 X97.182 Y98.324 F18000.000
G1 F2400.000
G1 X98.185 Y97.549 E0.04240
G1 X121.123 Y85.519 E0.86619
G1 X122.343 Y85.080 E0.04335
G1 X123.625 Y84.933 E0.04315
G1 X124.935 Y85.090 E0.04413
G1 X126.177 Y85.551 E0.04432
G1 X138.084 Y92.341 E0.45839
G1 X154.187 Y107.649 E0.74303
G1 X158.839 Y113.677 E0.25464
G1 X159.405 Y114.630 E0.03707
G1 X159.819 Y115.640 E0.03649
G1 X160.084 Y116.692 E0.03629
G1 X160.200 Y117.890 E0.04025
G1 X160.201 Y124.184 E0.21049
G1 X160.056 Y125.654 E0.04938
G1 X159.567 Y127.322 E0.05815
G1 X154.884 Y138.735 E0.41253
G1 X154.044 Y140.088 E0.05328
G1 X152.914 Y141.188 E0.05273
G1 X113.198 Y164.543 E1.54083
G1 X112.065 Y165.051 E0.04154
G1 X110.793 Y165.376 E0.04390
G1 X109.502 Y165.475 E0.04331
G1 X108.184 Y165.344 E0.04429
G1 X106.833 Y164.954 E0.04701
G1 X102.145 Y162.929 E0.17080
G1 X101.429 Y162.478 E0.02829
G1 X100.727 Y161.912 E0.03015
G1 X99.634 Y160.669 E0.05535
G1 X98.922 Y159.411 E0.04836
G1 X90.786 Y141.282 E0.66452
G1 X90.421 Y140.322 E0.03434
G1 X90.148 Y139.319 E0.03476
G1 X89.965 Y138.196 E0.03808
G1 X89.904 Y137.047 E0.03847
G1 X90.210 Y130.674 E0.21338
G1 X94.212 Y102.692 E0.94531
G1 X94.607 Y101.445 E0.04374
G1 X95.283 Y100.319 E0.04393
G1 X97.141 Y98.368 E0.09009
G1 X97.435 Y98.649 F18000.000
G1 F2400.000
G1 X98.406 Y97.892 E0.04117
G1 X121.298 Y85.886 E0.86446
G1 X122.430 Y85.478 E0.04024
G1 X123.625 Y85.340 E0.04024
G1 X124.847 Y85.488 E0.04118
G1 X126.001 Y85.918 E0.04118
G1 X137.851 Y92.675 E0.45619
G1 X153.881 Y107.918 E0.73976
G1 X158.501 Y113.904 E0.25287
G1 X159.035 Y114.802 E0.03496
G1 X159.430 Y115.758 E0.03459
G1 X159.683 Y116.761 E0.03459
G1 X159.793 Y117.902 E0.03831
G1 X159.794 Y124.175 E0.20979
G1 X159.656 Y125.581 E0.04724
G1 X159.186 Y127.178 E0.05569
G1 X154.520 Y138.552 E0.41113
G1 X153.728 Y139.832 E0.05035
G1 X152.669 Y140.862 E0.04941
G1 X113.013 Y164.180 E1.53845
G1 X111.937 Y164.664 E0.03948
G1 X110.731 Y164.974 E0.04162
G1 X109.507 Y165.068 E0.04105
G1 X108.252 Y164.943 E0.04219
G1 X106.981 Y164.574 E0.04425
G1 X102.349 Y162.576 E0.16873
G1 X100.994 Y161.604 E0.05576
G1 X99.957 Y160.421 E0.05263
G1 X99.292 Y159.241 E0.04527
G1 X91.158 Y141.116 E0.66439
G1 X90.542 Y139.212 E0.06694
G1 X90.369 Y138.142 E0.03625
G1 X90.311 Y137.043 E0.03681
G1 X90.615 Y130.717 E0.21178
G1 X94.612 Y102.765 E0.94432
G1 X94.985 Y101.597 E0.04099
G1 X95.616 Y100.553 E0.04080
G1 X97.394 Y98.692 E0.08606
; printing object [a]_pcb_spacer.stl id:0 copy 0
G1 E-0.08000 F3000.00000
G1 F14400.000
G1 X98.406 Y97.892 E-0.25540
G1 X100.323 Y96.886 E-0.42860
G1 E-0.03600 F3000.00000
G1 Z0.600000 F18000.000
G1 X140.510 Y114.254
G1 Z0.200000
G1 E0.80000 F2100.00000
; custom gcode: feature_gcode
;Perimeter                        ;  Perimeter
M204 P1000 T5000
; custom gcode end: feature_gcode

;TYPE:Perimeter
G1 F1800.000
G1 X141.016 Y113.717 E0.02465
G1 X141.233 Y113.335 E0.01470
G1 X141.410 Y113.876 E0.01902
G1 X141.725 Y114.425 E0.02120
G1 X140.570 Y114.262 E0.03903
G1 E-0.08000 F3000.00000
G1 F14400.000
G1 X141.016 Y113.717 E-0.13939
G1 X141.233 Y113.335 E-0.08702
G1 X141.410 Y113.876 E-0.11258
G1 X141.725 Y114.425 E-0.12545
G1 X140.627 Y114.270 E-0.21956
G1 E-0.03600 F3000.00000
G1 X141.509 Y111.446 F18000.000
G1 E0.80000 F2100.00000
G1 F1800.000
G1 X141.060 Y110.486 E0.03546
G1 X142.207 Y110.647 E0.03874
G1 X141.549 Y111.401 E0.03346
G1 E-0.08000 F3000.00000
G1 F14400.000
G1 X141.060 Y110.486 E-0.20533
G1 X142.207 Y110.647 E-0.22929
G1 X141.549 Y111.401 E-0.19804
G1 E-0.08734 F3000.00000
G1 X143.210 Y110.672 F18000.000
G1 E0.80000 F2100.00000
G1 F2400.000
G1 X142.841 Y110.810 E0.01319
G1 X142.527 Y110.990 E0.01209
G1 X142.248 Y111.219 E0.01209
G1 X142.010 Y111.491 E0.01209
G1 X141.820 Y111.799 E0.01209
G1 X141.683 Y112.134 E0.01209
G1 X141.604 Y112.486 E0.01209
G1 X141.583 Y112.847 E0.01209
G1 X141.624 Y113.220 E0.01253
G1 X141.784 Y113.710 E0.01724
G1 X141.970 Y114.035 E0.01253
G1 X142.200 Y114.314 E0.01209
G1 X142.472 Y114.552 E0.01209
G1 X142.639 Y114.655 E0.00656
G1 X142.532 Y114.950 E0.01051
G1 X139.685 Y114.549 E0.09616
G1 X139.640 Y114.267 E0.00955
G1 X140.005 Y114.087 E0.01362
G1 X140.316 Y113.867 E0.01274
G1 X140.686 Y113.474 E0.01804
G1 X140.953 Y113.005 E0.01804
G1 X141.076 Y112.631 E0.01317
G1 X141.139 Y112.108 E0.01762
G1 X141.108 Y111.728 E0.01274
G1 X141.018 Y111.357 E0.01274
G1 X140.795 Y110.880 E0.01762
G1 X140.561 Y110.564 E0.01317
G1 X140.190 Y110.228 E0.01674
G1 X140.311 Y109.969 E0.00956
G1 X143.178 Y110.373 E0.09681
G1 X143.204 Y110.613 E0.00806
G1 E-0.08000 F3000.00000
G1 F14400.000
G1 X142.841 Y110.810 E-0.08177
G1 X142.527 Y110.990 E-0.07154
G1 X142.248 Y111.219 E-0.07154
G1 X142.010 Y111.491 E-0.07154
G1 X141.820 Y111.799 E-0.07154
G1 X141.683 Y112.134 E-0.07154
G1 X141.604 Y112.486 E-0.07154
G1 X141.583 Y112.847 E-0.07154
G1 X141.624 Y113.220 E-0.07417
G1 X141.666 Y113.351 E-0.02728
G1 E-0.03600 F3000.00000
G1 X148.516 Y115.818 F18000.000
G1 E0.80000 F2100.00000
G1 F2400.000
G1 X149.029 Y115.603 E0.01860
G1 X149.525 Y115.229 E0.02079
G1 X149.822 Y114.889 E0.01507
G1 X150.047 Y114.524 E0.01434
G1 X150.218 Y114.107 E0.01507
G1 X150.314 Y113.581 E0.01788
G1 X153.278 Y117.428 E0.16239
G1 X153.399 Y117.622 E0.00766
G1 X153.468 Y117.804 E0.00650
G1 X153.498 Y118.056 E0.00851
G1 X153.498 Y122.268 E0.14084
G1 X152.845 Y121.803 E0.02679
G1 X152.432 Y121.622 E0.01510
G1 X151.995 Y121.512 E0.01504
G1 X151.406 Y121.487 E0.01973
G1 X150.951 Y121.562 E0.01542
G1 X150.524 Y121.709 E0.01510
G1 X150.017 Y122.011 E0.01973
G1 X149.688 Y122.313 E0.01495
G1 X149.685 Y118.198 E0.13765
G1 X149.654 Y117.776 E0.01414
G1 X149.499 Y117.169 E0.02095
G1 X149.299 Y116.732 E0.01606
G1 X148.930 Y116.203 E0.02158
G1 X148.560 Y115.859 E0.01690
G1 E-0.08000 F3000.00000
G1 F14400.000
G1 X149.029 Y115.603 E-0.10576
G1 X149.525 Y115.229 E-0.12305
G1 X149.822 Y114.889 E-0.08920
G1 X150.047 Y114.524 E-0.08489
G1 X150.218 Y114.107 E-0.08920
G1 X150.314 Y113.581 E-0.10580
G1 X150.579 Y113.926 E-0.08610
G1 E-0.03600 F3000.00000
G1 X147.385 Y115.599 F18000.000
G1 E0.80000 F2100.00000
G1 F2400.000
G1 X148.325 Y115.457 E0.03178
G1 X148.824 Y115.247 E0.01813
G1 X149.247 Y114.929 E0.01768
G1 X149.493 Y114.647 E0.01253
G1 X149.683 Y114.339 E0.01209
G1 X149.825 Y113.992 E0.01253
G1 X149.920 Y113.472 E0.01768
G1 X149.874 Y112.794 E0.02274
G1 X150.143 Y112.692 E0.00959
G1 X153.613 Y117.195 E0.19011
G1 X153.766 Y117.441 E0.00968
G1 X153.860 Y117.691 E0.00896
G1 X153.905 Y118.043 E0.01186
G1 X153.905 Y123.158 E0.17106
G1 X153.613 Y123.232 E0.01006
G1 X153.417 Y122.869 E0.01380
G1 X153.074 Y122.466 E0.01770
G1 X152.643 Y122.159 E0.01770
G1 X152.299 Y122.008 E0.01256
G1 X151.936 Y121.917 E0.01252
G1 X151.431 Y121.895 E0.01693
G1 X151.051 Y121.958 E0.01286
G1 X150.697 Y122.080 E0.01255
G1 X150.262 Y122.339 E0.01693
G1 X149.969 Y122.608 E0.01327
G1 X149.674 Y123.021 E0.01697
G1 X149.589 Y123.215 E0.00711
G1 X149.282 Y123.151 E0.01050
G1 X149.277 Y118.212 E0.16516
G1 X149.251 Y117.841 E0.01244
G1 X149.114 Y117.305 E0.01851
G1 X148.944 Y116.935 E0.01362
G1 X148.621 Y116.471 E0.01889
G1 X148.199 Y116.079 E0.01928
G1 X147.436 Y115.630 E0.02960
G1 X147.495 Y115.107 F18000.000
; custom gcode: feature_gcode
;ExternalPerimeter                   ;  ExternalPerimeter
M204 P750 T5000
; custom gcode end: feature_gcode

;TYPE:External perimeter
G1 F1800.000
G1 X147.783 Y115.123 E0.00962
G1 X148.212 Y115.058 E0.01454
G1 X148.618 Y114.888 E0.01470
G1 X148.965 Y114.626 E0.01454
G1 X149.161 Y114.402 E0.00997
G1 X149.315 Y114.152 E0.00981
G1 X149.428 Y113.876 E0.00997
G1 X149.506 Y113.449 E0.01454
G1 X149.477 Y113.015 E0.01454
G1 X149.396 Y112.728 E0.00997
G1 X149.270 Y112.458 E0.00997
G1 X149.011 Y112.115 E0.01438
G1 X148.786 Y111.919 E0.00997
G1 X148.537 Y111.765 E0.00981
G1 X148.265 Y111.654 E0.00981
G1 X147.989 Y111.591 E0.00946
G1 X144.003 Y111.031 E0.13462
G1 X143.584 Y111.025 E0.01404
G1 X143.291 Y111.081 E0.00996
G1 X143.016 Y111.183 E0.00981
G1 X142.762 Y111.330 E0.00981
G1 X142.535 Y111.516 E0.00981
G1 X142.342 Y111.736 E0.00981
G1 X142.188 Y111.986 E0.00981
G1 X142.077 Y112.258 E0.00981
G1 X142.013 Y112.544 E0.00981
G1 X141.996 Y112.836 E0.00981
G1 X142.028 Y113.133 E0.00997
G1 X142.161 Y113.542 E0.01438
G1 X142.310 Y113.800 E0.00997
G1 X142.496 Y114.027 E0.00981
G1 X142.717 Y114.220 E0.00981
G1 X142.966 Y114.374 E0.00981
G1 X143.238 Y114.485 E0.00981
G1 X143.514 Y114.547 E0.00946
G1 X147.436 Y115.098 E0.13246
G1 X147.618 Y115.367 F18000.000
G1 E-0.08000 F3000.00000
G1 F14400.000
G1 X147.783 Y115.123 E-0.06876
G1 X148.212 Y115.058 E-0.08606
G1 X148.618 Y114.888 E-0.08699
G1 X148.965 Y114.626 E-0.08606
G1 X149.161 Y114.402 E-0.05898
G1 X149.315 Y114.152 E-0.05805
G1 X149.428 Y113.876 E-0.05898
G1 X149.506 Y113.449 E-0.08606
G1 X149.477 Y113.015 E-0.08606
G1 X149.466 Y112.976 E-0.00800
G1 E-0.03600 F3000.00000
G1 X140.575 Y112.837 F18000.000
G1 E0.80000 F2100.00000
G1 F1800.000
G1 X140.672 Y112.541 E0.01043
G1 X140.725 Y112.099 E0.01487
G1 X140.701 Y111.793 E0.01028
G1 X140.628 Y111.495 E0.01028
G1 X140.440 Y111.092 E0.01487
G1 X140.255 Y110.841 E0.01043
G1 X139.922 Y110.540 E0.01502
G1 X139.527 Y110.325 E0.01502
G1 X139.233 Y110.235 E0.01028
G1 X138.933 Y110.193 E0.01012
G1 X138.626 Y110.199 E0.01028
G1 X138.192 Y110.296 E0.01487
G1 X137.911 Y110.420 E0.01028
G1 X137.654 Y110.588 E0.01028
G1 X137.333 Y110.902 E0.01502
G1 X137.095 Y111.284 E0.01502
G1 X136.988 Y111.571 E0.01028
G1 X136.927 Y111.873 E0.01028
G1 X136.927 Y112.322 E0.01502
G1 X137.033 Y112.758 E0.01502
G1 X137.163 Y113.037 E0.01028
G1 X137.336 Y113.291 E0.01028
G1 X137.657 Y113.605 E0.01502
G1 X138.043 Y113.835 E0.01502
G1 X138.337 Y113.938 E0.01043
G1 X138.777 Y114.000 E0.01487
G1 X139.089 Y113.982 E0.01043
G1 X139.519 Y113.868 E0.01487
G1 X139.794 Y113.732 E0.01028
G1 X140.045 Y113.555 E0.01028
G1 X140.353 Y113.228 E0.01502
G1 X140.545 Y112.889 E0.01302
G1 X140.884 Y112.794 F18000.000
G1 E-0.08000 F3000.00000
G1 F14400.000
G1 X140.672 Y112.541 E-0.07338
G1 X140.725 Y112.099 E-0.08801
G1 X140.701 Y111.793 E-0.06081
G1 X140.628 Y111.495 E-0.06081
G1 X140.440 Y111.092 E-0.08801
G1 X140.255 Y110.841 E-0.06171
G1 X139.922 Y110.540 E-0.08891
G1 X139.527 Y110.325 E-0.08891
G1 X139.233 Y110.235 E-0.06081
G1 X139.170 Y110.226 E-0.01264
G1 E-0.03600 F3000.00000
G1 X150.279 Y122.882 F18000.000
G1 E0.80000 F2100.00000
G1 F1800.000
G1 X150.034 Y123.225 E0.01411
G1 X149.910 Y123.506 E0.01027
G1 X149.838 Y123.796 E0.00997
G1 X149.820 Y124.217 E0.01410
G1 X149.872 Y124.524 E0.01042
G1 X150.025 Y124.917 E0.01410
G1 X150.188 Y125.167 E0.00998
G1 X150.396 Y125.393 E0.01027
G1 X150.739 Y125.637 E0.01410
G1 X151.012 Y125.758 E0.00998
G1 X151.310 Y125.833 E0.01027
G1 X151.731 Y125.850 E0.01410
G1 X152.025 Y125.801 E0.00997
G1 X152.303 Y125.706 E0.00983
G1 X152.565 Y125.564 E0.00997
G1 X152.894 Y125.286 E0.01439
G1 X153.080 Y125.047 E0.01013
G1 X153.271 Y124.656 E0.01455
G1 X153.361 Y124.230 E0.01455
G1 X153.361 Y123.932 E0.00997
G1 X153.312 Y123.643 E0.00982
G1 X153.217 Y123.365 E0.00982
G1 X153.075 Y123.103 E0.00997
G1 X152.794 Y122.771 E0.01455
G1 X152.439 Y122.518 E0.01455
G1 X152.166 Y122.399 E0.00998
G1 X151.877 Y122.326 E0.00997
G1 X151.456 Y122.308 E0.01410
G1 X151.153 Y122.358 E0.01027
G1 X150.871 Y122.455 E0.00998
G1 X150.509 Y122.671 E0.01410
G1 X150.323 Y122.841 E0.00841
G1 X149.885 Y122.816 F18000.000
G1 E-0.08000 F3000.00000
G1 F14400.000
G1 X150.034 Y123.225 E-0.09515
G1 X149.910 Y123.506 E-0.06080
G1 X149.838 Y123.796 E-0.05903
G1 X149.820 Y124.217 E-0.08343
G1 X149.872 Y124.524 E-0.06166
G1 X150.025 Y124.917 E-0.08343
G1 X150.188 Y125.167 E-0.05903
G1 X150.396 Y125.393 E-0.06079
