G10 P0 R225 S225 ; sets the standby temperature
; generated by SuperSlicer 2.3.55 on 2023-05-21 at 17:53:52 UTC

; TODO: check the size of the extruder and the y-bar clearance. Optimize & test supports.

; external perimeters extrusion width = 0.39mm
; perimeters extrusion width = 0.60mm
; infill extrusion width = 0.60mm
; solid infill extrusion width = 0.60mm
; top infill extrusion width = 0.32mm
; support material extrusion width = 0.40mm
; first layer extrusion width = 0.45mm

; object:{"name":"[c]_stealthburner_LED_diffuser","id":"[c]_stealthburner_LED_diffuser.stl id:0 copy 0","object_center":[128.601720,110.413811,0.000000],"boundingbox_center":[128.601720,110.413811,2.600000],"boundingbox_size":[11.534321,13.797958,5.200000]}
; object:{"name":"[c]_stealthburner_LED_diffuser","id":"[c]_stealthburner_LED_diffuser.stl id:1 copy 0","object_center":[116.567400,110.413811,0.000000],"boundingbox_center":[116.567400,110.413811,2.600000],"boundingbox_size":[11.534321,13.797958,5.200000]}
; object:{"name":"[c]_Display_Diffuser","id":"[c]_Display_Diffuser.STL id:2 copy 0","object_center":[117.316407,136.459004,0.000000],"boundingbox_center":[117.316407,136.459004,2.641541],"boundingbox_size":[12.446035,12.345192,5.283081]}
; object:{"name":"[c]_Display_Diffuser","id":"[c]_Display_Diffuser.STL id:3 copy 0","object_center":[106.916267,136.459004,0.000000],"boundingbox_center":[106.916267,136.459004,2.641541],"boundingbox_size":[12.446035,12.345192,5.283081]}
; object:{"name":"[c]_stealthburner_LED_diffuser","id":"[c]_stealthburner_LED_diffuser.stl id:4 copy 0","object_center":[128.601720,96.115853,0.000000],"boundingbox_center":[128.601720,96.115853,2.600000],"boundingbox_size":[11.534321,13.797958,5.200000]}
; object:{"name":"[c]_stealthburner_LED_diffuser","id":"[c]_stealthburner_LED_diffuser.stl id:5 copy 0","object_center":[116.567400,96.115853,0.000000],"boundingbox_center":[116.567400,96.115853,2.600000],"boundingbox_size":[11.534321,13.797958,5.200000]}
; object:{"name":"[c]_Display_Diffuser","id":"[c]_Display_Diffuser.STL id:6 copy 0","object_center":[117.380913,146.678561,0.000000],"boundingbox_center":[117.380913,146.678561,2.641541],"boundingbox_size":[12.446035,12.345192,5.283081]}
; object:{"name":"[c]_Display_Diffuser","id":"[c]_Display_Diffuser.STL id:7 copy 0","object_center":[96.516127,136.459004,0.000000],"boundingbox_center":[96.516127,136.459004,2.641541],"boundingbox_size":[12.446035,12.345192,5.283081]}
; object:{"name":"[c]_stealthburner_LED_diffuser","id":"[c]_stealthburner_LED_diffuser.stl id:8 copy 0","object_center":[140.636040,110.413811,0.000000],"boundingbox_center":[140.636040,110.413811,2.600000],"boundingbox_size":[11.534321,13.797958,5.200000]}
; object:{"name":"[c]_stealthburner_LED_diffuser","id":"[c]_stealthburner_LED_diffuser.stl id:9 copy 0","object_center":[140.636040,96.115853,0.000000],"boundingbox_center":[140.636040,96.115853,2.600000],"boundingbox_size":[11.534321,13.797958,5.200000]}
; object:{"name":"[c]_Display_Diffuser","id":"[c]_Display_Diffuser.STL id:10 copy 0","object_center":[96.516127,126.702694,0.000000],"boundingbox_center":[96.516127,126.702694,2.641541],"boundingbox_size":[12.446035,12.345192,5.283081]}
; object:{"name":"[c]_Display_Diffuser","id":"[c]_Display_Diffuser.STL id:11 copy 0","object_center":[96.516127,116.946384,0.000000],"boundingbox_center":[96.516127,116.946384,2.641541],"boundingbox_size":[12.446035,12.345192,5.283081]}
; object:{"name":"[c]_stealthburner_LED_diffuser","id":"[c]_stealthburner_LED_diffuser.stl id:12 copy 0","object_center":[116.567400,124.711769,0.000000],"boundingbox_center":[116.567400,124.711769,2.600000],"boundingbox_size":[11.534321,13.797958,5.200000]}
; object:{"name":"[c]_stealthburner_LED_diffuser","id":"[c]_stealthburner_LED_diffuser.stl id:13 copy 0","object_center":[128.601720,124.711769,0.000000],"boundingbox_center":[128.601720,124.711769,2.600000],"boundingbox_size":[11.534321,13.797958,5.200000]}
; object:{"name":"[c]_Display_Diffuser","id":"[c]_Display_Diffuser.STL id:14 copy 0","object_center":[96.516127,107.190074,0.000000],"boundingbox_center":[96.516127,107.190074,2.641541],"boundingbox_size":[12.446035,12.345192,5.283081]}
; object:{"name":"[c]_Display_Diffuser","id":"[c]_Display_Diffuser.STL id:15 copy 0","object_center":[106.980773,146.678561,0.000000],"boundingbox_center":[106.980773,146.678561,2.641541],"boundingbox_size":[12.446035,12.345192,5.283081]}
; object:{"name":"[c]_stealthburner_LED_diffuser","id":"[c]_stealthburner_LED_diffuser.stl id:16 copy 0","object_center":[152.670360,110.413811,0.000000],"boundingbox_center":[152.670360,110.413811,2.600000],"boundingbox_size":[11.534321,13.797958,5.200000]}
; object:{"name":"[c]_stealthburner_LED_diffuser","id":"[c]_stealthburner_LED_diffuser.stl id:17 copy 0","object_center":[140.636040,124.711769,0.000000],"boundingbox_center":[140.636040,124.711769,2.600000],"boundingbox_size":[11.534321,13.797958,5.200000]}
; object:{"name":"[c]_Display_Diffuser","id":"[c]_Display_Diffuser.STL id:18 copy 0","object_center":[96.516127,97.433764,0.000000],"boundingbox_center":[96.516127,97.433764,2.641541],"boundingbox_size":[12.446035,12.345192,5.283081]}
; object:{"name":"[c]_Display_Diffuser","id":"[c]_Display_Diffuser.STL id:19 copy 0","object_center":[117.316407,155.875073,0.000000],"boundingbox_center":[117.316407,155.875073,2.641541],"boundingbox_size":[12.446035,12.345192,5.283081]}
; object:{"name":"[c]_stealthburner_LED_diffuser","id":"[c]_stealthburner_LED_diffuser.stl id:20 copy 0","object_center":[152.670360,124.711769,0.000000],"boundingbox_center":[152.670360,124.711769,2.600000],"boundingbox_size":[11.534321,13.797958,5.200000]}
; object:{"name":"[c]_stealthburner_LED_diffuser","id":"[c]_stealthburner_LED_diffuser.stl id:21 copy 0","object_center":[152.670360,96.115853,0.000000],"boundingbox_center":[152.670360,96.115853,2.600000],"boundingbox_size":[11.534321,13.797958,5.200000]}
; object:{"name":"[c]_Display_Diffuser","id":"[c]_Display_Diffuser.STL id:22 copy 0","object_center":[127.717450,156.434871,0.000000],"boundingbox_center":[127.717450,156.434871,2.641541],"boundingbox_size":[12.446035,12.345192,5.283081]}
; object:{"name":"[c]_Display_Diffuser","id":"[c]_Display_Diffuser.STL id:23 copy 0","object_center":[138.117590,156.434871,0.000000],"boundingbox_center":[138.117590,156.434871,2.641541],"boundingbox_size":[12.446035,12.345192,5.283081]}
; object:{"name":"[c]_stealthburner_LED_diffuser","id":"[c]_stealthburner_LED_diffuser.stl id:24 copy 0","object_center":[140.636040,139.009727,0.000000],"boundingbox_center":[140.636040,139.009727,2.600000],"boundingbox_size":[11.534321,13.797958,5.200000]}
; object:{"name":"[c]_stealthburner_LED_diffuser","id":"[c]_stealthburner_LED_diffuser.stl id:25 copy 0","object_center":[128.601720,139.009727,0.000000],"boundingbox_center":[128.601720,139.009727,2.600000],"boundingbox_size":[11.534321,13.797958,5.200000]}
; object:{"name":"[c]_Display_Diffuser","id":"[c]_Display_Diffuser.STL id:26 copy 0","object_center":[96.580633,146.678561,0.000000],"boundingbox_center":[96.580633,146.678561,2.641541],"boundingbox_size":[12.446035,12.345192,5.283081]}
; object:{"name":"[c]_Display_Diffuser","id":"[c]_Display_Diffuser.STL id:27 copy 0","object_center":[105.951984,122.156371,0.000000],"boundingbox_center":[105.951984,122.156371,2.641541],"boundingbox_size":[12.345192,12.446035,5.283081]}
; plater:{"center":[124.365315,125.912170,0.000000],"boundingbox_center":[124.365315,125.912170,2.641541],"boundingbox_size":[68.144411,73.390593,5.283081]}

;TYPE:Custom
; custom gcode: start_gcode
M106 P4 S255
M140 S105 ; set bed final temp
M104 S235 ; set extruder final temp
M190 S105 ; wait for bed final temp
M109 S235 ; wait for extruder final temp
;G29
G28
;M98 P"/macros/nozzle/brush.g"
;PRINT_START

G92 E0 ;Reset Extruder
;;G1 Z2.0 F3000 ;Move Z Axis up


G1 X100 Y4.6 Z0.3 F18000.0 ; Move to side a little

G1 X5 Y4.6 Z0.3 F1500.0 E10 ; Draw the second line

G1 X5 Y4.2 Z0.3 F1500.0 E10 ; Draw the third line

G1 X100 Y4.2 Z0.3 F1500.0 E10 ; Draw the third line


;G92 E0;		Reset extruder
;G1 X1 Y10 F6000;
;G1 Z1.7;
;G1 X1 Y60 E140 F50;
;G1 E-<DESTRING> F1500;
;G1 Z4
;G1 X<NEXTX> Y<NEXTY> F12000;
;G92 E0 ;Reset Extruder

;G1 Z2.0 F3000 ;Move Z Axis up
; custom gcode end: start_gcode
M107
G21 ; set units to millimeters
G90 ; use absolute coordinates
M83 ; use relative distances for extrusion
; custom gcode: start_filament_gcode
; Filament gcode
M572 D0 S0.05
; custom gcode end: start_filament_gcode
;LAYER_CHANGE
;Z:0.2
;HEIGHT:0.2
; custom gcode: before_layer_gcode
;BEFORE_LAYER_CHANGE
;0.2

; custom gcode end: before_layer_gcode

G1 Z0.200000 F18000.000
; custom gcode: layer_gcode
;AFTER_LAYER_CHANGE
;0.2
; custom gcode end: layer_gcode

G1 E-0.80000 F3000.00000
G1 Z1.000000 F18000.000
G1 X88.902 Y89.994
G1 Z0.200000
G1 E0.80000 F2100.00000
; custom gcode: feature_gcode
;Skirt
M204 P2000 T5000
; custom gcode end: feature_gcode

;TYPE:Skirt
G1 F2400.000
G1 X89.784 Y89.178 E0.03633
G1 X90.763 Y88.460 E0.03668
G1 X91.641 Y87.971 E0.03038
G1 X92.562 Y87.648 E0.02950
G1 X113.927 Y83.631 E0.65711
G1 X157.000 Y83.606 E1.30196
G1 X158.018 Y83.701 E0.03091
G1 X158.997 Y83.976 E0.03074
G1 X159.910 Y84.424 E0.03074
G1 X160.727 Y85.029 E0.03074
G1 X162.507 Y86.798 E0.07585
G1 X163.079 Y87.508 E0.02756
G1 X163.664 Y88.619 E0.03795
G1 X163.987 Y89.832 E0.03795
G1 X164.048 Y90.660 E0.02510
G1 X164.048 Y129.549 E1.17548
G1 X163.993 Y130.325 E0.02351
G1 X163.774 Y131.276 E0.02950
G1 X163.393 Y132.174 E0.02950
G1 X147.457 Y161.500 E1.00884
G1 X146.684 Y162.738 E0.04414
G1 X145.731 Y163.874 E0.04481
G1 X144.580 Y164.906 E0.04672
G1 X143.370 Y165.711 E0.04393
G1 X142.286 Y166.161 E0.03549
G1 X141.132 Y166.376 E0.03549
G1 X117.225 Y166.412 E0.72263
G1 X115.598 Y166.269 E0.04936
G1 X114.409 Y166.000 E0.03686
G1 X113.124 Y165.539 E0.04127
G1 X91.667 Y156.145 E0.70801
G1 X90.424 Y155.409 E0.04367
G1 X89.223 Y154.418 E0.04706
G1 X88.452 Y153.597 E0.03404
G1 X87.798 Y152.738 E0.03264
G1 X86.818 Y150.961 E0.06132
G1 X86.427 Y149.905 E0.03405
G1 X86.158 Y148.854 E0.03278
G1 X85.948 Y146.825 E0.06167
G1 X85.941 Y96.843 E1.51082
G1 X86.202 Y94.966 E0.05727
G1 X86.799 Y93.150 E0.05778
G1 X87.714 Y91.469 E0.05784
G1 X88.865 Y90.041 E0.05544
G1 X89.181 Y90.297 F18000.000
G1 F2400.000
G1 X90.046 Y89.490 E0.03576
G1 X90.983 Y88.803 E0.03511
G1 X91.808 Y88.342 E0.02856
G1 X92.674 Y88.040 E0.02773
G1 X113.972 Y84.035 E0.65506
G1 X157.000 Y84.013 E1.30058
G1 X157.947 Y84.101 E0.02875
G1 X158.862 Y84.360 E0.02875
G1 X159.715 Y84.781 E0.02875
G1 X160.472 Y85.347 E0.02858
G1 X162.211 Y87.078 E0.07417
G1 X162.741 Y87.735 E0.02552
G1 X163.292 Y88.786 E0.03587
G1 X163.589 Y89.929 E0.03570
G1 X163.641 Y90.654 E0.02196
G1 X163.641 Y129.543 E1.17551
G1 X163.587 Y130.290 E0.02264
G1 X163.383 Y131.161 E0.02705
G1 X163.033 Y131.985 E0.02705
G1 X147.096 Y161.312 E1.00891
G1 X146.352 Y162.502 E0.04242
G1 X145.428 Y163.602 E0.04343
G1 X144.333 Y164.582 E0.04442
G1 X143.179 Y165.351 E0.04191
G1 X142.166 Y165.772 E0.03316
G1 X141.082 Y165.971 E0.03333
G1 X117.226 Y166.005 E0.72109
G1 X115.656 Y165.866 E0.04764
G1 X114.518 Y165.608 E0.03528
G1 X113.282 Y165.164 E0.03967
G1 X91.832 Y155.773 E0.70780
G1 X90.652 Y155.071 E0.04150
G1 X89.494 Y154.114 E0.04543
G1 X88.757 Y153.328 E0.03257
G1 X88.129 Y152.500 E0.03138
G1 X87.188 Y150.791 E0.05897
G1 X86.813 Y149.775 E0.03274
G1 X86.555 Y148.765 E0.03152
G1 X86.355 Y146.818 E0.05914
G1 X86.347 Y96.876 E1.50962
G1 X86.598 Y95.060 E0.05541
G1 X87.175 Y93.308 E0.05573
G1 X88.058 Y91.688 E0.05579
G1 X89.143 Y90.343 E0.05224
; printing object [c]_stealthburner_LED_diffuser.stl id:0 copy 0
G1 E-0.08000 F3000.00000
G1 F14400.000
G1 X90.046 Y89.490 E-0.24594
G1 X90.983 Y88.803 E-0.22989
G1 X91.808 Y88.342 E-0.18701
G1 X91.909 Y88.307 E-0.02117
G1 E-0.03600 F3000.00000
G1 Z0.600000 F18000.000
G1 X123.600 Y106.706
G1 Z0.200000
G1 E0.80000 F2100.00000
; custom gcode: feature_gcode
;Perimeter                        ;  Perimeter
M204 P1000 T5000
; custom gcode end: feature_gcode

;TYPE:Perimeter
G1 F2400.000
G1 X123.612 Y106.080 E0.01894
G1 X126.696 Y104.299 E0.10766
G1 X127.134 Y104.299 E0.01322
G1 X127.211 Y104.586 E0.00897
G1 X124.316 Y106.259 E0.10106
G1 X123.651 Y106.675 E0.02372
G1 E-0.08000 F3000.00000
G1 F14400.000
G1 X123.612 Y106.080 E-0.11797
G1 X126.088 Y104.650 E-0.56603
G1 E-0.03600 F3000.00000
G1 X131.275 Y104.993 F18000.000
G1 E0.80000 F2100.00000
G1 F1800.000
G1 X131.352 Y104.706 E0.00897
G1 X132.432 Y104.706 E0.03264
G1 X133.178 Y105.453 E0.03191
G1 X133.180 Y106.093 E0.01937
G1 X131.327 Y105.023 E0.06467
G1 E-0.08000 F3000.00000
G1 F14400.000
G1 X131.352 Y104.706 E-0.06285
G1 X132.432 Y104.706 E-0.21369
G1 X133.178 Y105.453 E-0.20893
G1 X133.180 Y106.093 E-0.12684
G1 X132.866 Y105.912 E-0.07169
G1 E-0.03600 F3000.00000
G1 X129.758 Y104.586 F18000.000
G1 E0.80000 F2100.00000
G1 F2400.000
G1 X129.835 Y104.299 E0.00897
G1 X132.601 Y104.299 E0.08360
G1 X133.585 Y105.284 E0.04209
G1 X133.587 Y106.471 E0.03589
G1 X133.606 Y106.850 E0.01147
G1 X133.006 Y106.463 E0.02157
G1 X129.810 Y104.616 E0.11159
G1 E-0.08000 F3000.00000
G1 F14400.000
G1 X129.835 Y104.299 E-0.06285
G1 X132.601 Y104.299 E-0.54741
G1 X132.864 Y104.563 E-0.07374
G1 E-0.03600 F3000.00000
G1 X133.598 Y113.983 F18000.000
G1 E0.80000 F2100.00000
G1 F2400.000
G1 X133.589 Y114.790 E0.02440
G1 X130.577 Y116.529 E0.10511
G1 X129.835 Y116.529 E0.02245
G1 X129.758 Y116.242 E0.00897
G1 X133.006 Y114.364 E0.11341
G1 X133.547 Y114.015 E0.01946
G1 E-0.08000 F3000.00000
G1 F14400.000
G1 X133.589 Y114.790 E-0.15352
G1 X131.268 Y116.130 E-0.53048
G1 E-0.03600 F3000.00000
G1 X125.693 Y115.835 F18000.000
G1 E0.80000 F2100.00000
G1 F1800.000
G1 X125.616 Y116.121 E0.00897
G1 X124.025 Y116.121 E0.04809
G1 X124.024 Y114.870 E0.03782
G1 X125.641 Y115.805 E0.05645
G1 E-0.08000 F3000.00000
G1 F14400.000
G1 X125.616 Y116.121 E-0.06285
G1 X124.025 Y116.121 E-0.31488
G1 X124.024 Y114.870 E-0.24761
G1 X124.281 Y115.019 E-0.05866
G1 E-0.03600 F3000.00000
G1 X127.211 Y116.242 F18000.000
G1 E0.80000 F2100.00000
G1 F2400.000
G1 X127.134 Y116.529 E0.00897
G1 X123.619 Y116.529 E0.10627
G1 X123.617 Y114.132 E0.07245
G1 X124.316 Y114.569 E0.02493
G1 X127.159 Y116.212 E0.09926
G1 E-0.08000 F3000.00000
G1 F14400.000
G1 X127.134 Y116.529 E-0.06285
G1 X123.996 Y116.529 E-0.62115
G1 E-0.03600 F3000.00000
G1 X128.485 Y116.505 F18000.000
G1 E0.80000 F2100.00000
; custom gcode: feature_gcode
;ExternalPerimeter                   ;  ExternalPerimeter
M204 P750 T5000
; custom gcode end: feature_gcode

;TYPE:External perimeter
G1 F1800.000
G1 X132.793 Y114.015 E0.15041
G1 X133.710 Y113.423 E0.03300
G1 X133.710 Y107.404 E0.18194
G1 X132.793 Y106.813 E0.03300
G1 X128.485 Y104.322 E0.15041
G1 X124.527 Y106.610 E0.13817
G1 X123.580 Y107.201 E0.03375
G1 X123.580 Y113.626 E0.19421
G1 X124.527 Y114.218 E0.03375
G1 X128.433 Y116.475 E0.13636
G1 X128.742 Y116.812 F18000.000
G1 E-0.08000 F3000.00000
G1 F14400.000
G1 X131.442 Y114.777 E-0.68400
G1 E-0.03600 F3000.00000
G1 X133.995 Y115.028 F18000.000
G1 E0.80000 F2100.00000
G1 F1800.000
G1 X130.687 Y116.938 E0.11548
G1 X123.433 Y116.938 E0.21925
G1 X123.209 Y116.714 E0.00957
G1 X123.208 Y114.400 E0.06993
G1 X123.173 Y113.431 E0.02932
G1 X123.173 Y107.622 E0.17561
G1 X123.207 Y105.841 E0.05383
G1 X126.587 Y103.890 E0.11796
G1 X132.770 Y103.890 E0.18691
G1 X133.994 Y105.114 E0.05232
G1 X133.997 Y106.461 E0.04071
G1 X134.044 Y107.431 E0.02936
G1 X134.044 Y113.242 E0.17566
G1 X134.004 Y114.211 E0.02932
G1 X133.996 Y114.968 E0.02287
G1 X133.602 Y114.957 F18000.000
G1 X133.403 Y114.491
; custom gcode: feature_gcode
;GapFill
M204 P2000 T5000
; custom gcode end: feature_gcode

;TYPE:Gap fill
G1 F2400.000
G1 X133.331 Y114.544 E0.00155
G1 X130.429 Y116.220 E0.07108
G1 X130.369 Y116.240 E0.00111
G1 X130.309 Y116.260 E0.00091
G1 X130.249 Y116.280 E0.00071
G1 X130.095 Y116.332 E0.00131
G1 X129.614 Y116.434 F18000.000
G1 F2400.000
G1 X129.566 Y116.447 E0.00241
