G10 P0 R240 S240 ; sets the standby temperature
; generated by SuperSlicer 2.3.55 on 2023-09-29 at 07:21:01 UTC

; TODO: check the size of the extruder and the y-bar clearance. Optimize & test supports.

; external perimeters extrusion width = 0.39mm
; perimeters extrusion width = 0.40mm
; infill extrusion width = 0.60mm
; solid infill extrusion width = 0.60mm
; top infill extrusion width = 0.32mm
; first layer extrusion width = 0.45mm

; object:{"name":"[o]_stealthburner_LED_diffuser_mask","id":"[o]_stealthburner_LED_diffuser_mask.stl id:0 copy 0","object_center":[99.451547,80.783832,0.000000],"boundingbox_center":[99.451547,80.783832,2.400000],"boundingbox_size":[15.697964,13.434319,4.800000]}
; object:{"name":"[o]_stealthburner_LED_carrier","id":"[o]_stealthburner_LED_carrier.stl id:1 copy 0","object_center":[117.451050,80.295993,0.000000],"boundingbox_center":[117.451050,80.295993,3.506323],"boundingbox_size":[19.299999,14.409997,7.012646]}
; object:{"name":"TH_Top_Clip_x4","id":"TH_Top_Clip_x4.stl id:2 copy 0","object_center":[140.446203,138.593174,0.000000],"boundingbox_center":[140.446203,138.593174,2.200043],"boundingbox_size":[34.948975,34.939781,4.400085]}
; object:{"name":"TH_Side_Clip_Mirror_x4","id":"TH_Side_Clip_Mirror_x4.stl id:3 copy 0","object_center":[142.608267,104.324451,0.000000],"boundingbox_center":[142.608267,104.324451,2.199997],"boundingbox_size":[30.046155,32.702532,4.399994]}
; object:{"name":"TH_Side_Clip_x4","id":"TH_Side_Clip_x4.stl id:4 copy 0","object_center":[106.172754,140.050659,0.000000],"boundingbox_center":[106.172754,140.050659,2.200012],"boundingbox_size":[32.646446,30.000000,4.400024]}
; object:{"name":"TH_Top_Clip_x4","id":"TH_Top_Clip_x4.stl id:5 copy 0","object_center":[140.446212,174.002628,0.000000],"boundingbox_center":[140.446212,174.002628,2.200043],"boundingbox_size":[34.948975,34.939781,4.400085]}
; object:{"name":"TH_Side_Clip_Mirror_x4","id":"TH_Side_Clip_Mirror_x4.stl id:6 copy 0","object_center":[173.108289,104.324451,0.000000],"boundingbox_center":[173.108289,104.324451,2.199997],"boundingbox_size":[30.046155,32.702532,4.399994]}
; object:{"name":"TH_Side_Clip_x4","id":"TH_Side_Clip_x4.stl id:7 copy 0","object_center":[106.172754,170.550651,0.000000],"boundingbox_center":[106.172754,170.550651,2.200012],"boundingbox_size":[32.646446,30.000000,4.400024]}
; object:{"name":"TH_Top_Clip_x4","id":"TH_Top_Clip_x4.stl id:8 copy 0","object_center":[175.846654,138.602627,0.000000],"boundingbox_center":[175.846654,138.602627,2.200043],"boundingbox_size":[34.948975,34.939781,4.400085]}
; object:{"name":"TH_Side_Clip_Mirror_x4","id":"TH_Side_Clip_Mirror_x4.stl id:9 copy 0","object_center":[112.093832,104.324439,0.000000],"boundingbox_center":[112.093832,104.324439,2.199997],"boundingbox_size":[30.046155,32.702532,4.399994]}
; object:{"name":"TH_Side_Clip_x4","id":"TH_Side_Clip_x4.stl id:10 copy 0","object_center":[73.026308,140.050660,0.000000],"boundingbox_center":[73.026308,140.050660,2.200012],"boundingbox_size":[32.646446,30.000000,4.400024]}
; object:{"name":"TH_Top_Clip_x4","id":"TH_Top_Clip_x4.stl id:11 copy 0","object_center":[175.846670,173.993177,0.000000],"boundingbox_center":[175.846670,173.993177,2.200043],"boundingbox_size":[34.948975,34.939781,4.400085]}
; object:{"name":"TH_Side_Clip_Mirror_x4","id":"TH_Side_Clip_Mirror_x4.stl id:12 copy 0","object_center":[142.593853,74.875543,0.000000],"boundingbox_center":[142.593853,74.875543,2.199997],"boundingbox_size":[30.046155,32.702532,4.399994]}
; object:{"name":"TH_Side_Clip_x4","id":"TH_Side_Clip_x4.stl id:13 copy 0","object_center":[73.026308,109.550668,0.000000],"boundingbox_center":[73.026308,109.550668,2.200012],"boundingbox_size":[32.646446,30.000000,4.400024]}
; plater:{"center":[125.012121,124.998398,0.000000],"boundingbox_center":[125.012121,124.998398,3.506323],"boundingbox_size":[136.618073,132.948242,7.012646]}

;TYPE:Custom
; custom gcode: start_gcode
M106 P4 S255
M140 S95 ; set bed final temp
M104 S240 ; set extruder final temp
M190 S95 ; wait for bed final temp
M109 S240 ; wait for extruder final temp
;G29
G28
;M98 P"/macros/nozzle/brush.g"
;PRINT_START

G92 E0 ;Reset Extruder
;;G1 Z2.0 F3000 ;Move Z Axis up


G1 X100 Y4.6 Z0.3 F18000.0 ; Move to side a little

G1 X5 Y4.6 Z0.3 F1500.0 E10 ; Draw the second line

G1 X5 Y4.2 Z0.3 F1500.0 E10 ; Draw the third line

G1 X100 Y4.2 Z0.3 F1500.0 E10 ; Draw the third line


;G92 E0;		Reset extruder
;G1 X1 Y10 F6000;
;G1 Z1.7;
;G1 X1 Y60 E140 F50;
;G1 E-<DESTRING> F1500;
;G1 Z4
;G1 X<NEXTX> Y<NEXTY> F12000;
;G92 E0 ;Reset Extruder

;G1 Z2.0 F3000 ;Move Z Axis up
; custom gcode end: start_gcode
M107
G21 ; set units to millimeters
G90 ; use absolute coordinates
M83 ; use relative distances for extrusion
; custom gcode: start_filament_gcode
; Filament gcode
M572 D0 S0.07
; custom gcode end: start_filament_gcode
;LAYER_CHANGE
;Z:0.2
;HEIGHT:0.2
; custom gcode: before_layer_gcode
;BEFORE_LAYER_CHANGE
;0.2

; custom gcode end: before_layer_gcode

G1 Z0.200000 F18000.000
; custom gcode: layer_gcode
;AFTER_LAYER_CHANGE
;0.2
; custom gcode end: layer_gcode

G1 E-0.80000 F3000.00000
G1 Z1.000000 F18000.000
G1 X77.652 Y83.947
G1 Z0.200000
G1 E0.80000 F2100.00000
; custom gcode: feature_gcode
;Skirt
M204 P2000 T5000
; custom gcode end: feature_gcode

;TYPE:Skirt
G1 F2400.000
G1 X91.462 Y71.172 E0.59220
G1 X92.415 Y70.528 E0.03623
G1 X126.088 Y56.402 E1.14949
G1 X126.754 Y56.191 E0.02200
G1 X127.589 Y56.098 E0.02645
G1 X157.606 Y56.098 E0.94491
G1 X158.374 Y56.175 E0.02430
G1 X159.108 Y56.399 E0.02415
G1 X159.784 Y56.761 E0.02415
G1 X160.380 Y57.252 E0.02430
G1 X190.949 Y88.917 E1.38549
G1 X191.481 Y89.623 E0.02783
G1 X191.840 Y90.425 E0.02767
G1 X192.014 Y91.307 E0.02829
G1 X194.410 Y122.447 E0.98316
G1 X197.216 Y160.739 E1.20865
G1 X197.219 Y175.766 E0.47304
G1 X197.012 Y177.177 E0.04489
G1 X196.555 Y178.350 E0.03962
G1 X196.138 Y179.034 E0.02523
G1 X195.522 Y179.773 E0.03026
G1 X181.538 Y193.752 E0.62246
G1 X180.754 Y194.378 E0.03159
G1 X179.867 Y194.864 E0.03181
G1 X179.054 Y195.156 E0.02721
G1 X178.056 Y195.343 E0.03196
G1 X162.518 Y195.363 E0.48913
G1 X124.255 Y192.558 E1.20771
G1 X90.927 Y189.456 E1.05368
G1 X90.208 Y189.315 E0.02308
G1 X89.532 Y189.044 E0.02292
G1 X88.578 Y188.358 E0.03699
G1 X57.557 Y157.838 E1.36990
G1 X57.035 Y157.198 E0.02599
G1 X56.659 Y156.464 E0.02599
G1 X56.464 Y155.782 E0.02231
G1 X56.396 Y155.072 E0.02246
G1 X56.395 Y106.140 E1.54033
G1 X56.505 Y105.229 E0.02890
G1 X56.826 Y104.364 E0.02905
G1 X57.515 Y103.406 E0.03714
G1 X68.629 Y92.293 E0.49475
G1 X77.608 Y83.987 E0.38503
G1 X77.884 Y84.286 F18000.000
G1 F2400.000
G1 X91.737 Y71.472 E0.59406
G1 X92.595 Y70.893 E0.03255
G1 X126.245 Y56.777 E1.14872
G1 X126.840 Y56.588 E0.01967
G1 X127.590 Y56.505 E0.02373
G1 X157.606 Y56.505 E0.94489
G1 X158.296 Y56.574 E0.02184
G1 X158.955 Y56.776 E0.02170
G1 X159.562 Y57.103 E0.02170
G1 X160.094 Y57.541 E0.02170
G1 X190.651 Y89.195 E1.38499
G1 X191.130 Y89.830 E0.02503
G1 X191.455 Y90.556 E0.02503
G1 X191.607 Y91.336 E0.02503
G1 X194.004 Y122.478 E0.98322
G1 X196.810 Y160.760 E1.20833
G1 X196.812 Y175.745 E0.47170
G1 X196.617 Y177.077 E0.04240
G1 X196.190 Y178.170 E0.03694
G1 X195.803 Y178.802 E0.02331
G1 X195.229 Y179.490 E0.02823
G1 X181.266 Y193.449 E0.62150
G1 X180.531 Y194.037 E0.02964
G1 X179.696 Y194.495 E0.02999
G1 X178.942 Y194.764 E0.02519
G1 X178.011 Y194.939 E0.02984
G1 X162.546 Y194.957 E0.48680
G1 X124.293 Y192.152 E1.20744
G1 X90.967 Y189.051 E1.05362
G1 X90.322 Y188.924 E0.02068
G1 X89.712 Y188.679 E0.02068
G1 X88.862 Y188.067 E0.03299
G1 X57.847 Y157.552 E1.36967
G1 X57.378 Y156.979 E0.02329
G1 X57.040 Y156.321 E0.02329
G1 X56.863 Y155.702 E0.02025
G1 X56.803 Y155.067 E0.02010
G1 X56.803 Y106.141 E1.54015
G1 X56.902 Y105.319 E0.02605
G1 X57.191 Y104.544 E0.02605
G1 X57.809 Y103.687 E0.03328
G1 X68.910 Y92.588 E0.49414
G1 X77.840 Y84.327 E0.38295
G1 X78.116 Y84.626 F18000.000
G1 F2400.000
G1 X92.010 Y71.774 E0.59577
G1 X92.773 Y71.259 E0.02897
G1 X126.929 Y56.986 E1.16533
G1 X127.595 Y56.912 E0.02108
G1 X157.605 Y56.912 E0.94472
G1 X158.216 Y56.974 E0.01931
G1 X158.802 Y57.153 E0.01931
G1 X159.342 Y57.445 E0.01931
G1 X159.811 Y57.833 E0.01917
G1 X190.354 Y89.473 E1.38437
G1 X190.779 Y90.035 E0.02217
G1 X191.068 Y90.683 E0.02231
G1 X191.202 Y91.374 E0.02217
G1 X193.599 Y122.514 E0.98315
G1 X196.403 Y160.777 E1.20774
G1 X196.406 Y175.724 E0.47052
G1 X196.224 Y176.973 E0.03972
G1 X195.827 Y177.986 E0.03426
G1 X195.474 Y178.562 E0.02127
G1 X194.935 Y179.208 E0.02648
G1 X180.997 Y193.143 E0.62043
G1 X180.308 Y193.697 E0.02784
G1 X179.532 Y194.122 E0.02786
G1 X178.839 Y194.370 E0.02317
G1 X177.965 Y194.534 E0.02799
G1 X162.579 Y194.551 E0.48436
G1 X124.329 Y191.747 E1.20730
G1 X91.010 Y188.646 E1.05340
G1 X90.438 Y188.534 E0.01835
G1 X89.897 Y188.317 E0.01835
G1 X89.147 Y187.776 E0.02911
G1 X58.132 Y157.262 E1.36963
G1 X57.717 Y156.753 E0.02067
G1 X57.419 Y156.173 E0.02054
G1 X57.264 Y155.629 E0.01781
G1 X57.210 Y155.062 E0.01794
G1 X57.210 Y106.141 E1.53997
G1 X57.298 Y105.412 E0.02313
G1 X57.556 Y104.724 E0.02313
G1 X58.100 Y103.971 E0.02924
G1 X69.191 Y92.882 E0.49370
G1 X78.072 Y84.667 E0.38086
G1 X78.349 Y84.965 F18000.000
G1 F2400.000
G1 X92.285 Y72.074 E0.59763
G1 X92.946 Y71.628 E0.02510
G1 X127.016 Y57.383 E1.16244
G1 X127.596 Y57.319 E0.01838
G1 X157.605 Y57.319 E0.94467
G1 X158.138 Y57.373 E0.01685
G1 X158.646 Y57.529 E0.01672
G1 X159.113 Y57.782 E0.01672
G1 X159.525 Y58.123 E0.01685
G1 X190.057 Y89.752 E1.38388
G1 X190.429 Y90.244 E0.01939
G1 X190.680 Y90.806 E0.01939
G1 X190.796 Y91.403 E0.01914
G1 X193.193 Y122.545 E0.98321
G1 X195.996 Y160.799 E1.20746
G1 X195.999 Y175.705 E0.46923
G1 X195.830 Y176.869 E0.03702
G1 X195.462 Y177.805 E0.03169
G1 X194.642 Y178.926 E0.04370
G1 X180.724 Y192.841 E0.61955
G1 X180.084 Y193.357 E0.02588
G1 X179.364 Y193.752 E0.02585
G1 X178.735 Y193.977 E0.02103
G1 X177.924 Y194.129 E0.02597
G1 X162.606 Y194.145 E0.48222
G1 X124.366 Y191.342 E1.20700
G1 X91.054 Y188.241 E1.05318
G1 X90.078 Y187.952 E0.03203
G1 X89.429 Y187.482 E0.02523
G1 X58.418 Y156.972 E1.36944
G1 X58.059 Y156.533 E0.01787
G1 X57.799 Y156.028 E0.01787
G1 X57.617 Y155.059 E0.03103
G1 X57.617 Y106.142 E1.53988
G1 X57.694 Y105.506 E0.02016
G1 X57.919 Y104.907 E0.02016
G1 X58.395 Y104.252 E0.02548
G1 X69.472 Y93.177 E0.49309
G1 X78.305 Y85.006 E0.37877
; printing object [o]_stealthburner_LED_diffuser_mask.stl id:0 copy 0
G1 E-0.08000 F3000.00000
G1 F14400.000
G1 X80.842 Y82.659 E-0.68400
G1 E-0.03600 F3000.00000
G1 Z0.600000 F18000.000
G1 X103.281 Y86.444
G1 Z0.200000
G1 E0.80000 F2100.00000
; custom gcode: feature_gcode
;Perimeter                        ;  Perimeter
M204 P1000 T5000
; custom gcode end: feature_gcode

;TYPE:Perimeter
G1 F2400.000
G1 X105.957 Y81.823 E0.16809
G1 X106.243 Y81.899 E0.00934
G1 X106.243 Y82.941 E0.03278
G1 X104.221 Y86.444 E0.12733
G1 X103.341 Y86.444 E0.02769
G1 E-0.08000 F3000.00000
G1 F14400.000
G1 X105.044 Y83.436 E-0.68400
G1 E-0.03600 F3000.00000
G1 X104.116 Y78.639 F18000.000
G1 E0.80000 F2100.00000
G1 F1800.000
G1 X105.140 Y76.857 E0.06471
G1 X105.429 Y76.933 E0.00940
G1 X105.429 Y78.644 E0.05387
G1 X104.176 Y78.639 E0.03946
G1 X103.408 Y79.050 F18000.000
G1 F2400.000
G1 X104.837 Y76.567 E0.09020
G1 X105.110 Y76.019 E0.01926
G1 X105.262 Y75.526 E0.01623
G1 X105.691 Y75.529 E0.01353
G1 X105.836 Y75.673 E0.00644
G1 X105.836 Y79.053 E0.10638
G1 X103.468 Y79.050 E0.07455
G1 X102.700 Y79.460 F18000.000
G1 F2400.000
G1 X104.224 Y76.825 E0.09582
G1 X104.477 Y76.376 E0.01623
G1 X104.730 Y75.867 E0.01789
G1 X104.814 Y75.595 E0.00896
G1 X104.778 Y75.097 E0.01572
G1 X105.861 Y75.123 E0.03410
G1 X106.243 Y75.505 E0.01701
G1 X106.243 Y79.674 E0.13125
G1 X105.783 Y79.460 E0.01599
G1 X102.760 Y79.460 E0.09514
G1 E-0.08000 F3000.00000
G1 F14400.000
G1 X104.224 Y76.825 E-0.59654
G1 X104.441 Y76.440 E-0.08746
G1 E-0.03600 F3000.00000
G1 X95.531 Y75.112 F18000.000
G1 E0.80000 F2100.00000
G1 F2400.000
G1 X95.300 Y75.450 E0.01288
G1 X92.946 Y79.512 E0.14778
G1 X92.660 Y79.435 E0.00933
G1 X92.660 Y78.697 E0.02323
G1 X94.725 Y75.120 E0.13001
G1 X95.471 Y75.113 E0.02347
G1 E-0.08000 F3000.00000
G1 F14400.000
G1 X95.300 Y75.450 E-0.07480
G1 X93.757 Y78.113 E-0.60920
G1 E-0.03600 F3000.00000
G1 X94.790 Y82.693 F18000.000
G1 E0.80000 F2100.00000
G1 F1800.000
G1 X93.761 Y84.472 E0.06468
G1 X93.474 Y84.395 E0.00934
G1 X93.474 Y82.694 E0.05356
G1 X94.730 Y82.693 E0.03952
G1 X95.495 Y82.286 F18000.000
G1 F2400.000
G1 X93.650 Y85.477 E0.11604
G1 X93.067 Y84.894 E0.02593
G1 X93.067 Y82.287 E0.08209
G1 X95.435 Y82.286 E0.07456
G1 X96.201 Y81.879 F18000.000
G1 F2400.000
G1 X94.138 Y85.446 E0.12973
G1 X94.038 Y85.846 E0.01299
G1 X94.083 Y86.104 E0.00824
G1 X93.832 Y86.235 E0.00892
G1 X92.660 Y85.063 E0.05216
G1 X92.660 Y81.722 E0.10517
G1 X93.237 Y81.879 E0.01883
G1 X96.141 Y81.879 E0.09143
G1 E-0.08000 F3000.00000
G1 F14400.000
G1 X94.449 Y84.892 E-0.68400
G1 E-0.03600 F3000.00000
G1 X99.089 Y85.766 F18000.000
G1 E0.80000 F2100.00000
; custom gcode: feature_gcode
;ExternalPerimeter                   ;  ExternalPerimeter
M204 P750 T5000
; custom gcode end: feature_gcode

;TYPE:External perimeter
G1 X99.090 Y85.973 E0.00653
G1 X99.161 Y86.168 E0.00652
G1 X99.294 Y86.327 E0.00654
G1 X99.478 Y86.433 E0.00666
G1 X99.658 Y86.458 E0.00573
G1 X102.449 Y86.455 E0.08787
G1 X102.738 Y86.363 E0.00953
G1 X102.968 Y86.162 E0.00963
G1 X106.106 Y80.741 E0.19715
G1 X106.168 Y80.568 E0.00579
G1 X106.168 Y80.360 E0.00657
G1 X106.097 Y80.163 E0.00658
G1 X105.956 Y79.995 E0.00691
G1 X105.691 Y79.872 E0.00921
G1 X102.800 Y79.872 E0.09099
G1 X102.513 Y79.970 E0.00956
G1 X102.285 Y80.171 E0.00955
G1 X99.151 Y85.594 E0.19716
G1 X99.109 Y85.709 E0.00388
G1 X98.899 Y85.849 F18000.000
G1 E-0.08000 F3000.00000
G1 F14400.000
G1 X99.090 Y85.973 E-0.05237
G1 X99.161 Y86.168 E-0.04100
G1 X99.294 Y86.327 E-0.04111
G1 X99.478 Y86.433 E-0.04189
G1 X99.658 Y86.458 E-0.03605
G1 X102.041 Y86.456 E-0.47158
G1 E-0.03600 F3000.00000
G1 X98.119 Y86.363 F18000.000
G1 E0.80000 F2100.00000
G1 X98.349 Y86.161 E0.00962
G1 X104.112 Y76.183 E0.36275
G1 X104.346 Y75.713 E0.01651
G1 X104.397 Y75.548 E0.00546
G1 X104.383 Y75.344 E0.00641
G1 X104.281 Y75.154 E0.00679
G1 X104.116 Y75.045 E0.00625
G1 X103.918 Y74.990 E0.00644
G1 X101.163 Y74.986 E0.08674
G1 X100.878 Y75.034 E0.00908
G1 X100.695 Y75.115 E0.00631
G1 X100.553 Y75.252 E0.00622
G1 X100.257 Y75.693 E0.01671
G1 X94.524 Y85.602 E0.36039
G1 X94.459 Y85.861 E0.00840
G1 X94.497 Y86.074 E0.00681
G1 X94.601 Y86.254 E0.00655
G1 X94.770 Y86.396 E0.00697
G1 X95.028 Y86.458 E0.00835
G1 X97.831 Y86.455 E0.08821
G1 X98.062 Y86.381 E0.00765
G1 X98.392 Y86.500 F18000.000
G1 E-0.08000 F3000.00000
G1 F14400.000
G1 X98.349 Y86.161 E-0.07156
G1 X99.897 Y83.482 E-0.61244
G1 E-0.03600 F3000.00000
G1 X96.296 Y81.409 F18000.000
G1 E0.80000 F2100.00000
G1 X96.550 Y81.239 E0.00962
G1 X96.668 Y81.081 E0.00619
G1 X99.503 Y76.159 E0.17880
G1 X99.725 Y75.713 E0.01568
G1 X99.778 Y75.549 E0.00544
G1 X99.763 Y75.345 E0.00645
G1 X99.663 Y75.155 E0.00675
G1 X99.497 Y75.045 E0.00624
G1 X99.300 Y74.990 E0.00646
G1 X96.544 Y74.986 E0.08674
G1 X96.260 Y75.034 E0.00907
G1 X96.076 Y75.115 E0.00632
G1 X95.935 Y75.252 E0.00621
G1 X95.650 Y75.670 E0.01593
G1 X92.792 Y80.601 E0.17939
G1 X92.724 Y80.859 E0.00843
G1 X92.762 Y81.075 E0.00689
G1 X92.866 Y81.256 E0.00658
G1 X93.034 Y81.397 E0.00689
G1 X93.292 Y81.467 E0.00842
G1 X96.016 Y81.466 E0.08575
G1 X96.237 Y81.421 E0.00711
G1 X96.551 Y81.578 F18000.000
G1 E-0.08000 F3000.00000
G1 F14400.000
G1 X96.550 Y81.239 E-0.07163
G1 X96.668 Y81.081 E-0.03895
G1 X98.114 Y78.571 E-0.57342
G1 E-0.03600 F3000.00000
G1 X94.486 Y74.710 F18000.000
G1 E0.80000 F2100.00000
G1 X95.285 Y74.702 E0.02517
G1 X95.794 Y74.669 E0.01607
G1 X96.285 Y74.602 E0.01558
G1 X96.765 Y74.592 E0.01512
G1 X99.229 Y74.592 E0.07757
G1 X99.720 Y74.638 E0.01551
G1 X100.234 Y74.661 E0.01619
G1 X101.230 Y74.592 E0.03142
G1 X103.694 Y74.592 E0.07759
G1 X104.175 Y74.612 E0.01514
G1 X104.669 Y74.678 E0.01569
G1 X105.179 Y74.706 E0.01607
