G10 P0 R210 S210 ; sets the standby temperature
; generated by SuperSlicer 2.3.55 on 2023-12-11 at 20:33:20 UTC

; TODO: check the size of the extruder and the y-bar clearance. Optimize & test supports.

; external perimeters extrusion width = 0.60mm
; perimeters extrusion width = 0.60mm
; infill extrusion width = 0.80mm
; solid infill extrusion width = 0.50mm
; top infill extrusion width = 0.30mm
; first layer extrusion width = 0.60mm

; object:{"name":"Cable_organizer","id":"Cable_organizer.stl id:0 copy 0","object_center":[110.867605,82.964727,0.000000],"boundingbox_center":[110.867605,82.964727,36.634998],"boundingbox_size":[95.660004,92.313004,73.269997]}
; object:{"name":"Cable_organizer","id":"Cable_organizer.stl id:1 copy 0","object_center":[125.831310,169.058073,0.000000],"boundingbox_center":[125.831310,169.058073,36.634998],"boundingbox_size":[95.660004,92.313004,73.269997]}
; plater:{"center":[118.349458,126.011400,0.000000],"boundingbox_center":[118.349458,126.011400,36.634998],"boundingbox_size":[110.623709,178.406350,73.269997]}

;TYPE:Custom
; custom gcode: start_gcode
M106 P4 S255
M140 S60 ; set bed final temp
M104 S210 ; set extruder final temp
M190 S60 ; wait for bed final temp
M109 S210 ; wait for extruder final temp
;G29
G28
;M98 P"/macros/nozzle/brush.g"
;PRINT_START

G92 E0 ;Reset Extruder
;;G1 Z2.0 F3000 ;Move Z Axis up


G1 X100 Y4.6 Z0.3 F18000.0 ; Move to side a little

G1 X5 Y4.6 Z0.3 F1500.0 E10 ; Draw the second line

G1 X5 Y4.2 Z0.3 F1500.0 E10 ; Draw the third line

G1 X100 Y4.2 Z0.3 F1500.0 E10 ; Draw the third line


;G92 E0;		Reset extruder
;G1 X1 Y10 F6000;
;G1 Z1.7;
;G1 X1 Y60 E140 F50;
;G1 E-<DESTRING> F1500;
;G1 Z4
;G1 X<NEXTX> Y<NEXTY> F12000;
;G92 E0 ;Reset Extruder

;G1 Z2.0 F3000 ;Move Z Axis up
; custom gcode end: start_gcode
M107
G21 ; set units to millimeters
G90 ; use absolute coordinates
M83 ; use relative distances for extrusion
; custom gcode: start_filament_gcode
; Filament gcode
M572 D0 S0.025
; custom gcode end: start_filament_gcode
;LAYER_CHANGE
;Z:0.2
;HEIGHT:0.2
; custom gcode: before_layer_gcode
;BEFORE_LAYER_CHANGE
;0.2

; custom gcode end: before_layer_gcode

G1 Z0.200000 F21000.000
; custom gcode: layer_gcode
;AFTER_LAYER_CHANGE
;0.2
; custom gcode end: layer_gcode

G1 E-0.80000 F3000.00000
G1 Z1.000000 F21000.000
G1 X58.233 Y42.788
G1 Z0.200000
G1 E0.80000 F2100.00000
; custom gcode: feature_gcode
;Skirt
M204 P2000 T5000
; custom gcode end: feature_gcode

;TYPE:Skirt
G1 F2400.000
G1 X58.942 Y41.975 E0.04747
G1 X59.782 Y41.309 E0.04721
G1 X76.538 Y31.626 E0.85159
G1 X77.458 Y31.215 E0.04433
G1 X78.429 Y30.970 E0.04407
G1 X79.362 Y30.894 E0.04119
G1 X142.374 Y30.894 E2.77285
G1 X143.786 Y31.069 E0.06261
G1 X145.108 Y31.578 E0.06235
G1 X161.903 Y41.276 E0.85344
G1 X162.815 Y41.995 E0.05113
G1 X163.567 Y42.881 E0.05113
G1 X164.127 Y43.892 E0.05087
G1 X164.477 Y45.000 E0.05113
G1 X179.541 Y131.758 E3.87493
G1 X179.565 Y205.838 E3.25989
G1 X179.377 Y207.296 E0.06470
G1 X179.010 Y208.310 E0.04747
G1 X178.466 Y209.235 E0.04721
G1 X177.757 Y210.048 E0.04747
G1 X176.911 Y210.718 E0.04747
G1 X160.161 Y220.397 E0.85133
G1 X159.230 Y220.811 E0.04485
G1 X158.241 Y221.057 E0.04485
G1 X157.337 Y221.129 E0.03988
G1 X94.319 Y221.129 E2.77311
G1 X92.861 Y220.941 E0.06470
G1 X91.460 Y220.373 E0.06652
G1 X74.666 Y210.661 E0.85369
G1 X73.794 Y209.940 E0.04982
G1 X73.078 Y209.063 E0.04982
G1 X72.544 Y208.064 E0.04982
G1 X72.213 Y206.982 E0.04982
G1 X57.158 Y120.265 E3.87310
G1 X57.134 Y46.185 E3.25989
G1 X57.322 Y44.727 E0.06470
G1 X57.689 Y43.713 E0.04747
G1 X58.203 Y42.840 E0.04457
G1 X58.682 Y43.123 F21000.000
G1 F2400.000
G1 X59.337 Y42.367 E0.04403
G1 X60.108 Y41.761 E0.04315
G1 X76.802 Y32.116 E0.84843
G1 X77.646 Y31.740 E0.04066
G1 X78.543 Y31.516 E0.04066
G1 X79.362 Y31.451 E0.03618
G1 X142.373 Y31.451 E2.77281
G1 X143.654 Y31.610 E0.05681
G1 X144.858 Y32.076 E0.05681
G1 X161.594 Y41.740 E0.85044
G1 X162.423 Y42.391 E0.04638
G1 X163.106 Y43.194 E0.04638
G1 X163.617 Y44.116 E0.04638
G1 X163.935 Y45.127 E0.04663
G1 X178.986 Y131.808 E3.87152
G1 X179.008 Y205.837 E3.25766
G1 X178.836 Y207.162 E0.05879
G1 X178.503 Y208.078 E0.04290
G1 X178.004 Y208.922 E0.04315
G1 X177.362 Y209.656 E0.04290
G1 X176.591 Y210.262 E0.04315
G1 X159.896 Y219.906 E0.84842
G1 X159.042 Y220.287 E0.04116
G1 X158.134 Y220.510 E0.04116
G1 X157.337 Y220.572 E0.03518
G1 X94.320 Y220.572 E2.77306
G1 X92.995 Y220.400 E0.05879
G1 X91.731 Y219.887 E0.06003
G1 X75.000 Y210.214 E0.85043
G1 X74.203 Y209.560 E0.04539
G1 X73.545 Y208.759 E0.04564
G1 X73.058 Y207.849 E0.04539
G1 X72.758 Y206.863 E0.04539
G1 X57.713 Y120.214 E3.87003
G1 X57.691 Y46.186 E3.25766
G1 X57.863 Y44.861 E0.05879
G1 X58.196 Y43.944 E0.04290
G1 X58.651 Y43.174 E0.03936
; printing object Cable_organizer.stl id:0 copy 0
G1 E-0.08000 F3000.00000
G1 F16800.000
G1 X59.337 Y42.367 E-0.17975
G1 X60.108 Y41.761 E-0.16634
G1 X61.833 Y40.765 E-0.33791
G1 E-0.03600 F3000.00000
G1 Z0.600000 F21000.000
G1 X95.396 Y101.350
G1 Z0.200000
G1 E0.80000 F2100.00000
; custom gcode: feature_gcode
;ExternalPerimeter                   ;  ExternalPerimeter
M204 P750 T5000
; custom gcode end: feature_gcode

;TYPE:External perimeter
G1 F2400.000
G1 X95.396 Y119.193 E0.78518
G1 X96.800 Y120.040 E0.07212
G1 X110.868 Y128.162 E0.71484
G1 X124.936 Y120.040 E0.71484
G1 X126.339 Y119.193 E0.07212
G1 X126.339 Y101.336 E0.78581
G1 X124.903 Y100.467 E0.07389
G1 X111.478 Y92.728 E0.68189
G1 X110.876 Y92.411 E0.02993
G1 X95.448 Y101.320 E0.78401
G1 X95.002 Y101.420 F21000.000
G1 X94.839 Y101.336
G1 F2400.000
G1 X93.438 Y100.487 E0.07212
G1 X79.368 Y92.368 E0.71485
G1 X63.868 Y101.316 E0.78757
G1 X63.868 Y119.213 E0.78758
G1 X79.368 Y128.162 E0.78757
G1 X93.436 Y120.040 E0.71484
G1 X94.839 Y119.193 E0.07212
G1 X94.839 Y101.396 E0.78316
G1 X94.981 Y100.963 F21000.000
G1 X95.166 Y100.804
G1 F2400.000
G1 X95.196 Y100.821 E0.00149
G1 X110.679 Y91.879 E0.78681
G1 X110.679 Y74.050 E0.78455
G1 X95.199 Y65.111 E0.78665
G1 X94.597 Y65.428 E0.02993
G1 X79.707 Y74.016 E0.75640
G1 X79.707 Y91.914 E0.78762
G1 X93.724 Y100.009 E0.71230
G1 X95.113 Y100.775 E0.06980
G1 X95.166 Y100.838 F21000.000
G1 E-0.08000 F3000.00000
G1 F16800.000
G1 X95.196 Y100.821 E-0.01594
G1 X98.606 Y98.851 E-0.66806
G1 E-0.03600 F3000.00000
G1 X111.236 Y91.891 F21000.000
G1 E0.80000 F2100.00000
G1 F2400.000
G1 X112.239 Y92.511 E0.05188
G1 X113.108 Y93.014 E0.04416
G1 X125.224 Y100.009 E0.61568
G1 X126.696 Y100.821 E0.07394
G1 X142.180 Y91.883 E0.78676
G1 X142.207 Y90.202 E0.07397
G1 X142.206 Y75.226 E0.65902
G1 X142.179 Y74.046 E0.05194
G1 X126.699 Y65.111 E0.78654
G1 X126.097 Y65.428 E0.02993
G1 X112.673 Y73.167 E0.68189
G1 X111.236 Y74.036 E0.07389
G1 X111.236 Y91.831 E0.78308
G1 X111.092 Y92.265 F21000.000
G1 E-0.08000 F3000.00000
G1 F16800.000
G1 X112.239 Y92.511 E-0.20552
G1 X113.108 Y93.014 E-0.17025
G1 X114.681 Y93.922 E-0.30823
G1 E-0.03600 F3000.00000
G1 X126.955 Y64.613 F21000.000
G1 E0.80000 F2100.00000
G1 F2400.000
G1 X142.380 Y73.521 E0.78386
G1 X143.850 Y72.706 E0.07394
G1 X157.867 Y64.613 E0.71227
G1 X157.867 Y46.716 E0.78758
G1 X142.368 Y37.768 E0.78757
G1 X128.300 Y45.890 E0.71484
G1 X126.896 Y46.736 E0.07212
G1 X126.903 Y64.583 E0.78535
G1 X126.818 Y64.989 F21000.000
G1 X126.339 Y64.591
G1 F2400.000
G1 X126.339 Y46.736 E0.78573
G1 X124.936 Y45.890 E0.07212
G1 X110.868 Y37.768 E0.71484
G1 X96.800 Y45.890 E0.71484
G1 X95.396 Y46.736 E0.07212
G1 X95.396 Y64.579 E0.78518
G1 X110.880 Y73.521 E0.78681
G1 X112.351 Y72.709 E0.07394
G1 X124.468 Y65.714 E0.61568
G1 X125.336 Y65.211 E0.04416
G1 X126.288 Y64.623 E0.04924
G1 X126.732 Y64.518 F21000.000
G1 E-0.08000 F3000.00000
G1 F16800.000
G1 X126.300 Y60.591 E-0.68400
G1 E-0.03600 F3000.00000
G1 X94.839 Y64.593 F21000.000
G1 E0.80000 F2100.00000
G1 F2400.000
G1 X94.839 Y46.736 E0.78580
G1 X93.436 Y45.890 E0.07212
G1 X79.368 Y37.768 E0.71484
G1 X63.868 Y46.716 E0.78757
G1 X63.868 Y64.613 E0.78758
G1 X79.368 Y73.562 E0.78757
G1 X93.438 Y65.442 E0.71485
G1 X94.788 Y64.624 E0.06948
G1 X95.233 Y64.521 F21000.000
G1 E-0.08000 F3000.00000
G1 F16800.000
G1 X94.799 Y60.592 E-0.68400
G1 E-0.03600 F3000.00000
G1 X126.896 Y101.350 F21000.000
G1 E0.80000 F2100.00000
G1 F2400.000
G1 X126.896 Y119.193 E0.78518
G1 X128.300 Y120.040 E0.07212
G1 X142.368 Y128.162 E0.71484
G1 X157.867 Y119.213 E0.78757
G1 X157.867 Y101.316 E0.78758
G1 X142.978 Y92.730 E0.75635
G1 X142.377 Y92.410 E0.02994
G1 X126.948 Y101.320 E0.78404
G1 X126.502 Y101.420 F21000.000
G1 E-0.08000 F3000.00000
G1 F16800.000
G1 X126.936 Y105.352 E-0.68400
G1 E-0.03600 F3000.00000
G1 X142.764 Y91.953 F21000.000
G1 E0.80000 F2100.00000
G1 F2400.000
G1 X157.743 Y100.601 E0.76114
G1 X158.394 Y101.012 E0.03385
G1 X158.424 Y101.799 E0.03469
G1 X158.424 Y118.730 E0.74504
G1 X158.394 Y119.518 E0.03469
G1 X157.727 Y119.938 E0.03469
G1 X143.065 Y128.403 E0.74501
G1 X142.368 Y128.770 E0.03468
G1 X141.682 Y128.409 E0.03409
G1 X126.618 Y119.712 E0.76546
G1 X111.553 Y128.409 E0.76546
G1 X110.868 Y128.770 E0.03409
G1 X110.182 Y128.409 E0.03409
G1 X95.118 Y119.712 E0.76546
G1 X80.053 Y128.409 E0.76546
G1 X79.368 Y128.770 E0.03409
G1 X78.670 Y128.403 E0.03468
G1 X64.008 Y119.938 E0.74501
G1 X63.341 Y119.518 E0.03469
G1 X63.311 Y118.730 E0.03469
G1 X63.311 Y101.799 E0.74504
G1 X63.341 Y101.012 E0.03469
G1 X64.002 Y100.596 E0.03434
G1 X79.151 Y91.849 E0.76979
G1 X79.151 Y74.080 E0.78191
G1 X64.002 Y65.334 E0.76979
G1 X63.341 Y64.918 E0.03434
G1 X63.311 Y64.130 E0.03469
G1 X63.311 Y47.199 E0.74504
G1 X63.341 Y46.412 E0.03469
G1 X64.008 Y45.992 E0.03469
G1 X78.670 Y37.527 E0.74501
G1 X79.368 Y37.159 E0.03468
G1 X80.053 Y37.520 E0.03409
G1 X95.118 Y46.217 E0.76546
G1 X110.182 Y37.520 E0.76546
G1 X110.868 Y37.159 E0.03409
G1 X111.553 Y37.520 E0.03409
G1 X126.618 Y46.217 E0.76546
G1 X142.110 Y37.285 E0.78696
G1 X142.368 Y37.156 E0.01268
G1 X142.631 Y37.288 E0.01297
G1 X157.727 Y45.992 E0.76680
G1 X158.394 Y46.412 E0.03469
G1 X158.424 Y47.199 E0.03469
G1 X158.424 Y64.130 E0.74504
G1 X158.394 Y64.918 E0.03469
G1 X157.743 Y65.328 E0.03385
G1 X142.764 Y73.976 E0.76114
G1 X142.764 Y91.893 E0.78843
G1 X142.627 Y92.329 F21000.000
; stop printing object Cable_organizer.stl id:0 copy 0
; printing object Cable_organizer.stl id:1 copy 0
G1 E-0.08000 F3000.00000
G1 F16800.000
G1 X146.250 Y93.919 E-0.68400
G1 E-0.03600 F3000.00000
G1 Z0.600000 F21000.000
G1 X125.840 Y178.504
G1 Z0.200000
G1 E0.80000 F2100.00000
G1 F2400.000
G1 X110.360 Y187.444 E0.78665
G1 X110.360 Y205.287 E0.78518
G1 X111.763 Y206.133 E0.07212
G1 X125.831 Y214.255 E0.71484
G1 X139.899 Y206.133 E0.71484
G1 X141.303 Y205.287 E0.07212
G1 X141.303 Y187.430 E0.78581
G1 X139.866 Y186.560 E0.07389
G1 X126.442 Y178.821 E0.68189
G1 X125.893 Y178.532 E0.02729
G1 X125.579 Y178.201 F21000.000
G1 E-0.08000 F3000.00000
G1 F16800.000
G1 X122.396 Y180.538 E-0.68400
G1 E-0.03600 F3000.00000
G1 X109.803 Y187.430 F21000.000
G1 E0.80000 F2100.00000
G1 F2400.000
G1 X108.401 Y186.580 E0.07212
G1 X94.331 Y178.461 E0.71485
G1 X78.832 Y187.409 E0.78757
G1 X78.832 Y205.307 E0.78758
G1 X94.331 Y214.255 E0.78757
G1 X108.399 Y206.133 E0.71484
G1 X109.803 Y205.287 E0.07212
G1 X109.803 Y187.490 E0.78316
G1 X109.945 Y187.056 F21000.000
G1 X110.130 Y186.898
G1 F2400.000
G1 X110.159 Y186.914 E0.00149
G1 X125.643 Y177.972 E0.78681
G1 X125.643 Y160.144 E0.78455
G1 X110.163 Y151.204 E0.78665
G1 X109.561 Y151.521 E0.02993
G1 X94.671 Y160.109 E0.75640
G1 X94.671 Y178.007 E0.78762
G1 X108.688 Y186.102 E0.71230
G1 X110.077 Y186.869 E0.06980
G1 X110.130 Y186.932 F21000.000
G1 E-0.08000 F3000.00000
G1 F16800.000
G1 X110.159 Y186.914 E-0.01594
G1 X113.569 Y184.945 E-0.66806
G1 E-0.03600 F3000.00000
G1 X126.200 Y177.985 F21000.000
G1 E0.80000 F2100.00000
G1 F2400.000
G1 X127.203 Y178.604 E0.05188
G1 X128.071 Y179.107 E0.04416
G1 X140.188 Y186.102 E0.61568
G1 X141.659 Y186.914 E0.07394
G1 X157.144 Y177.976 E0.78676
G1 X157.171 Y176.295 E0.07397
G1 X157.169 Y161.319 E0.65902
G1 X157.142 Y160.139 E0.05194
G1 X141.662 Y151.204 E0.78654
G1 X141.061 Y151.521 E0.02993
G1 X127.636 Y159.260 E0.68189
G1 X126.200 Y160.130 E0.07389
G1 X126.200 Y177.925 E0.78308
G1 X126.056 Y178.358 F21000.000
G1 E-0.08000 F3000.00000
G1 F16800.000
G1 X127.203 Y178.604 E-0.20552
G1 X128.071 Y179.107 E-0.17025
G1 X129.645 Y180.016 E-0.30823
G1 E-0.03600 F3000.00000
G1 X141.918 Y150.706 F21000.000
G1 E0.80000 F2100.00000
G1 F2400.000
G1 X157.344 Y159.614 E0.78386
G1 X158.813 Y158.800 E0.07394
G1 X172.831 Y150.707 E0.71227
G1 X172.831 Y132.809 E0.78758
G1 X157.331 Y123.861 E0.78757
G1 X143.263 Y131.983 E0.71484
G1 X141.860 Y132.829 E0.07212
G1 X141.866 Y150.676 E0.78535
G1 X141.782 Y151.082 F21000.000
G1 X141.303 Y150.685
G1 F2400.000
G1 X141.303 Y132.829 E0.78573
G1 X139.899 Y131.983 E0.07212
G1 X125.831 Y123.861 E0.71484
G1 X111.763 Y131.983 E0.71484
G1 X110.360 Y132.829 E0.07212
G1 X110.360 Y150.672 E0.78518
G1 X125.843 Y159.614 E0.78681
G1 X127.315 Y158.802 E0.07394
G1 X139.431 Y151.807 E0.61568
G1 X140.300 Y151.304 E0.04416
G1 X141.252 Y150.716 E0.04924
G1 X141.696 Y150.611 F21000.000
G1 E-0.08000 F3000.00000
G1 F16800.000
G1 X141.263 Y146.684 E-0.68400
G1 E-0.03600 F3000.00000
G1 X109.803 Y150.686 F21000.000
G1 E0.80000 F2100.00000
G1 F2400.000
G1 X109.803 Y132.829 E0.78580
G1 X108.399 Y131.983 E0.07212
G1 X94.331 Y123.861 E0.71484
G1 X78.832 Y132.809 E0.78757
G1 X78.832 Y150.707 E0.78758
G1 X94.331 Y159.655 E0.78757
G1 X108.401 Y151.536 E0.71485
G1 X109.752 Y150.717 E0.06948
G1 X110.196 Y150.614 F21000.000
G1 E-0.08000 F3000.00000
G1 F16800.000
G1 X109.763 Y146.685 E-0.68400
G1 E-0.03600 F3000.00000
G1 X141.860 Y187.444 F21000.000
G1 E0.80000 F2100.00000
G1 F2400.000
G1 X141.860 Y205.287 E0.78518
G1 X143.263 Y206.133 E0.07212
G1 X157.331 Y214.255 E0.71484
G1 X172.831 Y205.307 E0.78757
G1 X172.831 Y187.409 E0.78758
G1 X157.941 Y178.823 E0.75635
G1 X157.341 Y178.504 E0.02994
G1 X141.912 Y187.414 E0.78404
G1 X141.466 Y187.513 F21000.000
G1 E-0.08000 F3000.00000
G1 F16800.000
G1 X141.900 Y191.446 E-0.68400
G1 E-0.03600 F3000.00000
G1 X157.728 Y178.046 F21000.000
G1 E0.80000 F2100.00000
G1 F2400.000
G1 X172.707 Y186.694 E0.76114
G1 X173.357 Y187.105 E0.03385
G1 X173.388 Y187.893 E0.03469
G1 X173.388 Y204.823 E0.74504
G1 X173.358 Y205.611 E0.03469
G1 X172.690 Y206.031 E0.03469
G1 X158.028 Y214.496 E0.74501
G1 X157.331 Y214.863 E0.03468
G1 X156.646 Y214.503 E0.03409
G1 X141.581 Y205.806 E0.76546
G1 X126.517 Y214.503 E0.76546
G1 X125.831 Y214.863 E0.03409
G1 X125.146 Y214.503 E0.03409
G1 X110.081 Y205.806 E0.76546
G1 X95.017 Y214.503 E0.76546
G1 X94.331 Y214.863 E0.03409
G1 X93.634 Y214.496 E0.03468
G1 X78.972 Y206.031 E0.74501
G1 X78.305 Y205.611 E0.03469
G1 X78.275 Y204.823 E0.03469
G1 X78.275 Y187.893 E0.74504
G1 X78.305 Y187.105 E0.03469
G1 X78.965 Y186.689 E0.03434
G1 X94.115 Y177.942 E0.76979
G1 X94.115 Y160.174 E0.78191
G1 X78.965 Y151.427 E0.76979
G1 X78.305 Y151.011 E0.03434
G1 X78.275 Y150.223 E0.03469
G1 X78.275 Y133.293 E0.74504
G1 X78.305 Y132.505 E0.03469
G1 X78.972 Y132.085 E0.03469
G1 X93.634 Y123.620 E0.74501
G1 X94.331 Y123.253 E0.03468
G1 X95.017 Y123.613 E0.03409
G1 X110.081 Y132.311 E0.76546
G1 X125.146 Y123.613 E0.76546
G1 X125.831 Y123.253 E0.03409
G1 X126.517 Y123.613 E0.03409
G1 X141.581 Y132.311 E0.76546
G1 X157.074 Y123.378 E0.78696
G1 X157.331 Y123.249 E0.01268
G1 X157.595 Y123.381 E0.01297
G1 X172.691 Y132.085 E0.76680
G1 X173.358 Y132.505 E0.03469
G1 X173.388 Y133.293 E0.03469
M106 S255
G1 X173.388 Y150.223 E0.74504
G1 X173.357 Y151.011 E0.03469
G1 X172.707 Y151.422 E0.03385
G1 X157.728 Y160.070 E0.76114
G1 X157.728 Y177.986 E0.78843
G1 X157.591 Y178.422 F21000.000
; stop printing object Cable_organizer.stl id:1 copy 0
M106 S255
;LAYER_CHANGE
;Z:0.45
;HEIGHT:0.25
; custom gcode: before_layer_gcode
;BEFORE_LAYER_CHANGE
;0.45

; custom gcode end: before_layer_gcode

G1 Z0.450000 F21000.000
; custom gcode: layer_gcode
;AFTER_LAYER_CHANGE
;0.45
; custom gcode end: layer_gcode

G1 E-0.80000 F3000.00000
G1 Z0.850000 F21000.000
G1 X179.556 Y177.979
G1 Z0.450000
G1 E0.80000 F2100.00000
; custom gcode: feature_gcode
