G10 P0 R260 S260 ; sets the standby temperature
; generated by SuperSlicer 2.3.55 on 2024-03-11 at 19:04:17 UTC

; TODO: check the size of the extruder and the y-bar clearance. Optimize & test supports.

; external perimeters extrusion width = 0.39mm
; perimeters extrusion width = 0.60mm
; infill extrusion width = 0.60mm
; solid infill extrusion width = 0.60mm
; top infill extrusion width = 0.32mm
; support material extrusion width = 0.40mm
; first layer extrusion width = 0.45mm

; object:{"name":"case-bottom","id":"case-bottom.stl id:0 copy 0","object_center":[79.606217,144.363690,0.000000],"boundingbox_center":[79.606217,144.363690,5.000000],"boundingbox_size":[45.000000,105.000000,10.000000]}
; object:{"name":"case-top-concave-debossed","id":"case-top-concave-debossed.stl id:1 copy 0","object_center":[174.030216,144.363691,0.000000],"boundingbox_center":[174.030216,144.363691,18.000000],"boundingbox_size":[45.000000,105.000000,36.000000]}
; object:{"name":"case-top-convex-debossed","id":"case-top-convex-debossed.stl id:2 copy 0","object_center":[126.818217,144.363691,0.000000],"boundingbox_center":[126.818217,144.363691,18.000000],"boundingbox_size":[45.000000,105.000000,36.000000]}
; object:{"name":"case-bottom","id":"case-bottom.stl id:3 copy 0","object_center":[129.219993,66.264909,0.000000],"boundingbox_center":[129.219993,66.264909,5.000000],"boundingbox_size":[105.000000,45.000000,10.000000]}
; plater:{"center":[126.818216,120.314300,0.000000],"boundingbox_center":[126.818216,120.314300,18.000000],"boundingbox_size":[139.423999,153.098782,36.000000]}

;TYPE:Custom
; custom gcode: start_gcode
M106 P4 S255
M140 S100 ; set bed final temp
M104 S260 ; set extruder final temp
M190 S100 ; wait for bed final temp
M109 S260 ; wait for extruder final temp
;G29
G28
;M98 P"/macros/nozzle/brush.g"
;PRINT_START

G92 E0 ;Reset Extruder
;;G1 Z2.0 F3000 ;Move Z Axis up


G1 X100 Y4.6 Z0.3 F18000.0 ; Move to side a little

G1 X5 Y4.6 Z0.3 F1500.0 E10 ; Draw the second line

G1 X5 Y4.2 Z0.3 F1500.0 E10 ; Draw the third line

G1 X100 Y4.2 Z0.3 F1500.0 E10 ; Draw the third line


;G92 E0;		Reset extruder
;G1 X1 Y10 F6000;
;G1 Z1.7;
;G1 X1 Y60 E140 F50;
;G1 E-<DESTRING> F1500;
;G1 Z4
;G1 X<NEXTX> Y<NEXTY> F12000;
;G92 E0 ;Reset Extruder

;G1 Z2.0 F3000 ;Move Z Axis up
; custom gcode end: start_gcode
M107
G21 ; set units to millimeters
G90 ; use absolute coordinates
M83 ; use relative distances for extrusion
; custom gcode: start_filament_gcode
; Filament gcode
M572 D0 S0.05
; custom gcode end: start_filament_gcode
;LAYER_CHANGE
;Z:0.2
;HEIGHT:0.2
; custom gcode: before_layer_gcode
;BEFORE_LAYER_CHANGE
;0.2

; custom gcode end: before_layer_gcode

G1 Z0.200000 F18000.000
; custom gcode: layer_gcode
;AFTER_LAYER_CHANGE
;0.2
; custom gcode end: layer_gcode

G1 E-0.80000 F3000.00000
G1 Z1.000000 F18000.000
G1 X76.256 Y38.725
G1 Z0.200000
G1 E0.80000 F2100.00000
; custom gcode: feature_gcode
;Skirt
M204 P2000 T5000
; custom gcode end: feature_gcode

;TYPE:Skirt
G1 F2400.000
G1 X76.976 Y38.432 E0.02451
G1 X77.725 Y38.243 E0.02432
G1 X78.498 Y38.159 E0.02451
G1 X179.726 Y38.154 E3.19003
G1 X180.640 Y38.230 E0.02892
G1 X181.536 Y38.456 E0.02910
G1 X182.377 Y38.823 E0.02892
G1 X183.152 Y39.326 E0.02910
G1 X185.974 Y42.106 E0.12484
G1 X186.534 Y42.884 E0.03021
G1 X186.955 Y43.745 E0.03021
G1 X200.755 Y92.339 E1.59190
G1 X200.922 Y93.164 E0.02653
G1 X200.966 Y194.922 E3.20673
G1 X200.885 Y195.813 E0.02819
G1 X200.664 Y196.680 E0.02819
G1 X200.305 Y197.505 E0.02837
G1 X199.822 Y198.258 E0.02819
G1 X198.341 Y199.806 E0.06751
G1 X197.371 Y200.527 E0.03810
G1 X196.056 Y201.088 E0.04506
G1 X194.647 Y201.298 E0.04488
G1 X100.106 Y202.474 E2.97953
G1 X58.960 Y202.472 E1.29665
G1 X58.088 Y202.381 E0.02763
G1 X57.246 Y202.157 E0.02745
G1 X56.449 Y201.805 E0.02745
G1 X55.712 Y201.331 E0.02763
G1 X53.094 Y198.785 E0.11508
G1 X52.455 Y198.001 E0.03186
G1 X52.066 Y197.328 E0.02451
G1 X51.773 Y196.608 E0.02451
G1 X51.584 Y195.853 E0.02451
G1 X51.500 Y195.080 E0.02451
G1 X51.525 Y93.285 E3.20789
G1 X51.663 Y92.502 E0.02506
G1 X51.911 Y91.745 E0.02510
G1 X71.534 Y43.625 E1.63767
G1 X72.254 Y42.369 E0.04561
G1 X74.798 Y39.752 E0.11503
G1 X75.582 Y39.114 E0.03186
G1 X76.204 Y38.755 E0.02262
G1 X76.418 Y39.098 F18000.000
G1 F2400.000
G1 X77.090 Y38.823 E0.02289
G1 X77.794 Y38.644 E0.02289
G1 X78.522 Y38.565 E0.02307
G1 X179.726 Y38.561 E3.18926
G1 X180.584 Y38.634 E0.02714
G1 X181.418 Y38.846 E0.02714
G1 X182.206 Y39.194 E0.02714
G1 X182.922 Y39.663 E0.02696
G1 X185.664 Y42.370 E0.12143
G1 X186.193 Y43.106 E0.02856
G1 X186.584 Y43.917 E0.02838
G1 X200.363 Y92.450 E1.58987
G1 X200.519 Y93.223 E0.02484
G1 X200.559 Y194.914 E3.20464
G1 X200.484 Y195.744 E0.02626
G1 X200.277 Y196.551 E0.02626
G1 X199.945 Y197.315 E0.02626
G1 X199.495 Y198.017 E0.02626
G1 X198.072 Y199.501 E0.06481
G1 X197.179 Y200.167 E0.03510
G1 X195.956 Y200.693 E0.04197
G1 X194.638 Y200.891 E0.04197
G1 X100.106 Y202.067 E2.97924
G1 X58.982 Y202.066 E1.29595
G1 X58.170 Y201.982 E0.02572
G1 X57.381 Y201.773 E0.02572
G1 X56.640 Y201.445 E0.02555
G1 X55.953 Y201.003 E0.02572
G1 X53.391 Y198.507 E0.11273
G1 X52.803 Y197.789 E0.02926
G1 X52.435 Y197.156 E0.02307
G1 X52.161 Y196.483 E0.02289
G1 X51.984 Y195.779 E0.02289
G1 X51.906 Y195.056 E0.02289
G1 X51.931 Y93.318 E3.20610
G1 X52.059 Y92.597 E0.02307
G1 X52.287 Y91.902 E0.02307
G1 X71.908 Y43.784 E1.63755
G1 X72.582 Y42.610 E0.04268
G1 X75.077 Y40.050 E0.11264
G1 X75.790 Y39.464 E0.02909
G1 X76.366 Y39.129 E0.02100
G1 E-0.08000 F3000.00000
G1 F14400.000
G1 X77.090 Y38.823 E-0.15553
G1 X77.794 Y38.644 E-0.14377
G1 X78.522 Y38.565 E-0.14488
G1 X79.733 Y38.565 E-0.23982
G1 E-0.03600 F3000.00000
G1 Z0.600000 F18000.000
G1 X104.436 Y176.670
G1 Z0.200000
G1 E0.80000 F2100.00000
G1 F2400.000
G1 X104.436 Y184.511 E0.24710
G1 E-0.08000 F3000.00000
G1 F14400.000
G1 X104.436 Y181.055 E-0.68400
G1 E-0.03600 F3000.00000
G1 X104.843 Y185.445 F18000.000
G1 E0.80000 F2100.00000
G1 F2400.000
G1 X104.843 Y175.737 E0.30594
G1 X105.251 Y175.206 E0.02107
G1 X105.251 Y185.976 E0.33938
G1 X105.658 Y186.506 E0.02107
G1 X105.658 Y174.676 E0.37281
G1 X106.065 Y174.145 E0.02107
G1 X106.065 Y187.037 E0.40625
G1 E-0.08000 F3000.00000
G1 F14400.000
G1 X106.065 Y183.581 E-0.68400
G1 E-0.03600 F3000.00000
G1 X104.029 Y183.529 F18000.000
G1 E0.80000 F2100.00000
G1 F2400.000
G1 X104.029 Y177.653 E0.18516
G1 X103.895 Y177.977 E0.01104
G1 X103.895 Y183.205 E0.16475
G1 E-0.08000 F3000.00000
G1 F14400.000
G1 X103.895 Y179.749 E-0.68400
G1 E-0.03600 F3000.00000
G1 X150.834 Y181.413 F18000.000
G1 E0.80000 F2100.00000
G1 F2400.000
G1 X150.834 Y179.768 E0.05184
G1 E-0.08000 F3000.00000
G1 F14400.000
G1 X150.834 Y181.413 E-0.32559
G1 E-0.39441 F3000.00000
G1 X151.241 Y177.653 F18000.000
G1 E0.80000 F2100.00000
G1 F2400.000
G1 X151.241 Y183.529 E0.18516
G1 E-0.08000 F3000.00000
G1 F14400.000
G1 X151.241 Y180.073 E-0.68400
G1 E-0.03600 F3000.00000
G1 X151.648 Y184.511 F18000.000
G1 E0.80000 F2100.00000
G1 F2400.000
G1 X151.648 Y176.670 E0.24710
G1 E-0.08000 F3000.00000
G1 F14400.000
G1 X151.648 Y180.126 E-0.68400
G1 E-0.03600 F3000.00000
G1 X152.055 Y185.445 F18000.000
G1 E0.80000 F2100.00000
G1 F2400.000
G1 X152.055 Y175.737 E0.30594
G1 X152.463 Y175.206 E0.02107
G1 X152.463 Y185.976 E0.33938
G1 X152.870 Y186.506 E0.02107
G1 X152.870 Y174.676 E0.37281
G1 X153.277 Y174.145 E0.02107
G1 X153.277 Y187.037 E0.40625
; printing object case-bottom.stl id:0 copy 0
G1 E-0.08000 F3000.00000
G1 F14400.000
G1 X153.277 Y183.581 E-0.68400
G1 E-0.03600 F3000.00000
G1 Z0.600000 F18000.000
G1 X101.431 Y94.143
G1 Z0.200000
G1 E0.80000 F2100.00000
; custom gcode: feature_gcode
;ExternalPerimeter                   ;  ExternalPerimeter
M204 P750 T5000
; custom gcode end: feature_gcode

;TYPE:External perimeter
G1 F2400.000
G1 X99.827 Y92.539 E0.07151
G1 X59.386 Y92.539 E1.27442
G1 X57.781 Y94.143 E0.07151
G1 X57.781 Y194.584 E3.16522
G1 X59.386 Y196.189 E0.07151
G1 X99.827 Y196.189 E1.27442
G1 X101.431 Y194.584 E0.07151
G1 X101.431 Y94.203 E3.16332
G1 X101.031 Y94.143 F18000.000
G1 X101.022 Y94.313
; custom gcode: feature_gcode
;Perimeter                        ;  Perimeter
M204 P1000 T5000
; custom gcode end: feature_gcode

;TYPE:Perimeter
G1 F2400.000
G1 X99.657 Y92.948 E0.06083
G1 X59.555 Y92.948 E1.26374
G1 X58.190 Y94.313 E0.06083
G1 X58.190 Y194.415 E3.15453
G1 X59.555 Y195.779 E0.06083
G1 X99.657 Y195.779 E1.26374
G1 X101.022 Y194.415 E0.06083
G1 X101.022 Y94.373 E3.15264
G1 X100.615 Y94.481 F18000.000
G1 F2400.000
G1 X99.488 Y93.355 E0.05020
G1 X59.724 Y93.355 E1.25311
G1 X58.598 Y94.481 E0.05020
G1 X58.598 Y194.246 E3.14390
G1 X59.724 Y195.372 E0.05020
G1 X99.488 Y195.372 E1.25311
G1 X100.615 Y194.246 E0.05020
G1 X100.615 Y94.541 E3.14201
G1 X100.208 Y94.650 F18000.000
G1 F2400.000
G1 X99.320 Y93.762 E0.03957
G1 X59.893 Y93.762 E1.24248
G1 X59.005 Y94.650 E0.03957
G1 X59.005 Y194.077 E3.13328
G1 X59.893 Y194.965 E0.03957
G1 X99.320 Y194.965 E1.24248
G1 X100.208 Y194.077 E0.03957
G1 X100.208 Y94.710 E3.13139
G1 E-0.08000 F3000.00000
G1 F14400.000
G1 X99.320 Y93.762 E-0.25707
G1 X97.163 Y93.762 E-0.42693
G1 E-0.03600 F3000.00000
G1 X59.336 Y194.213 F18000.000
G1 E0.80000 F2100.00000
; custom gcode: feature_gcode
;SolidInfill                      ;  SolidInfill
M204 P2000 T5000
; custom gcode end: feature_gcode

;TYPE:Solid infill
G1 F3600.000
G1 X60.082 Y194.644 E0.02716
G1 X60.896 Y194.644 E0.02566
G1 X59.326 Y193.737 E0.05713
G1 X59.326 Y193.267 E0.01481
G1 X61.710 Y194.644 E0.08676
G1 X62.525 Y194.644 E0.02566
G1 X59.326 Y192.797 E0.11638
G1 X59.326 Y192.327 E0.01481
G1 X63.339 Y194.644 E0.14601
G1 X64.153 Y194.644 E0.02566
G1 X59.326 Y191.857 E0.17564
G1 X59.326 Y191.387 E0.01481
G1 X64.967 Y194.644 E0.20526
G1 X65.781 Y194.644 E0.02566
G1 X59.326 Y190.917 E0.23489
G1 X59.326 Y190.447 E0.01481
G1 X66.595 Y194.644 E0.26451
G1 X67.410 Y194.644 E0.02566
G1 X59.326 Y189.977 E0.29414
G1 X59.326 Y189.507 E0.01481
G1 X68.224 Y194.644 E0.32377
G1 X69.038 Y194.644 E0.02566
G1 X59.326 Y189.037 E0.35339
G1 X59.326 Y188.567 E0.01481
G1 X69.852 Y194.644 E0.38302
G1 X70.666 Y194.644 E0.02566
G1 X59.326 Y188.097 E0.41264
G1 X59.326 Y187.627 E0.01481
G1 X71.480 Y194.644 E0.44227
G1 X72.294 Y194.644 E0.02566
G1 X59.326 Y187.156 E0.47189
G1 X59.326 Y186.686 E0.01481
G1 X73.109 Y194.644 E0.50152
G1 X73.923 Y194.644 E0.02566
G1 X59.326 Y186.216 E0.53115
G1 X59.326 Y185.746 E0.01481
G1 X74.737 Y194.644 E0.56077
G1 X75.551 Y194.644 E0.02566
G1 X59.326 Y185.276 E0.59040
G1 X59.326 Y184.806 E0.01481
G1 X76.365 Y194.644 E0.62002
G1 X77.179 Y194.644 E0.02566
G1 X59.326 Y184.336 E0.64965
G1 X59.326 Y183.866 E0.01481
G1 X77.994 Y194.644 E0.67928
G1 X78.808 Y194.644 E0.02566
G1 X59.326 Y183.396 E0.70890
G1 X59.326 Y182.926 E0.01481
G1 X79.622 Y194.644 E0.73853
G1 X80.436 Y194.644 E0.02566
G1 X59.326 Y182.456 E0.76815
G1 X59.326 Y181.986 E0.01481
G1 X81.250 Y194.644 E0.79778
G1 X82.064 Y194.644 E0.02566
G1 X59.326 Y181.516 E0.82741
G1 X59.326 Y181.046 E0.01481
G1 X82.879 Y194.644 E0.85703
G1 X83.693 Y194.644 E0.02566
G1 X59.326 Y180.576 E0.88666
G1 X59.326 Y180.106 E0.01481
G1 X84.507 Y194.644 E0.91628
G1 X85.321 Y194.644 E0.02566
G1 X59.326 Y179.636 E0.94591
G1 X59.326 Y179.166 E0.01481
G1 X86.135 Y194.644 E0.97553
G1 X86.949 Y194.644 E0.02566
G1 X59.326 Y178.695 E1.00516
G1 X59.326 Y178.225 E0.01481
G1 X87.763 Y194.644 E1.03479
G1 X88.578 Y194.644 E0.02566
G1 X59.326 Y177.755 E1.06441
G1 X59.326 Y177.285 E0.01481
G1 X89.392 Y194.644 E1.09404
G1 X90.206 Y194.644 E0.02566
G1 X59.326 Y176.815 E1.12366
G1 X59.326 Y176.345 E0.01481
G1 X91.020 Y194.644 E1.15329
G1 X91.834 Y194.644 E0.02566
G1 X59.326 Y175.875 E1.18292
G1 X59.326 Y175.405 E0.01481
G1 X92.648 Y194.644 E1.21254
G1 X93.463 Y194.644 E0.02566
G1 X59.326 Y174.935 E1.24217
G1 X59.326 Y174.465 E0.01481
G1 X94.277 Y194.644 E1.27179
G1 X95.091 Y194.644 E0.02566
G1 X59.326 Y173.995 E1.30142
G1 X59.326 Y173.525 E0.01481
G1 X95.905 Y194.644 E1.33105
G1 X96.719 Y194.644 E0.02566
G1 X59.326 Y173.055 E1.36067
G1 X59.326 Y172.585 E0.01481
G1 X97.533 Y194.644 E1.39030
G1 X98.348 Y194.644 E0.02566
G1 X59.326 Y172.115 E1.41992
G1 X59.326 Y171.645 E0.01481
G1 X99.162 Y194.644 E1.44955
G1 X99.476 Y194.355 E0.01344
G1 X59.326 Y171.175 E1.46097
G1 X59.326 Y170.705 E0.01481
G1 X99.774 Y194.057 E1.47181
G1 X99.886 Y193.944 E0.00502
G1 X99.886 Y193.652 E0.00921
G1 X59.326 Y170.235 E1.47591
G1 X59.326 Y169.764 E0.01481
G1 X99.886 Y193.182 E1.47591
G1 X99.886 Y192.712 E0.01481
G1 X59.326 Y169.294 E1.47591
G1 X59.326 Y168.824 E0.01481
G1 X99.886 Y192.242 E1.47591
G1 X99.886 Y191.772 E0.01481
G1 X59.326 Y168.354 E1.47591
G1 X59.326 Y167.884 E0.01481
G1 X99.886 Y191.302 E1.47591
G1 X99.886 Y190.832 E0.01481
G1 X59.326 Y167.414 E1.47591
G1 X59.326 Y166.944 E0.01481
G1 X99.886 Y190.362 E1.47591
G1 X99.886 Y189.891 E0.01481
G1 X59.326 Y166.474 E1.47591
G1 X59.326 Y166.004 E0.01481
G1 X99.886 Y189.421 E1.47591
G1 X99.886 Y188.951 E0.01481
G1 X59.326 Y165.534 E1.47591
G1 X59.326 Y165.064 E0.01481
G1 X99.886 Y188.481 E1.47591
G1 X99.886 Y188.011 E0.01481
G1 X59.326 Y164.594 E1.47591
G1 X59.326 Y164.124 E0.01481
G1 X99.886 Y187.541 E1.47591
G1 X99.886 Y187.071 E0.01481
G1 X59.326 Y163.654 E1.47591
G1 X59.326 Y163.184 E0.01481
G1 X99.886 Y186.601 E1.47591
G1 X99.886 Y186.131 E0.01481
G1 X59.326 Y162.714 E1.47591
G1 X59.326 Y162.244 E0.01481
G1 X99.886 Y185.661 E1.47591
G1 X99.886 Y185.191 E0.01481
G1 X59.326 Y161.774 E1.47591
G1 X59.326 Y161.303 E0.01481
G1 X99.886 Y184.721 E1.47591
G1 X99.886 Y184.251 E0.01481
G1 X59.326 Y160.833 E1.47591
G1 X59.326 Y160.363 E0.01481
G1 X99.886 Y183.781 E1.47591
G1 X99.886 Y183.311 E0.01481
G1 X59.326 Y159.893 E1.47591
G1 X59.326 Y159.423 E0.01481
G1 X99.886 Y182.841 E1.47591
G1 X99.886 Y182.371 E0.01481
G1 X59.326 Y158.953 E1.47591
G1 X59.326 Y158.483 E0.01481
G1 X99.886 Y181.901 E1.47591
G1 X99.886 Y181.430 E0.01481
G1 X59.326 Y158.013 E1.47591
G1 X59.326 Y157.543 E0.01481
G1 X99.886 Y180.960 E1.47591
G1 X99.886 Y180.490 E0.01481
G1 X59.326 Y157.073 E1.47591
G1 X59.326 Y156.603 E0.01481
G1 X99.886 Y180.020 E1.47591
G1 X99.886 Y179.550 E0.01481
G1 X59.326 Y156.133 E1.47591
G1 X59.326 Y155.663 E0.01481
G1 X99.886 Y179.080 E1.47591
G1 X99.886 Y178.610 E0.01481
G1 X59.326 Y155.193 E1.47591
G1 X59.326 Y154.723 E0.01481
G1 X99.886 Y178.140 E1.47591
G1 X99.886 Y177.670 E0.01481
G1 X59.326 Y154.253 E1.47591
G1 X59.326 Y153.783 E0.01481
G1 X99.886 Y177.200 E1.47591
G1 X99.886 Y176.730 E0.01481
G1 X59.326 Y153.313 E1.47591
G1 X59.326 Y152.843 E0.01481
G1 X99.886 Y176.260 E1.47591
G1 X99.886 Y175.790 E0.01481
G1 X59.326 Y152.372 E1.47591
G1 X59.326 Y151.902 E0.01481
G1 X99.886 Y175.320 E1.47591
G1 X99.886 Y174.850 E0.01481
G1 X59.326 Y151.432 E1.47591
G1 X59.326 Y150.962 E0.01481
G1 X99.886 Y174.380 E1.47591
G1 X99.886 Y173.910 E0.01481
G1 X59.326 Y150.492 E1.47591
G1 X59.326 Y150.022 E0.01481
G1 X99.886 Y173.440 E1.47591
G1 X99.886 Y172.969 E0.01481
G1 X59.326 Y149.552 E1.47591
G1 X59.326 Y149.082 E0.01481
G1 X99.886 Y172.499 E1.47591
G1 X99.886 Y172.029 E0.01481
G1 X59.326 Y148.612 E1.47591
G1 X59.326 Y148.142 E0.01481
G1 X99.886 Y171.559 E1.47591
G1 X99.886 Y171.089 E0.01481
G1 X59.326 Y147.672 E1.47591
G1 X59.326 Y147.202 E0.01481
G1 X99.886 Y170.619 E1.47591
G1 X99.886 Y170.149 E0.01481
G1 X59.326 Y146.732 E1.47591
G1 X59.326 Y146.262 E0.01481
G1 X99.886 Y169.679 E1.47591
G1 X99.886 Y169.209 E0.01481
G1 X59.326 Y145.792 E1.47591
G1 X59.326 Y145.322 E0.01481
G1 X99.886 Y168.739 E1.47591
G1 X99.886 Y168.269 E0.01481
G1 X59.326 Y144.852 E1.47591
G1 X59.326 Y144.382 E0.01481
G1 X99.886 Y167.799 E1.47591
G1 X99.886 Y167.329 E0.01481
G1 X59.326 Y143.911 E1.47591
G1 X59.326 Y143.441 E0.01481
G1 X99.886 Y166.859 E1.47591
G1 X99.886 Y166.389 E0.01481
G1 X59.326 Y142.971 E1.47591
G1 X59.326 Y142.501 E0.01481
G1 X99.886 Y165.919 E1.47591
G1 X99.886 Y165.449 E0.01481
G1 X59.326 Y142.031 E1.47591
G1 X59.326 Y141.561 E0.01481
G1 X99.886 Y164.979 E1.47591
G1 X99.886 Y164.509 E0.01481
G1 X59.326 Y141.091 E1.47591
G1 X59.326 Y140.621 E0.01481
