G10 P0 R210 S210 ; sets the standby temperature
; generated by SuperSlicer 2.3.55 on 2023-12-13 at 20:23:48 UTC

; TODO: check the size of the extruder and the y-bar clearance. Optimize & test supports.

; external perimeters extrusion width = 0.60mm
; perimeters extrusion width = 0.60mm
; infill extrusion width = 0.80mm
; solid infill extrusion width = 0.50mm
; top infill extrusion width = 0.30mm
; support material extrusion width = 0.44mm
; first layer extrusion width = 0.60mm

; object:{"name":"cat","id":"cat.stl id:0 copy 0","object_center":[113.828316,121.756516,0.000000],"boundingbox_center":[113.828316,121.756516,9.362982],"boundingbox_size":[29.911570,18.539627,18.725964]}
; object:{"name":"tail","id":"tail.stl id:1 copy 0","object_center":[152.507529,118.099966,0.000000],"boundingbox_center":[152.507529,118.099966,11.370764],"boundingbox_size":[51.991867,6.000000,22.741529]}
; object:{"name":"cat","id":"cat.stl id:2 copy 0","object_center":[86.451959,121.756516,0.000000],"boundingbox_center":[86.451959,121.756516,9.362982],"boundingbox_size":[29.911570,18.539627,18.725964]}
; object:{"name":"tail","id":"tail.stl id:3 copy 0","object_center":[125.010762,134.513297,0.000000],"boundingbox_center":[125.010762,134.513297,11.370764],"boundingbox_size":[51.991867,6.000000,22.741529]}
; plater:{"center":[124.999818,125.000000,0.000000],"boundingbox_center":[124.999818,125.000000,11.370764],"boundingbox_size":[107.007288,25.026595,22.741529]}

;TYPE:Custom
; custom gcode: start_gcode
M106 P4 S255
M140 S60 ; set bed final temp
M104 S210 ; set extruder final temp
M190 S60 ; wait for bed final temp
M109 S210 ; wait for extruder final temp
;G29
G28
;M98 P"/macros/nozzle/brush.g"
;PRINT_START

G92 E0 ;Reset Extruder
;;G1 Z2.0 F3000 ;Move Z Axis up


G1 X100 Y4.6 Z0.3 F18000.0 ; Move to side a little

G1 X5 Y4.6 Z0.3 F1500.0 E10 ; Draw the second line

G1 X5 Y4.2 Z0.3 F1500.0 E10 ; Draw the third line

G1 X100 Y4.2 Z0.3 F1500.0 E10 ; Draw the third line


;G92 E0;		Reset extruder
;G1 X1 Y10 F6000;
;G1 Z1.7;
;G1 X1 Y60 E140 F50;
;G1 E-<DESTRING> F1500;
;G1 Z4
;G1 X<NEXTX> Y<NEXTY> F12000;
;G92 E0 ;Reset Extruder

;G1 Z2.0 F3000 ;Move Z Axis up
; custom gcode end: start_gcode
M107
G21 ; set units to millimeters
G90 ; use absolute coordinates
M83 ; use relative distances for extrusion
; custom gcode: start_filament_gcode
; Filament gcode
M572 D0 S0.025
; custom gcode end: start_filament_gcode
;LAYER_CHANGE
;Z:0.2
;HEIGHT:0.2
; custom gcode: before_layer_gcode
;BEFORE_LAYER_CHANGE
;0.2

; custom gcode end: before_layer_gcode

G1 Z0.200000 F21000.000
; custom gcode: layer_gcode
;AFTER_LAYER_CHANGE
;0.2
; custom gcode end: layer_gcode

G1 E-0.80000 F3000.00000
G1 Z1.000000 F21000.000
G1 X65.344 Y108.258
G1 Z0.200000
G1 E0.80000 F2100.00000
; custom gcode: feature_gcode
;Skirt
M204 P2000 T5000
; custom gcode end: feature_gcode

;TYPE:Skirt
G1 F2400.000
M204 P1200
G1 X66.044 Y107.910 E0.03438
G1 X66.789 Y107.657 E0.03464
G1 X68.270 Y107.461 E0.06574
G1 X127.840 Y107.461 E2.62138
G1 X163.557 Y109.787 E1.57509
G1 X165.505 Y110.005 E0.08625
G1 X167.262 Y110.367 E0.07893
G1 X169.168 Y111.011 E0.08853
G1 X170.697 Y111.828 E0.07630
G1 X172.046 Y112.898 E0.07577
G1 X173.033 Y114.055 E0.06693
G1 X173.802 Y115.489 E0.07158
G1 X174.219 Y117.002 E0.06908
G1 X174.285 Y118.617 E0.07111
G1 X174.020 Y120.059 E0.06451
G1 X173.743 Y120.846 E0.03674
G1 X173.284 Y121.753 E0.04473
G1 X172.208 Y123.144 E0.07740
G1 X154.726 Y140.008 E1.06887
G1 X153.827 Y140.776 E0.05204
G1 X152.440 Y141.561 E0.07013
G1 X150.841 Y142.045 E0.07352
G1 X142.020 Y142.836 E0.38975
G1 X116.582 Y142.920 E1.11940
G1 X113.343 Y142.771 E0.14268
G1 X111.978 Y142.603 E0.06052
G1 X71.152 Y135.907 E1.82056
G1 X70.187 Y135.597 E0.04459
G1 X69.291 Y135.125 E0.04459
G1 X68.494 Y134.509 E0.04433
G1 X67.811 Y133.761 E0.04459
G1 X63.229 Y126.194 E0.38923
G1 X62.893 Y125.509 E0.03359
G1 X62.647 Y124.780 E0.03385
G1 X62.452 Y123.299 E0.06574
G1 X62.453 Y113.213 E0.44385
G1 X62.615 Y111.925 E0.05713
G1 X62.849 Y111.180 E0.03438
G1 X63.184 Y110.467 E0.03464
G1 X63.608 Y109.811 E0.03438
G1 X64.115 Y109.217 E0.03438
G1 X64.697 Y108.696 E0.03438
G1 X65.294 Y108.291 E0.03174
G1 X65.638 Y108.733 F21000.000
G1 F2400.000
G1 X66.974 Y108.184 E0.06359
G1 X68.272 Y108.018 E0.05755
G1 X127.839 Y108.018 E2.62129
G1 X163.517 Y110.343 E1.57332
G1 X165.409 Y110.553 E0.08378
G1 X167.049 Y110.887 E0.07364
G1 X168.860 Y111.486 E0.08395
G1 X170.140 Y112.136 E0.06316
G1 X170.903 Y112.649 E0.04048
G1 X171.566 Y113.212 E0.03828
G1 X172.529 Y114.307 E0.06414
G1 X173.264 Y115.647 E0.06728
G1 X173.660 Y117.038 E0.06365
G1 X173.732 Y118.536 E0.06600
G1 X173.500 Y119.846 E0.05854
G1 X173.246 Y120.592 E0.03469
G1 X172.815 Y121.452 E0.04232
G1 X171.805 Y122.759 E0.07267
G1 X154.344 Y139.602 E1.06759
G1 X153.504 Y140.322 E0.04871
G1 X152.216 Y141.051 E0.06513
G1 X150.723 Y141.500 E0.06860
G1 X142.001 Y142.279 E0.38533
G1 X116.583 Y142.363 E1.11854
G1 X113.395 Y142.216 E0.14042
G1 X112.070 Y142.054 E0.05874
G1 X71.293 Y135.367 E1.81839
G1 X70.407 Y135.085 E0.04091
G1 X69.584 Y134.652 E0.04091
G1 X68.851 Y134.081 E0.04091
G1 X68.232 Y133.395 E0.04066
G1 X63.712 Y125.917 E0.38448
G1 X63.175 Y124.597 E0.06275
G1 X63.009 Y123.299 E0.05755
G1 X63.009 Y113.234 E0.44292
G1 X63.146 Y112.104 E0.05011
G1 X63.658 Y110.761 E0.06325
G1 X64.510 Y109.610 E0.06300
G1 X65.590 Y108.769 E0.06025
; printing object cat.stl id:0 copy 0
G1 E-0.08000 F3000.00000
G1 F16800.000
G1 X66.974 Y108.184 E-0.25495
G1 X68.272 Y108.018 E-0.22186
G1 X69.493 Y108.018 E-0.20719
G1 E-0.03600 F3000.00000
G1 Z0.600000 F21000.000
G1 X98.437 Y120.228
G1 Z0.200000
G1 E0.80000 F2100.00000
; custom gcode: feature_gcode
;SupportMaterial
M204 P1000 T5000
; custom gcode end: feature_gcode

;TYPE:Support material
G1 F2400.000
G1 X98.437 Y117.456 E0.12201
G1 X99.823 Y117.456 E0.06101
G1 X99.823 Y113.297 E0.18302
G1 X127.834 Y113.297 E1.23262
G1 X127.834 Y116.069 E0.12201
G1 X129.220 Y116.069 E0.06101
G1 X129.220 Y120.228 E0.18302
G1 X131.993 Y120.228 E0.12201
G1 X131.993 Y130.216 E0.43953
G1 X95.664 Y130.216 E1.59866
G1 X95.664 Y120.228 E0.43953
G1 X98.377 Y120.228 E0.11937
G1 X110.395 Y120.231 F21000.000
G1 F2400.000
G1 X110.423 Y120.698 E0.02058
G1 X110.501 Y121.106 E0.01825
G1 X110.608 Y121.451 E0.01591
G1 X110.800 Y121.877 E0.02058
G1 X111.017 Y122.230 E0.01825
G1 X111.276 Y122.555 E0.01825
G1 X111.531 Y122.811 E0.01591
G1 X111.856 Y123.069 E0.01825
G1 X112.256 Y123.311 E0.02058
G1 X112.586 Y123.459 E0.01591
G1 X112.981 Y123.586 E0.01825
G1 X113.388 Y123.664 E0.01825
G1 X113.802 Y123.692 E0.01825
G1 X114.269 Y123.664 E0.02058
G1 X114.676 Y123.586 E0.01825
G1 X115.021 Y123.478 E0.01591
G1 X115.401 Y123.311 E0.01825
G1 X115.757 Y123.099 E0.01825
G1 X116.125 Y122.811 E0.02058
G1 X116.416 Y122.515 E0.01825
G1 X116.639 Y122.230 E0.01591
G1 X116.881 Y121.830 E0.02058
G1 X117.048 Y121.451 E0.01825
G1 X117.169 Y121.054 E0.01825
G1 X117.240 Y120.646 E0.01825
G1 X117.262 Y120.285 E0.01591
G1 X117.234 Y119.818 E0.02058
G1 X117.156 Y119.410 E0.01825
G1 X117.048 Y119.065 E0.01591
G1 X116.881 Y118.686 E0.01825
G1 X116.669 Y118.329 E0.01825
G1 X116.381 Y117.961 E0.02058
G1 X116.085 Y117.670 E0.01825
G1 X115.757 Y117.417 E0.01825
G1 X115.448 Y117.230 E0.01591
G1 X115.071 Y117.057 E0.01825
G1 X114.624 Y116.918 E0.02058
G1 X114.216 Y116.846 E0.01825
G1 X113.855 Y116.824 E0.01591
G1 X113.441 Y116.846 E0.01825
G1 X113.032 Y116.918 E0.01825
G1 X112.586 Y117.057 E0.02058
G1 X112.209 Y117.230 E0.01825
G1 X111.900 Y117.417 E0.01591
G1 X111.531 Y117.705 E0.02058
G1 X111.241 Y118.001 E0.01825
G1 X111.017 Y118.286 E0.01591
G1 X110.776 Y118.686 E0.02058
G1 X110.627 Y119.016 E0.01591
G1 X110.501 Y119.410 E0.01825
G1 X110.423 Y119.818 E0.01825
G1 X110.398 Y120.172 E0.01561
G1 E-0.08000 F3000.00000
G1 F16800.000
G1 X110.423 Y120.698 E-0.08944
G1 X110.501 Y121.106 E-0.07034
G1 X110.608 Y121.451 E-0.06135
G1 X110.800 Y121.877 E-0.07933
G1 X111.017 Y122.230 E-0.07034
G1 X111.276 Y122.555 E-0.07034
G1 X111.531 Y122.811 E-0.06135
G1 X111.856 Y123.069 E-0.07034
G1 X112.256 Y123.311 E-0.07933
G1 X112.427 Y123.388 E-0.03181
G1 E-0.03600 F3000.00000
G1 X127.806 Y113.679 F21000.000
G1 E0.80000 F2100.00000
G1 F2400.000
G1 X100.101 Y113.679 E1.21914
G1 X100.101 Y114.236 E0.02451
G1 X127.555 Y114.236 E1.20810
G1 X127.555 Y114.793 E0.02451
G1 X100.101 Y114.793 E1.20810
G1 X100.101 Y115.350 E0.02451
G1 X127.555 Y115.350 E1.20810
G1 X127.555 Y115.907 E0.02451
G1 X100.101 Y115.907 E1.20810
G1 X100.101 Y116.464 E0.02451
G1 X128.941 Y116.464 E1.26911
G1 X128.941 Y117.021 E0.02451
G1 X115.641 Y117.021 E0.58529
G1 X116.392 Y117.578 E0.04115
G1 X128.941 Y117.578 E0.55224
G1 X128.941 Y118.136 E0.02451
G1 X116.874 Y118.136 E0.53103
G1 X117.190 Y118.693 E0.02817
G1 X128.941 Y118.693 E0.51714
G1 X128.941 Y119.250 E0.02451
G1 X117.398 Y119.250 E0.50799
G1 X117.513 Y119.807 E0.02504
G1 X128.941 Y119.807 E0.50291
G1 X128.941 Y120.364 E0.02451
G1 X117.536 Y120.364 E0.50189
G1 X117.476 Y120.921 E0.02466
G1 X131.714 Y120.921 E0.62655
G1 X131.714 Y121.478 E0.02451
G1 X117.332 Y121.478 E0.63291
G1 X117.086 Y122.035 E0.02678
G1 X131.714 Y122.035 E0.64370
G1 X131.714 Y122.592 E0.02451
G1 X116.710 Y122.592 E0.66028
G1 X116.150 Y123.149 E0.03475
G1 X131.714 Y123.149 E0.68492
G1 X131.714 Y123.706 E0.02451
G1 X115.200 Y123.706 E0.72670
G1 X114.683 Y123.871 E0.02390
G1 X113.793 Y123.970 E0.03938
G1 X112.974 Y123.871 E0.03633
G1 X112.456 Y123.706 E0.02390
G1 X95.942 Y123.706 E0.72670
G1 X95.942 Y123.149 E0.02451
G1 X111.507 Y123.149 E0.68492
G1 X110.947 Y122.592 E0.03475
G1 X95.942 Y122.592 E0.66028
G1 X95.942 Y122.035 E0.02451
G1 X110.570 Y122.035 E0.64370
G1 X110.325 Y121.478 E0.02678
G1 X95.942 Y121.478 E0.63291
G1 X95.942 Y120.921 E0.02451
G1 X110.180 Y120.921 E0.62655
G1 X110.120 Y120.364 E0.02466
G1 X98.715 Y120.364 E0.50189
G1 X98.715 Y119.807 E0.02451
G1 X110.144 Y119.807 E0.50291
G1 X110.259 Y119.250 E0.02504
G1 X98.715 Y119.250 E0.50799
G1 X98.715 Y118.693 E0.02451
G1 X110.467 Y118.693 E0.51715
G1 X110.783 Y118.136 E0.02817
G1 X98.715 Y118.136 E0.53103
G1 X98.715 Y117.734 E0.01766
G1 X100.101 Y117.734 E0.06101
G1 X100.101 Y117.578 E0.00685
G1 X111.265 Y117.578 E0.49123
G1 X112.016 Y117.021 E0.04115
G1 X99.851 Y117.021 E0.53532
G1 E-0.08000 F3000.00000
G1 F16800.000
G1 X103.883 Y117.021 E-0.68400
G1 E-0.03600 F3000.00000
G1 X131.965 Y124.263 F21000.000
G1 E0.80000 F2100.00000
G1 F2400.000
G1 X95.942 Y124.263 E1.58518
G1 X95.942 Y124.820 E0.02451
G1 X131.714 Y124.820 E1.57414
G1 X131.714 Y125.378 E0.02451
G1 X95.942 Y125.378 E1.57414
G1 X95.942 Y125.935 E0.02451
G1 X131.714 Y125.935 E1.57414
G1 X131.714 Y126.492 E0.02451
G1 X95.942 Y126.492 E1.57414
G1 X95.942 Y127.049 E0.02451
G1 X131.714 Y127.049 E1.57414
G1 X131.714 Y127.606 E0.02451
G1 X95.942 Y127.606 E1.57414
G1 X95.942 Y128.163 E0.02451
G1 X131.714 Y128.163 E1.57414
G1 X131.714 Y128.720 E0.02451
G1 X95.942 Y128.720 E1.57414
G1 X95.942 Y129.277 E0.02451
G1 X131.714 Y129.277 E1.57414
G1 X131.714 Y129.834 E0.02451
G1 X95.692 Y129.834 E1.58518
G1 E-0.08000 F3000.00000
G1 F16800.000
G1 X99.724 Y129.834 E-0.68400
G1 E-0.03600 F3000.00000
G1 X113.314 Y120.528 F21000.000
G1 E0.80000 F2100.00000
; custom gcode: feature_gcode
;Perimeter                        ;  Perimeter
M204 P1000 T5000
; custom gcode end: feature_gcode

;TYPE:Perimeter
G1 F1800.000
G1 X113.252 Y120.328 E0.00921
G1 X113.265 Y120.119 E0.00921
G1 X113.351 Y119.928 E0.00921
G1 X113.443 Y119.824 E0.00616
G1 X113.559 Y119.744 E0.00616
G1 X113.689 Y119.695 E0.00616
G1 X113.828 Y119.678 E0.00616
G1 X114.034 Y119.715 E0.00921
G1 X114.213 Y119.824 E0.00921
G1 X114.342 Y119.988 E0.00921
G1 X114.404 Y120.188 E0.00921
G1 X114.404 Y120.328 E0.00616
G1 X114.371 Y120.464 E0.00616
G1 X114.263 Y120.643 E0.00921
G1 X114.098 Y120.772 E0.00921
G1 X113.898 Y120.834 E0.00921
G1 X113.689 Y120.821 E0.00921
G1 X113.499 Y120.736 E0.00921
G1 X113.345 Y120.579 E0.00964
G1 X112.873 Y120.875 F21000.000
G1 F2243.072
G1 X112.764 Y120.662 E0.01053
G1 X112.698 Y120.395 E0.01208
G1 X112.698 Y120.121 E0.01208
G1 X112.723 Y119.986 E0.00605
G1 X112.820 Y119.729 E0.01208
G1 X112.891 Y119.611 E0.00605
G1 X113.073 Y119.406 E0.01208
G1 X113.182 Y119.321 E0.00605
G1 X113.299 Y119.250 E0.00605
G1 X113.556 Y119.153 E0.01208
G1 X113.828 Y119.120 E0.01208
G1 X114.101 Y119.153 E0.01208
G1 X114.357 Y119.250 E0.01208
G1 X114.475 Y119.321 E0.00605
G1 X114.583 Y119.406 E0.00605
G1 X114.765 Y119.611 E0.01208
G1 X114.893 Y119.854 E0.01208
G1 X114.934 Y119.986 E0.00605
G1 X114.958 Y120.121 E0.00605
G1 X114.958 Y120.395 E0.01208
G1 X114.893 Y120.662 E0.01208
G1 X114.783 Y120.875 E0.01053
G1 X114.680 Y121.013 E0.00759
G1 X114.475 Y121.195 E0.01208
G1 X114.357 Y121.266 E0.00605
G1 X114.101 Y121.363 E0.01208
G1 X113.966 Y121.388 E0.00605
G1 X113.691 Y121.388 E0.01208
G1 X113.425 Y121.322 E0.01208
G1 X113.299 Y121.266 E0.00605
G1 X113.073 Y121.110 E0.01208
G1 X112.907 Y120.924 E0.01099
G1 X112.468 Y121.268 F21000.000
G1 F2400.000
G1 X112.326 Y121.046 E0.01158
G1 X112.181 Y120.664 E0.01800
G1 X112.144 Y120.463 E0.00902
G1 X112.144 Y120.054 E0.01800
G1 X112.242 Y119.656 E0.01800
G1 X112.432 Y119.294 E0.01800
G1 X112.703 Y118.988 E0.01800
G1 X112.865 Y118.862 E0.00902
G1 X113.040 Y118.756 E0.00902
G1 X113.422 Y118.611 E0.01800
G1 X113.828 Y118.561 E0.01800
G1 X114.234 Y118.611 E0.01800
G1 X114.617 Y118.756 E0.01800
G1 X114.792 Y118.862 E0.00902
G1 X114.953 Y118.988 E0.00902
G1 X115.225 Y119.294 E0.01800
G1 X115.415 Y119.656 E0.01800
G1 X115.476 Y119.852 E0.00902
G1 X115.512 Y120.054 E0.00902
G1 X115.512 Y120.463 E0.01800
G1 X115.415 Y120.860 E0.01800
G1 X115.331 Y121.046 E0.00902
G1 X115.098 Y121.383 E0.01800
G1 X114.792 Y121.654 E0.01800
G1 X114.617 Y121.760 E0.00902
G1 X114.234 Y121.905 E0.01800
G1 X114.033 Y121.942 E0.00902
G1 X113.624 Y121.942 E0.01800
G1 X113.227 Y121.844 E0.01800
G1 X113.040 Y121.760 E0.00902
G1 X112.703 Y121.528 E0.01800
G1 X112.505 Y121.315 E0.01280
G1 X112.067 Y121.659 F21000.000
; custom gcode: feature_gcode
;ExternalPerimeter                   ;  ExternalPerimeter
M204 P750 T5000
; custom gcode end: feature_gcode

;TYPE:External perimeter
G1 F2400.000
G1 X111.832 Y121.306 E0.01865
G1 X111.720 Y121.058 E0.01198
G1 X111.639 Y120.798 E0.01198
G1 X111.590 Y120.530 E0.01198
G1 X111.574 Y120.258 E0.01198
G1 X111.590 Y119.986 E0.01198
G1 X111.639 Y119.718 E0.01198
G1 X111.720 Y119.459 E0.01198
G1 X111.832 Y119.210 E0.01198
G1 X111.973 Y118.977 E0.01198
G1 X112.141 Y118.763 E0.01198
G1 X112.333 Y118.570 E0.01198
G1 X112.548 Y118.402 E0.01198
G1 X112.781 Y118.262 E0.01198
G1 X113.029 Y118.150 E0.01198
G1 X113.289 Y118.069 E0.01198
G1 X113.557 Y118.020 E0.01198
G1 X113.828 Y118.003 E0.01198
G1 X114.100 Y118.020 E0.01198
G1 X114.368 Y118.069 E0.01198
G1 X114.628 Y118.150 E0.01198
G1 X114.876 Y118.262 E0.01198
G1 X115.109 Y118.402 E0.01198
G1 X115.323 Y118.570 E0.01198
G1 X115.516 Y118.763 E0.01198
G1 X115.684 Y118.977 E0.01198
G1 X115.825 Y119.210 E0.01198
G1 X115.936 Y119.459 E0.01198
G1 X116.017 Y119.718 E0.01198
G1 X116.067 Y119.986 E0.01198
G1 X116.083 Y120.258 E0.01198
G1 X116.067 Y120.530 E0.01198
G1 X116.017 Y120.798 E0.01198
G1 X115.936 Y121.058 E0.01198
G1 X115.825 Y121.306 E0.01198
G1 X115.684 Y121.539 E0.01198
G1 X115.516 Y121.753 E0.01198
G1 X115.323 Y121.946 E0.01198
G1 X115.109 Y122.114 E0.01198
G1 X114.876 Y122.254 E0.01198
G1 X114.628 Y122.366 E0.01198
G1 X114.368 Y122.447 E0.01198
G1 X114.100 Y122.496 E0.01198
G1 X113.828 Y122.513 E0.01198
G1 X113.557 Y122.496 E0.01198
G1 X113.289 Y122.447 E0.01198
G1 X113.029 Y122.366 E0.01198
G1 X112.781 Y122.254 E0.01198
G1 X112.548 Y122.114 E0.01198
G1 X112.333 Y121.946 E0.01198
G1 X112.104 Y121.706 E0.01461
G1 X112.225 Y121.291 F21000.000
; stop printing object cat.stl id:0 copy 0
; printing object tail.stl id:3 copy 0
G1 E-0.08000 F3000.00000
G1 F16800.000
G1 X111.832 Y121.306 E-0.08204
G1 X111.720 Y121.058 E-0.04619
G1 X111.639 Y120.798 E-0.04619
G1 X111.590 Y120.530 E-0.04619
G1 X111.574 Y120.258 E-0.04619
G1 X111.590 Y119.986 E-0.04619
G1 X111.639 Y119.718 E-0.04619
