G10 P0 R210 S210 ; sets the standby temperature
; generated by SuperSlicer 2.3.55 on 2023-12-10 at 10:59:44 UTC

; TODO: check the size of the extruder and the y-bar clearance. Optimize & test supports.

; external perimeters extrusion width = 0.60mm
; perimeters extrusion width = 0.60mm
; infill extrusion width = 0.80mm
; solid infill extrusion width = 0.50mm
; top infill extrusion width = 0.30mm
; first layer extrusion width = 0.60mm

; object:{"name":"drawer-outside","id":"drawer-outside.stl id:0 copy 0","object_center":[125.000000,101.328428,0.000000],"boundingbox_center":[125.000000,101.328428,5.500000],"boundingbox_size":[170.000000,17.585787,11.000000]}
; object:{"name":"drawer-inside","id":"drawer-inside.stl id:1 copy 0","object_center":[125.000000,122.207107,0.000000],"boundingbox_center":[125.000000,122.207107,5.500000],"boundingbox_size":[170.000000,23.171574,11.000000]}
; object:{"name":"drawer-inside","id":"drawer-inside.stl id:2 copy 0","object_center":[125.000000,145.878679,0.000000],"boundingbox_center":[125.000000,145.878679,5.500000],"boundingbox_size":[170.000000,23.171574,11.000000]}
; plater:{"center":[125.000000,125.000000,0.000000],"boundingbox_center":[125.000000,125.000000,5.500000],"boundingbox_size":[170.000000,64.928931,11.000000]}

;TYPE:Custom
; custom gcode: start_gcode
M106 P4 S255
M140 S60 ; set bed final temp
M104 S210 ; set extruder final temp
M190 S60 ; wait for bed final temp
M109 S210 ; wait for extruder final temp
;G29
G28
;M98 P"/macros/nozzle/brush.g"
;PRINT_START

G92 E0 ;Reset Extruder
;;G1 Z2.0 F3000 ;Move Z Axis up


G1 X100 Y4.6 Z0.3 F18000.0 ; Move to side a little

G1 X5 Y4.6 Z0.3 F1500.0 E10 ; Draw the second line

G1 X5 Y4.2 Z0.3 F1500.0 E10 ; Draw the third line

G1 X100 Y4.2 Z0.3 F1500.0 E10 ; Draw the third line


;G92 E0;		Reset extruder
;G1 X1 Y10 F6000;
;G1 Z1.7;
;G1 X1 Y60 E140 F50;
;G1 E-<DESTRING> F1500;
;G1 Z4
;G1 X<NEXTX> Y<NEXTY> F12000;
;G92 E0 ;Reset Extruder

;G1 Z2.0 F3000 ;Move Z Axis up
; custom gcode end: start_gcode
M107
G21 ; set units to millimeters
G90 ; use absolute coordinates
M83 ; use relative distances for extrusion
; custom gcode: start_filament_gcode
; Filament gcode
M572 D0 S0.025
; custom gcode end: start_filament_gcode
;LAYER_CHANGE
;Z:0.2
;HEIGHT:0.2
; custom gcode: before_layer_gcode
;BEFORE_LAYER_CHANGE
;0.2

; custom gcode end: before_layer_gcode

G1 Z0.200000 F21000.000
; custom gcode: layer_gcode
;AFTER_LAYER_CHANGE
;0.2
; custom gcode end: layer_gcode

G1 E-0.80000 F3000.00000
G1 Z1.000000 F21000.000
G1 X38.000 Y92.547
G1 Z0.200000
G1 E0.80000 F2100.00000
; custom gcode: feature_gcode
;Skirt
M204 P2000 T5000
; custom gcode end: feature_gcode

;TYPE:Skirt
G1 F2400.000
M204 P1200
G1 X38.946 Y92.302 E0.04302
G1 X39.920 Y92.218 E0.04302
G1 X210.074 Y92.218 E7.48766
G1 X211.189 Y92.326 E0.04930
G1 X212.268 Y92.648 E0.04956
G1 X213.260 Y93.168 E0.04930
G1 X214.135 Y93.868 E0.04930
G1 X214.860 Y94.723 E0.04930
G1 X215.408 Y95.700 E0.04930
G1 X215.759 Y96.763 E0.04930
G1 X215.901 Y97.881 E0.04956
G1 X215.891 Y152.328 E2.39599
G1 X215.773 Y153.173 E0.03752
G1 X215.534 Y153.991 E0.03752
G1 X215.177 Y154.766 E0.03752
G1 X214.716 Y155.476 E0.03726
G1 X214.152 Y156.115 E0.03752
G1 X213.506 Y156.662 E0.03726
G1 X212.782 Y157.113 E0.03752
G1 X212.000 Y157.453 E0.03752
G1 X211.054 Y157.698 E0.04302
G1 X210.080 Y157.782 E0.04302
G1 X39.813 Y157.781 E7.49265
G1 X38.928 Y157.695 E0.03909
G1 X38.073 Y157.478 E0.03883
G1 X37.260 Y157.135 E0.03883
G1 X36.509 Y156.673 E0.03883
G1 X35.831 Y156.098 E0.03909
G1 X35.252 Y155.432 E0.03883
G1 X34.780 Y154.687 E0.03883
G1 X34.425 Y153.879 E0.03883
G1 X34.182 Y152.944 E0.04250
G1 X34.096 Y151.982 E0.04250
G1 X34.106 Y97.713 E2.38811
G1 X34.219 Y96.862 E0.03778
G1 X34.454 Y96.042 E0.03752
G1 X34.805 Y95.266 E0.03752
G1 X35.270 Y94.543 E0.03778
G1 X35.835 Y93.897 E0.03778
G1 X36.490 Y93.341 E0.03778
G1 X37.218 Y92.887 E0.03778
G1 X37.945 Y92.571 E0.03488
G1 X38.166 Y93.082 F21000.000
G1 F2400.000
G1 X39.046 Y92.850 E0.04005
G1 X39.922 Y92.775 E0.03867
G1 X210.074 Y92.775 E7.48758
G1 X211.083 Y92.873 E0.04464
G1 X212.055 Y93.163 E0.04464
G1 X212.959 Y93.637 E0.04489
G1 X213.750 Y94.271 E0.04464
G1 X214.406 Y95.046 E0.04464
G1 X214.903 Y95.936 E0.04489
G1 X215.220 Y96.906 E0.04489
G1 X215.345 Y97.913 E0.04464
G1 X215.337 Y152.264 E2.39176
G1 X215.233 Y153.034 E0.03419
G1 X215.018 Y153.781 E0.03419
G1 X214.695 Y154.487 E0.03419
G1 X214.275 Y155.134 E0.03394
G1 X213.766 Y155.714 E0.03394
G1 X213.173 Y156.216 E0.03419
G1 X212.513 Y156.625 E0.03419
G1 X211.799 Y156.933 E0.03419
G1 X210.954 Y157.150 E0.03842
G1 X210.078 Y157.225 E0.03867
G1 X39.836 Y157.224 E7.49158
G1 X39.034 Y157.148 E0.03543
G1 X38.259 Y156.953 E0.03518
G1 X37.522 Y156.643 E0.03518
G1 X36.835 Y156.221 E0.03543
G1 X36.221 Y155.701 E0.03543
G1 X35.693 Y155.093 E0.03543
G1 X35.267 Y154.416 E0.03518
G1 X34.945 Y153.678 E0.03543
G1 X34.729 Y152.838 E0.03817
G1 X34.654 Y151.974 E0.03817
G1 X34.661 Y97.770 E2.38527
G1 X34.760 Y96.999 E0.03419
G1 X34.973 Y96.246 E0.03444
G1 X35.292 Y95.538 E0.03419
G1 X35.715 Y94.879 E0.03444
G1 X36.230 Y94.290 E0.03444
G1 X36.823 Y93.788 E0.03419
G1 X37.482 Y93.378 E0.03419
G1 X38.111 Y93.106 E0.03015
; printing object drawer-outside.stl id:0 copy 0
G1 E-0.08000 F3000.00000
G1 F16800.000
G1 X39.046 Y92.850 E-0.16448
G1 X39.922 Y92.775 E-0.14908
G1 X42.106 Y92.775 E-0.37044
G1 E-0.03600 F3000.00000
G1 Z0.600000 F21000.000
G1 X81.181 Y100.651
G1 Z0.200000
G1 E0.80000 F2100.00000
; custom gcode: feature_gcode
;Perimeter                        ;  Perimeter
M204 P1000 T5000
; custom gcode end: feature_gcode

;TYPE:Perimeter
G1 F2400.000
G1 X81.265 Y100.225 E0.01911
G1 X168.735 Y100.225 E3.84912
G1 X168.819 Y100.651 E0.01911
G1 X168.155 Y100.926 E0.03165
G1 X167.391 Y101.512 E0.04239
G1 X166.804 Y102.276 E0.04239
G1 X166.436 Y103.166 E0.04239
G1 X166.310 Y104.121 E0.04239
G1 X166.436 Y105.076 E0.04239
G1 X166.804 Y105.966 E0.04239
G1 X167.391 Y106.731 E0.04239
G1 X168.155 Y107.317 E0.04239
G1 X168.819 Y107.592 E0.03165
G1 X168.735 Y108.018 E0.01911
G1 X81.265 Y108.018 E3.84912
G1 X81.181 Y107.592 E0.01911
G1 X81.845 Y107.317 E0.03165
G1 X82.609 Y106.731 E0.04239
G1 X83.196 Y105.966 E0.04239
G1 X83.564 Y105.076 E0.04239
G1 X83.690 Y104.121 E0.04239
G1 X83.564 Y103.166 E0.04239
G1 X83.196 Y102.276 E0.04239
G1 X82.609 Y101.512 E0.04239
G1 X81.845 Y100.926 E0.04239
G1 X81.236 Y100.673 E0.02901
G1 E-0.08000 F3000.00000
G1 F16800.000
G1 X81.265 Y100.225 E-0.07632
G1 X84.847 Y100.225 E-0.60768
G1 E-0.03600 F3000.00000
G1 X166.872 Y104.121 F21000.000
G1 E0.80000 F2100.00000
G1 F2400.000
G1 X166.979 Y104.931 E0.03593
G1 X167.291 Y105.685 E0.03593
G1 X167.788 Y106.333 E0.03593
G1 X168.436 Y106.830 E0.03593
G1 X169.190 Y107.143 E0.03593
G1 X170.000 Y107.249 E0.03593
G1 X170.810 Y107.143 E0.03593
G1 X171.564 Y106.830 E0.03593
G1 X172.212 Y106.333 E0.03593
G1 X172.709 Y105.685 E0.03593
G1 X173.021 Y104.931 E0.03593
G1 X173.128 Y104.121 E0.03593
G1 X173.021 Y103.312 E0.03593
G1 X172.709 Y102.557 E0.03593
G1 X172.212 Y101.909 E0.03593
G1 X171.564 Y101.412 E0.03593
G1 X170.810 Y101.100 E0.03593
G1 X170.000 Y100.993 E0.03593
G1 X169.190 Y101.100 E0.03593
G1 X168.436 Y101.412 E0.03593
G1 X167.788 Y101.909 E0.03593
G1 X167.291 Y102.557 E0.03593
G1 X166.979 Y103.312 E0.03593
G1 X166.880 Y104.062 E0.03329
G1 X167.434 Y104.121 F21000.000
G1 F2400.000
G1 X167.521 Y104.785 E0.02948
G1 X167.778 Y105.404 E0.02948
G1 X168.185 Y105.936 E0.02948
G1 X168.717 Y106.344 E0.02948
G1 X169.336 Y106.600 E0.02948
G1 X170.000 Y106.688 E0.02948
G1 X170.664 Y106.600 E0.02948
G1 X171.283 Y106.344 E0.02948
G1 X171.815 Y105.936 E0.02948
G1 X172.222 Y105.404 E0.02948
G1 X172.479 Y104.785 E0.02948
G1 X172.566 Y104.121 E0.02948
G1 X172.479 Y103.457 E0.02948
G1 X172.222 Y102.838 E0.02948
G1 X171.815 Y102.307 E0.02948
G1 X171.283 Y101.899 E0.02948
G1 X170.664 Y101.643 E0.02948
G1 X170.000 Y101.555 E0.02948
G1 X169.336 Y101.643 E0.02948
G1 X168.717 Y101.899 E0.02948
G1 X168.185 Y102.307 E0.02948
G1 X167.778 Y102.838 E0.02948
G1 X167.521 Y103.457 E0.02948
G1 X167.442 Y104.062 E0.02684
G1 X167.996 Y104.121 F21000.000
; custom gcode: feature_gcode
;ExternalPerimeter                   ;  ExternalPerimeter
M204 P750 T5000
; custom gcode end: feature_gcode

;TYPE:External perimeter
G1 F2400.000
G1 X168.064 Y104.640 E0.02302
G1 X168.264 Y105.123 E0.02302
G1 X168.583 Y105.539 E0.02303
G1 X168.998 Y105.857 E0.02302
G1 X169.481 Y106.057 E0.02302
G1 X170.000 Y106.126 E0.02302
G1 X170.519 Y106.057 E0.02302
G1 X171.002 Y105.857 E0.02302
G1 X171.417 Y105.539 E0.02302
G1 X171.736 Y105.123 E0.02303
G1 X171.936 Y104.640 E0.02302
G1 X172.004 Y104.121 E0.02302
G1 X171.936 Y103.603 E0.02302
G1 X171.736 Y103.119 E0.02302
G1 X171.417 Y102.704 E0.02303
G1 X171.002 Y102.386 E0.02302
G1 X170.519 Y102.185 E0.02302
G1 X170.000 Y102.117 E0.02302
G1 X169.481 Y102.185 E0.02302
G1 X168.998 Y102.386 E0.02302
G1 X168.583 Y102.704 E0.02302
G1 X168.264 Y103.119 E0.02303
G1 X168.064 Y103.603 E0.02302
G1 X168.004 Y104.062 E0.02038
G1 X167.658 Y104.336 F21000.000
G1 E-0.08000 F3000.00000
G1 F16800.000
G1 X168.064 Y104.640 E-0.09863
G1 X168.264 Y105.123 E-0.08876
G1 X168.583 Y105.539 E-0.08876
G1 X168.998 Y105.857 E-0.08876
G1 X169.481 Y106.057 E-0.08876
G1 X170.000 Y106.126 E-0.08876
G1 X170.519 Y106.057 E-0.08876
G1 X170.806 Y105.938 E-0.05280
G1 E-0.03600 F3000.00000
G1 X171.181 Y100.651 F21000.000
G1 E0.80000 F2100.00000
; custom gcode: feature_gcode
;Perimeter                        ;  Perimeter
M204 P1000 T5000
; custom gcode end: feature_gcode

;TYPE:Perimeter
G1 F2400.000
G1 X171.265 Y100.225 E0.01911
G1 X207.897 Y100.225 E1.61198
G1 X207.897 Y108.018 E0.34296
G1 X171.265 Y108.018 E1.61198
G1 X171.181 Y107.592 E0.01911
G1 X171.845 Y107.317 E0.03165
G1 X172.609 Y106.731 E0.04239
G1 X173.196 Y105.966 E0.04239
G1 X173.564 Y105.076 E0.04239
G1 X173.690 Y104.121 E0.04239
G1 X173.564 Y103.166 E0.04239
G1 X173.196 Y102.276 E0.04239
G1 X172.609 Y101.512 E0.04239
G1 X171.845 Y100.926 E0.04239
G1 X171.236 Y100.673 E0.02901
G1 E-0.08000 F3000.00000
G1 F16800.000
G1 X171.265 Y100.225 E-0.07632
G1 X174.847 Y100.225 E-0.60768
G1 E-0.03600 F3000.00000
G1 X83.128 Y104.121 F21000.000
G1 E0.80000 F2100.00000
G1 F2400.000
G1 X83.021 Y103.312 E0.03593
G1 X82.709 Y102.557 E0.03593
G1 X82.212 Y101.909 E0.03593
G1 X81.564 Y101.412 E0.03593
G1 X80.810 Y101.100 E0.03593
G1 X80.000 Y100.993 E0.03593
G1 X79.190 Y101.100 E0.03593
G1 X78.436 Y101.412 E0.03593
G1 X77.788 Y101.909 E0.03593
G1 X77.291 Y102.557 E0.03593
G1 X76.979 Y103.312 E0.03593
G1 X76.872 Y104.121 E0.03593
G1 X76.979 Y104.931 E0.03593
G1 X77.291 Y105.685 E0.03593
G1 X77.788 Y106.333 E0.03593
G1 X78.436 Y106.830 E0.03593
G1 X79.190 Y107.143 E0.03593
G1 X80.000 Y107.249 E0.03593
G1 X80.810 Y107.143 E0.03593
G1 X81.564 Y106.830 E0.03593
G1 X82.212 Y106.333 E0.03593
G1 X82.709 Y105.685 E0.03593
G1 X83.021 Y104.931 E0.03593
G1 X83.120 Y104.181 E0.03329
G1 X82.566 Y104.121 F21000.000
G1 F2400.000
G1 X82.479 Y103.457 E0.02948
G1 X82.222 Y102.838 E0.02948
G1 X81.815 Y102.307 E0.02948
G1 X81.283 Y101.899 E0.02948
G1 X80.664 Y101.643 E0.02948
G1 X80.000 Y101.555 E0.02948
G1 X79.336 Y101.643 E0.02948
G1 X78.717 Y101.899 E0.02948
G1 X78.185 Y102.307 E0.02948
G1 X77.778 Y102.838 E0.02948
G1 X77.521 Y103.457 E0.02948
G1 X77.434 Y104.121 E0.02948
G1 X77.521 Y104.785 E0.02948
G1 X77.778 Y105.404 E0.02948
G1 X78.185 Y105.936 E0.02948
G1 X78.717 Y106.344 E0.02948
G1 X79.336 Y106.600 E0.02948
G1 X80.000 Y106.688 E0.02948
G1 X80.664 Y106.600 E0.02948
G1 X81.283 Y106.344 E0.02948
G1 X81.815 Y105.936 E0.02948
G1 X82.222 Y105.404 E0.02948
G1 X82.479 Y104.785 E0.02948
G1 X82.558 Y104.181 E0.02684
G1 X82.004 Y104.121 F21000.000
; custom gcode: feature_gcode
;ExternalPerimeter                   ;  ExternalPerimeter
M204 P750 T5000
; custom gcode end: feature_gcode

;TYPE:External perimeter
G1 F2400.000
G1 X81.936 Y103.603 E0.02302
G1 X81.736 Y103.119 E0.02302
G1 X81.417 Y102.704 E0.02302
G1 X81.002 Y102.386 E0.02302
G1 X80.519 Y102.185 E0.02302
G1 X80.000 Y102.117 E0.02302
G1 X79.481 Y102.185 E0.02302
G1 X78.998 Y102.386 E0.02302
G1 X78.583 Y102.704 E0.02302
G1 X78.264 Y103.119 E0.02302
G1 X78.064 Y103.603 E0.02302
G1 X77.996 Y104.121 E0.02302
G1 X78.064 Y104.640 E0.02302
G1 X78.264 Y105.123 E0.02302
G1 X78.583 Y105.539 E0.02302
G1 X78.998 Y105.857 E0.02302
G1 X79.481 Y106.057 E0.02302
G1 X80.000 Y106.126 E0.02302
G1 X80.519 Y106.057 E0.02302
G1 X81.002 Y105.857 E0.02302
G1 X81.417 Y105.539 E0.02302
G1 X81.736 Y105.123 E0.02302
G1 X81.936 Y104.640 E0.02302
G1 X81.996 Y104.181 E0.02038
G1 X82.342 Y103.906 F21000.000
G1 E-0.08000 F3000.00000
G1 F16800.000
G1 X81.936 Y103.603 E-0.09863
G1 X81.736 Y103.119 E-0.08876
G1 X81.417 Y102.704 E-0.08876
G1 X81.002 Y102.386 E-0.08876
G1 X80.519 Y102.185 E-0.08876
G1 X80.000 Y102.117 E-0.08876
G1 X79.481 Y102.185 E-0.08876
G1 X79.194 Y102.304 E-0.05280
G1 E-0.03600 F3000.00000
G1 X78.819 Y107.592 F21000.000
G1 E0.80000 F2100.00000
; custom gcode: feature_gcode
;Perimeter                        ;  Perimeter
M204 P1000 T5000
; custom gcode end: feature_gcode

;TYPE:Perimeter
G1 F2400.000
G1 X78.735 Y108.018 E0.01911
G1 X42.103 Y108.018 E1.61198
G1 X42.103 Y100.225 E0.34296
G1 X78.735 Y100.225 E1.61198
G1 X78.819 Y100.651 E0.01911
G1 X78.155 Y100.926 E0.03165
G1 X77.391 Y101.512 E0.04239
G1 X76.804 Y102.276 E0.04239
G1 X76.436 Y103.166 E0.04239
G1 X76.310 Y104.121 E0.04239
G1 X76.436 Y105.076 E0.04239
G1 X76.804 Y105.966 E0.04239
G1 X77.391 Y106.731 E0.04239
G1 X78.155 Y107.317 E0.04239
G1 X78.764 Y107.569 E0.02901
G1 E-0.08000 F3000.00000
G1 F16800.000
G1 X78.735 Y108.018 E-0.07632
G1 X75.153 Y108.018 E-0.60768
G1 E-0.03600 F3000.00000
G1 X41.546 Y108.575 F21000.000
G1 E0.80000 F2100.00000
G1 F2400.000
G1 X41.546 Y99.667 E0.39199
G1 X208.454 Y99.667 E7.34482
G1 X208.454 Y108.575 E0.39199
G1 X41.606 Y108.575 E7.34218
G1 X40.989 Y109.132 F21000.000
G1 F2400.000
G1 X40.989 Y99.110 E0.44102
G1 X209.011 Y99.110 E7.39385
G1 X209.011 Y109.132 E0.44102
G1 X41.049 Y109.132 E7.39121
G1 X40.432 Y109.689 F21000.000
; custom gcode: feature_gcode
;ExternalPerimeter                   ;  ExternalPerimeter
M204 P750 T5000
; custom gcode end: feature_gcode

;TYPE:External perimeter
G1 F2400.000
G1 X40.432 Y98.553 E0.49004
G1 X209.568 Y98.553 E7.44288
G1 X209.568 Y109.689 E0.49004
G1 X40.492 Y109.689 E7.44024
G1 X40.632 Y109.343 F21000.000
G1 E-0.08000 F3000.00000
G1 F16800.000
G1 X40.470 Y105.657 E-0.68400
G1 E-0.03600 F3000.00000
G1 X76.226 Y100.408 F21000.000
G1 E0.80000 F2100.00000
; custom gcode: feature_gcode
;SolidInfill                      ;  SolidInfill
M204 P2000 T5000
; custom gcode end: feature_gcode

;TYPE:Solid infill
G1 F6000.000
G1 X77.054 Y101.237 E0.05156
G1 X76.712 Y101.683 E0.02473
G1 X75.689 Y100.659 E0.06370
G1 X74.901 Y100.659 E0.03467
G1 X76.388 Y102.146 E0.09255
G1 X76.157 Y102.703 E0.02653
G1 X74.113 Y100.659 E0.12721
G1 X73.325 Y100.659 E0.03467
G1 X75.978 Y103.312 E0.16511
G1 X75.887 Y104.008 E0.03090
G1 X72.537 Y100.659 E0.20843
G1 X71.750 Y100.659 E0.03467
G1 X75.972 Y104.881 E0.26276
G1 X76.012 Y105.190 E0.01369
G1 X76.380 Y106.077 E0.04227
G1 X70.962 Y100.659 E0.33719
G1 X70.174 Y100.659 E0.03467
G1 X77.099 Y107.584 E0.43094
G1 X76.311 Y107.584 E0.03467
G1 X69.386 Y100.659 E0.43094
G1 X68.598 Y100.659 E0.03467
G1 X75.523 Y107.584 E0.43094
G1 X74.735 Y107.584 E0.03467
G1 X67.811 Y100.659 E0.43094
G1 X67.023 Y100.659 E0.03467
G1 X73.947 Y107.584 E0.43094
G1 X73.159 Y107.584 E0.03467
G1 X66.235 Y100.659 E0.43094
G1 X65.447 Y100.659 E0.03467
G1 X72.372 Y107.584 E0.43094
G1 X71.584 Y107.584 E0.03467
G1 X64.659 Y100.659 E0.43094
G1 X63.871 Y100.659 E0.03467
G1 X70.796 Y107.584 E0.43094
G1 X70.008 Y107.584 E0.03467
G1 X63.084 Y100.659 E0.43094
G1 X62.296 Y100.659 E0.03467
G1 X69.220 Y107.584 E0.43094
G1 X68.432 Y107.584 E0.03467
G1 X61.508 Y100.659 E0.43094
G1 X60.720 Y100.659 E0.03467
G1 X67.645 Y107.584 E0.43094
G1 X66.857 Y107.584 E0.03467
G1 X59.932 Y100.659 E0.43094
G1 X59.144 Y100.659 E0.03467
