G10 P0 R235 S235 ; sets the standby temperature
; generated by SuperSlicer 2.3.55 on 2023-09-14 at 16:35:36 UTC

; TODO: check the size of the extruder and the y-bar clearance. Optimize & test supports.

; external perimeters extrusion width = 0.39mm
; perimeters extrusion width = 0.40mm
; infill extrusion width = 0.60mm
; solid infill extrusion width = 0.60mm
; top infill extrusion width = 0.32mm
; first layer extrusion width = 0.45mm

; object:{"name":"exhaust_filter_grill","id":"exhaust_filter_grill.stl id:0 copy 0","object_center":[124.999996,125.000000,0.000000],"boundingbox_center":[124.999996,125.000000,2.800003],"boundingbox_size":[154.799988,37.600006,5.600006]}
; plater:{"center":[124.999996,125.000000,0.000000],"boundingbox_center":[124.999996,125.000000,2.800003],"boundingbox_size":[154.799988,37.600006,5.600006]}

;TYPE:Custom
; custom gcode: start_gcode
M106 P4 S255
M140 S95 ; set bed final temp
M104 S235 ; set extruder final temp
M190 S95 ; wait for bed final temp
M109 S235 ; wait for extruder final temp
;G29
G28
;M98 P"/macros/nozzle/brush.g"
;PRINT_START

G92 E0 ;Reset Extruder
;;G1 Z2.0 F3000 ;Move Z Axis up


G1 X100 Y4.6 Z0.3 F18000.0 ; Move to side a little

G1 X5 Y4.6 Z0.3 F1500.0 E10 ; Draw the second line

G1 X5 Y4.2 Z0.3 F1500.0 E10 ; Draw the third line

G1 X100 Y4.2 Z0.3 F1500.0 E10 ; Draw the third line


;G92 E0;		Reset extruder
;G1 X1 Y10 F6000;
;G1 Z1.7;
;G1 X1 Y60 E140 F50;
;G1 E-<DESTRING> F1500;
;G1 Z4
;G1 X<NEXTX> Y<NEXTY> F12000;
;G92 E0 ;Reset Extruder

;G1 Z2.0 F3000 ;Move Z Axis up
; custom gcode end: start_gcode
M107
G21 ; set units to millimeters
G90 ; use absolute coordinates
M83 ; use relative distances for extrusion
; custom gcode: start_filament_gcode
; Filament gcode
M572 D0 S0.07
; custom gcode end: start_filament_gcode
;LAYER_CHANGE
;Z:0.2
;HEIGHT:0.2
; custom gcode: before_layer_gcode
;BEFORE_LAYER_CHANGE
;0.2

; custom gcode end: before_layer_gcode

G1 Z0.200000 F18000.000
; custom gcode: layer_gcode
;AFTER_LAYER_CHANGE
;0.2
; custom gcode end: layer_gcode

G1 E-0.80000 F3000.00000
G1 Z1.000000 F18000.000
G1 X88.808 Y99.775
G1 Z0.200000
G1 E0.80000 F2100.00000
; custom gcode: feature_gcode
;Skirt
M204 P2000 T5000
; custom gcode end: feature_gcode

;TYPE:Skirt
G1 F2400.000
G1 X198.406 Y99.775 E3.41300
G1 X199.563 Y99.841 E0.03609
G1 X200.552 Y100.004 E0.03121
G1 X202.208 Y100.496 E0.05378
G1 X203.217 Y100.955 E0.03452
G1 X204.129 Y101.492 E0.03297
G1 X205.582 Y102.650 E0.05786
G1 X206.273 Y103.367 E0.03101
G1 X206.990 Y104.293 E0.03647
G1 X207.595 Y105.289 E0.03629
G1 X208.037 Y106.231 E0.03238
G1 X208.582 Y107.974 E0.05688
G1 X208.755 Y109.000 E0.03239
G1 X208.824 Y110.138 E0.03551
G1 X208.795 Y124.200 E0.43791
G1 X208.547 Y128.812 E0.14383
G1 X208.318 Y131.195 E0.07454
G1 X207.710 Y135.628 E0.13936
G1 X206.864 Y140.022 E0.13934
G1 X206.323 Y142.328 E0.07377
G1 X205.933 Y143.556 E0.04011
G1 X205.376 Y144.764 E0.04143
G1 X204.690 Y145.861 E0.04028
G1 X203.770 Y146.972 E0.04493
G1 X202.813 Y147.860 E0.04065
G1 X201.343 Y148.869 E0.05554
G1 X200.053 Y149.489 E0.04455
G1 X198.873 Y149.878 E0.03871
G1 X197.523 Y150.141 E0.04281
G1 X196.220 Y150.225 E0.04066
G1 X53.484 Y150.217 E4.44493
G1 X51.595 Y149.988 E0.05928
G1 X50.114 Y149.555 E0.04805
G1 X48.710 Y148.900 E0.04824
G1 X47.156 Y147.836 E0.05866
G1 X46.027 Y146.756 E0.04863
G1 X45.097 Y145.549 E0.04747
G1 X44.194 Y143.860 E0.05963
G1 X43.717 Y142.478 E0.04552
G1 X43.137 Y140.028 E0.07843
G1 X42.291 Y135.634 E0.13934
G1 X41.682 Y131.195 E0.13954
G1 X41.450 Y128.780 E0.07553
G1 X41.295 Y126.473 E0.07200
G1 X41.176 Y122.062 E0.13741
G1 X41.175 Y110.162 E0.37058
G1 X41.253 Y108.931 E0.03843
G1 X41.511 Y107.578 E0.04290
G1 X41.996 Y106.156 E0.04678
G1 X42.859 Y104.524 E0.05750
G1 X43.764 Y103.325 E0.04678
G1 X44.753 Y102.339 E0.04348
G1 X45.945 Y101.446 E0.04639
G1 X47.579 Y100.586 E0.05749
G1 X48.936 Y100.122 E0.04464
G1 X50.281 Y99.859 E0.04271
G1 X51.587 Y99.775 E0.04075
G1 X88.748 Y99.775 E1.15720
G1 X88.808 Y100.182 F18000.000
G1 F2400.000
G1 X198.406 Y100.182 E3.41299
G1 X199.523 Y100.246 E0.03485
G1 X200.478 Y100.404 E0.03012
G1 X202.054 Y100.873 E0.05122
G1 X203.029 Y101.316 E0.03333
G1 X203.909 Y101.835 E0.03183
G1 X205.299 Y102.942 E0.05535
G1 X205.962 Y103.630 E0.02974
G1 X206.655 Y104.524 E0.03522
G1 X207.236 Y105.480 E0.03485
G1 X207.664 Y106.395 E0.03145
G1 X208.185 Y108.063 E0.05441
G1 X208.352 Y109.053 E0.03126
G1 X208.418 Y110.158 E0.03448
G1 X208.388 Y124.194 E0.43711
G1 X208.142 Y128.776 E0.14289
G1 X207.914 Y131.145 E0.07410
G1 X207.308 Y135.559 E0.13874
G1 X206.892 Y137.877 E0.07335
G1 X205.933 Y142.209 E0.13817
G1 X205.558 Y143.398 E0.03884
G1 X205.023 Y144.560 E0.03982
G1 X204.365 Y145.615 E0.03872
G1 X203.482 Y146.685 E0.04321
G1 X202.563 Y147.539 E0.03907
G1 X201.134 Y148.520 E0.05397
G1 X199.893 Y149.115 E0.04285
G1 X198.752 Y149.489 E0.03738
G1 X197.467 Y149.738 E0.04078
G1 X196.220 Y149.818 E0.03889
G1 X53.512 Y149.811 E4.44405
G1 X51.683 Y149.590 E0.05739
G1 X50.257 Y149.174 E0.04624
G1 X48.912 Y148.546 E0.04624
G1 X47.407 Y147.516 E0.05680
G1 X46.326 Y146.481 E0.04661
G1 X45.435 Y145.323 E0.04549
G1 X44.565 Y143.693 E0.05755
G1 X44.106 Y142.357 E0.04397
G1 X43.536 Y139.946 E0.07718
G1 X42.693 Y135.565 E0.13893
G1 X42.086 Y131.145 E0.13893
G1 X41.856 Y128.752 E0.07485
G1 X41.702 Y126.457 E0.07165
G1 X41.583 Y122.064 E0.13685
G1 X41.582 Y110.170 E0.37039
G1 X41.653 Y109.010 E0.03617
G1 X41.900 Y107.697 E0.04162
G1 X42.365 Y106.328 E0.04500
G1 X43.199 Y104.747 E0.05567
G1 X44.070 Y103.593 E0.04501
G1 X45.021 Y102.646 E0.04181
G1 X46.163 Y101.790 E0.04444
G1 X47.751 Y100.955 E0.05586
G1 X49.056 Y100.512 E0.04294
G1 X50.344 Y100.261 E0.04087
G1 X51.588 Y100.182 E0.03880
G1 X88.748 Y100.182 E1.15719
G1 X88.808 Y100.589 F18000.000
G1 F2400.000
G1 X198.406 Y100.589 E3.41299
G1 X199.478 Y100.650 E0.03343
G1 X200.397 Y100.803 E0.02903
G1 X201.901 Y101.250 E0.04886
G1 X202.841 Y101.677 E0.03213
G1 X203.684 Y102.174 E0.03050
G1 X205.016 Y103.235 E0.05303
G1 X205.655 Y103.898 E0.02867
G1 X206.323 Y104.760 E0.03395
G1 X206.883 Y105.682 E0.03360
G1 X207.292 Y106.559 E0.03013
G1 X207.787 Y108.152 E0.05194
G1 X207.947 Y109.100 E0.02995
G1 X208.011 Y110.177 E0.03360
G1 X207.981 Y124.188 E0.43632
G1 X207.736 Y128.747 E0.14215
G1 X207.510 Y131.095 E0.07347
G1 X206.906 Y135.495 E0.13831
G1 X206.494 Y137.794 E0.07274
G1 X205.544 Y142.085 E0.13685
G1 X205.182 Y143.242 E0.03774
G1 X204.673 Y144.352 E0.03804
G1 X204.040 Y145.370 E0.03733
G1 X203.192 Y146.398 E0.04149
G1 X202.309 Y147.221 E0.03760
G1 X200.920 Y148.173 E0.05245
G1 X199.728 Y148.743 E0.04114
G1 X198.627 Y149.101 E0.03605
G1 X197.404 Y149.336 E0.03878
G1 X196.219 Y149.411 E0.03696
G1 X53.539 Y149.405 E4.44318
G1 X51.764 Y149.192 E0.05569
G1 X50.401 Y148.793 E0.04423
G1 X49.114 Y148.193 E0.04423
G1 X47.659 Y147.196 E0.05492
G1 X46.629 Y146.209 E0.04441
G1 X45.774 Y145.097 E0.04369
G1 X44.933 Y143.520 E0.05565
G1 X44.495 Y142.237 E0.04223
G1 X43.935 Y139.863 E0.07595
G1 X43.094 Y135.496 E0.13851
G1 X42.490 Y131.095 E0.13832
G1 X42.262 Y128.724 E0.07418
G1 X42.109 Y126.440 E0.07128
G1 X41.990 Y122.059 E0.13649
G1 X41.989 Y110.171 E0.37021
G1 X42.054 Y109.088 E0.03379
G1 X42.289 Y107.820 E0.04014
G1 X42.732 Y106.505 E0.04322
G1 X43.543 Y104.965 E0.05420
G1 X44.372 Y103.866 E0.04286
G1 X45.285 Y102.956 E0.04014
G1 X46.381 Y102.134 E0.04268
G1 X47.916 Y101.327 E0.05401
G1 X49.176 Y100.901 E0.04141
G1 X50.401 Y100.664 E0.03887
G1 X51.589 Y100.589 E0.03705
G1 X88.748 Y100.589 E1.15717
G1 X88.808 Y100.996 F18000.000
G1 F2400.000
G1 X198.406 Y100.996 E3.41298
G1 X199.438 Y101.055 E0.03220
G1 X200.323 Y101.203 E0.02794
G1 X201.749 Y101.628 E0.04633
G1 X202.653 Y102.038 E0.03093
G1 X203.465 Y102.517 E0.02935
G1 X204.732 Y103.527 E0.05045
G1 X205.345 Y104.162 E0.02749
G1 X205.988 Y104.991 E0.03268
G1 X206.523 Y105.874 E0.03216
G1 X206.919 Y106.723 E0.02917
G1 X207.389 Y108.235 E0.04930
G1 X207.543 Y109.148 E0.02883
G1 X207.604 Y110.190 E0.03251
G1 X207.574 Y124.183 E0.43574
G1 X207.330 Y128.711 E0.14123
G1 X207.106 Y131.045 E0.07301
G1 X206.505 Y135.426 E0.13770
G1 X206.095 Y137.712 E0.07231
G1 X205.155 Y141.963 E0.13559
G1 X204.806 Y143.086 E0.03662
G1 X204.319 Y144.150 E0.03644
G1 X203.714 Y145.126 E0.03576
G1 X202.907 Y146.108 E0.03959
G1 X202.058 Y146.900 E0.03615
G1 X200.716 Y147.821 E0.05069
G1 X199.568 Y148.368 E0.03960
G1 X198.508 Y148.711 E0.03470
G1 X197.347 Y148.933 E0.03680
G1 X196.218 Y149.004 E0.03522
G1 X53.566 Y148.999 E4.44233
G1 X51.845 Y148.793 E0.05396
G1 X50.549 Y148.414 E0.04205
G1 X49.315 Y147.839 E0.04240
G1 X47.911 Y146.876 E0.05302
G1 X46.929 Y145.933 E0.04240
G1 X46.113 Y144.871 E0.04170
G1 X45.302 Y143.348 E0.05372
G1 X44.884 Y142.117 E0.04047
G1 X44.332 Y139.774 E0.07496
G1 X43.496 Y135.432 E0.13770
G1 X42.894 Y131.045 E0.13790
G1 X42.668 Y128.695 E0.07352
G1 X42.515 Y126.423 E0.07091
G1 X42.397 Y122.054 E0.13612
G1 X42.397 Y110.177 E0.36984
G1 X42.456 Y109.157 E0.03185
G1 X42.681 Y107.931 E0.03881
G1 X43.102 Y106.675 E0.04125
G1 X43.887 Y105.183 E0.05250
G1 X44.678 Y104.134 E0.04091
G1 X45.549 Y103.266 E0.03829
G1 X46.599 Y102.477 E0.04090
G1 X48.082 Y101.699 E0.05215
G1 X49.295 Y101.290 E0.03986
G1 X50.458 Y101.068 E0.03689
G1 X51.590 Y100.996 E0.03531
G1 X88.748 Y100.996 E1.15713
; printing object exhaust_filter_grill.stl id:0 copy 0
G1 E-0.08000 F3000.00000
G1 F14400.000
G1 X92.204 Y100.996 E-0.68400
G1 E-0.03600 F3000.00000
G1 Z0.600000 F18000.000
G1 X115.043 Y128.551
G1 Z0.200000
G1 E0.80000 F2100.00000
; custom gcode: feature_gcode
;Perimeter                        ;  Perimeter
M204 P1000 T5000
; custom gcode end: feature_gcode

;TYPE:Perimeter
G1 F1800.000
G1 X114.895 Y128.808 E0.00924
G1 X114.679 Y128.750 E0.00695
G1 X114.200 Y128.708 E0.01498
G1 X113.721 Y128.750 E0.01498
G1 X113.505 Y128.808 E0.00695
G1 X113.357 Y128.551 E0.00924
G1 X113.515 Y128.393 E0.00695
G1 X113.791 Y127.999 E0.01498
G1 X113.994 Y127.563 E0.01498
G1 X114.052 Y127.347 E0.00695
G1 X114.348 Y127.347 E0.00924
G1 X114.406 Y127.563 E0.00695
G1 X114.609 Y127.999 E0.01498
G1 X114.885 Y128.393 E0.01498
G1 X115.001 Y128.508 E0.00508
G1 E-0.08000 F3000.00000
G1 F14400.000
G1 X114.895 Y128.808 E-0.06286
G1 X114.679 Y128.750 E-0.04417
G1 X114.200 Y128.708 E-0.09523
G1 X113.721 Y128.750 E-0.09523
G1 X113.505 Y128.808 E-0.04417
G1 X113.357 Y128.551 E-0.05873
G1 X113.515 Y128.393 E-0.04417
G1 X113.791 Y127.999 E-0.09523
G1 X113.994 Y127.563 E-0.09523
G1 X114.052 Y127.347 E-0.04417
G1 X114.076 Y127.347 E-0.00481
G1 E-0.03600 F3000.00000
G1 X115.043 Y115.449 F18000.000
G1 E0.80000 F2100.00000
G1 F1800.000
G1 X114.885 Y115.607 E0.00695
G1 X114.609 Y116.001 E0.01498
G1 X114.406 Y116.437 E0.01498
G1 X114.348 Y116.653 E0.00695
G1 X114.052 Y116.653 E0.00924
G1 X113.994 Y116.437 E0.00695
G1 X113.791 Y116.001 E0.01498
G1 X113.515 Y115.607 E0.01498
G1 X113.357 Y115.449 E0.00695
G1 X113.505 Y115.192 E0.00924
G1 X113.721 Y115.250 E0.00695
G1 X114.200 Y115.292 E0.01498
G1 X114.679 Y115.250 E0.01498
G1 X114.895 Y115.192 E0.00695
G1 X115.013 Y115.397 E0.00737
G1 E-0.08000 F3000.00000
G1 F14400.000
G1 X114.885 Y115.607 E-0.04862
G1 X114.609 Y116.001 E-0.09523
G1 X114.406 Y116.437 E-0.09523
G1 X114.348 Y116.653 E-0.04417
G1 X114.052 Y116.653 E-0.05873
G1 X113.994 Y116.437 E-0.04417
G1 X113.791 Y116.001 E-0.09523
G1 X113.515 Y115.607 E-0.09523
G1 X113.357 Y115.449 E-0.04417
G1 X113.505 Y115.192 E-0.05873
G1 X113.527 Y115.198 E-0.00450
G1 E-0.03600 F3000.00000
G1 X103.720 Y109.621 F18000.000
G1 E0.80000 F2100.00000
G1 F1800.000
G1 X103.400 Y109.593 E0.01001
G1 X103.080 Y109.621 E0.01001
G1 X103.199 Y109.177 E0.01434
G1 X103.223 Y108.905 E0.00848
G1 X103.577 Y108.905 E0.01104
G1 X103.601 Y109.177 E0.00848
G1 X103.705 Y109.563 E0.01247
G1 E-0.08000 F3000.00000
G1 F14400.000
G1 X103.400 Y109.593 E-0.06057
G1 X103.080 Y109.621 E-0.06360
G1 X103.199 Y109.177 E-0.09114
G1 X103.223 Y108.905 E-0.05389
G1 X103.577 Y108.905 E-0.07013
G1 X103.601 Y109.177 E-0.05388
G1 X103.705 Y109.563 E-0.07927
G1 E-0.24753 F3000.00000
G1 X103.881 Y107.667 F18000.000
G1 E0.80000 F2100.00000
G1 F1800.000
G1 X103.699 Y108.058 E0.01344
G1 X103.601 Y108.423 E0.01177
G1 X103.577 Y108.695 E0.00848
G1 X103.223 Y108.695 E0.01104
G1 X103.199 Y108.423 E0.00848
G1 X103.101 Y108.058 E0.01177
G1 X102.919 Y107.667 E0.01344
G1 X103.821 Y107.667 E0.02810
G1 E-0.08000 F3000.00000
G1 F14400.000
G1 X103.699 Y108.058 E-0.08112
G1 X103.601 Y108.423 E-0.07483
G1 X103.577 Y108.695 E-0.05388
G1 X103.223 Y108.695 E-0.07013
G1 X103.199 Y108.423 E-0.05389
G1 X103.101 Y108.058 E-0.07482
G1 X102.919 Y107.667 E-0.08543
G1 X103.821 Y107.667 E-0.17858
G1 E-0.04732 F3000.00000
G1 X104.797 Y107.260 F18000.000
G1 E0.80000 F2100.00000
G1 F2400.000
G1 X104.388 Y107.668 E0.01799
G1 X104.212 Y107.920 E0.00956
G1 X104.083 Y108.198 E0.00956
G1 X104.003 Y108.494 E0.00956
G1 X103.977 Y108.800 E0.00956
G1 X104.003 Y109.106 E0.00956
G1 X104.083 Y109.402 E0.00956
G1 X104.212 Y109.680 E0.00956
G1 X104.603 Y110.238 E0.02120
G1 X103.879 Y110.044 E0.02333
G1 X103.400 Y110.002 E0.01498
G1 X102.921 Y110.044 E0.01498
G1 X102.197 Y110.238 E0.02333
G1 X102.588 Y109.680 E0.02120
G1 X102.717 Y109.402 E0.00956
G1 X102.797 Y109.106 E0.00955
G1 X102.823 Y108.800 E0.00956
G1 X102.797 Y108.494 E0.00956
G1 X102.717 Y108.198 E0.00955
G1 X102.588 Y107.920 E0.00956
G1 X102.412 Y107.668 E0.00956
G1 X102.003 Y107.260 E0.01799
G1 X104.737 Y107.260 E0.08514
G1 E-0.08000 F3000.00000
G1 F14400.000
G1 X104.388 Y107.668 E-0.10627
G1 X104.212 Y107.920 E-0.06073
G1 X104.083 Y108.198 E-0.06073
G1 X104.003 Y108.494 E-0.06073
G1 X103.977 Y108.800 E-0.06073
G1 X104.003 Y109.106 E-0.06073
G1 X104.083 Y109.402 E-0.06073
G1 X104.212 Y109.680 E-0.06073
G1 X104.603 Y110.238 E-0.13475
G1 X104.516 Y110.215 E-0.01788
G1 E-0.03600 F3000.00000
G1 X93.443 Y115.449 F18000.000
G1 E0.80000 F2100.00000
G1 F1800.000
G1 X93.285 Y115.607 E0.00695
G1 X93.009 Y116.001 E0.01498
G1 X92.806 Y116.437 E0.01498
G1 X92.748 Y116.653 E0.00695
G1 X92.452 Y116.653 E0.00924
G1 X92.394 Y116.437 E0.00695
G1 X92.191 Y116.001 E0.01498
G1 X91.915 Y115.607 E0.01498
G1 X91.757 Y115.449 E0.00695
G1 X91.905 Y115.192 E0.00924
G1 X92.121 Y115.250 E0.00695
G1 X92.600 Y115.292 E0.01498
G1 X93.079 Y115.250 E0.01498
G1 X93.295 Y115.192 E0.00695
G1 X93.413 Y115.397 E0.00737
G1 E-0.08000 F3000.00000
G1 F14400.000
G1 X93.285 Y115.607 E-0.04862
G1 X93.009 Y116.001 E-0.09523
G1 X92.806 Y116.437 E-0.09523
G1 X92.748 Y116.653 E-0.04417
G1 X92.452 Y116.653 E-0.05873
G1 X92.394 Y116.437 E-0.04417
G1 X92.191 Y116.001 E-0.09523
G1 X91.915 Y115.607 E-0.09523
G1 X91.757 Y115.449 E-0.04417
G1 X91.905 Y115.192 E-0.05873
G1 X91.927 Y115.198 E-0.00451
G1 E-0.03600 F3000.00000
G1 X93.443 Y128.551 F18000.000
G1 E0.80000 F2100.00000
G1 F1800.000
G1 X93.295 Y128.808 E0.00924
G1 X93.079 Y128.750 E0.00695
G1 X92.600 Y128.708 E0.01498
G1 X92.121 Y128.750 E0.01498
G1 X91.905 Y128.808 E0.00695
G1 X91.757 Y128.551 E0.00924
G1 X91.915 Y128.393 E0.00695
G1 X92.191 Y127.999 E0.01498
G1 X92.394 Y127.563 E0.01498
G1 X92.452 Y127.347 E0.00695
G1 X92.748 Y127.347 E0.00924
G1 X92.806 Y127.563 E0.00695
G1 X93.009 Y127.999 E0.01498
G1 X93.285 Y128.393 E0.01498
G1 X93.401 Y128.508 E0.00508
G1 E-0.08000 F3000.00000
G1 F14400.000
G1 X93.295 Y128.808 E-0.06286
G1 X93.079 Y128.750 E-0.04417
G1 X92.600 Y128.708 E-0.09523
G1 X92.121 Y128.750 E-0.09523
G1 X91.905 Y128.808 E-0.04417
G1 X91.757 Y128.551 E-0.05873
G1 X91.915 Y128.393 E-0.04417
G1 X92.191 Y127.999 E-0.09522
G1 X92.394 Y127.563 E-0.09523
G1 X92.452 Y127.347 E-0.04417
G1 X92.476 Y127.347 E-0.00481
G1 E-0.03600 F3000.00000
G1 X71.843 Y128.551 F18000.000
G1 E0.80000 F2100.00000
G1 F1800.000
G1 X71.695 Y128.808 E0.00924
G1 X71.479 Y128.750 E0.00695
G1 X71.000 Y128.708 E0.01498
G1 X70.521 Y128.750 E0.01498
G1 X70.305 Y128.808 E0.00695
G1 X70.157 Y128.551 E0.00924
G1 X70.315 Y128.393 E0.00695
G1 X70.591 Y127.999 E0.01498
G1 X70.794 Y127.563 E0.01498
G1 X70.852 Y127.347 E0.00695
G1 X71.148 Y127.347 E0.00924
G1 X71.206 Y127.563 E0.00695
G1 X71.409 Y127.999 E0.01498
G1 X71.685 Y128.393 E0.01498
