G10 P0 R250 S250 ; sets the standby temperature
; generated by SuperSlicer 2.3.55 on 2023-09-09 at 12:58:34 UTC

; TODO: check the size of the extruder and the y-bar clearance. Optimize & test supports.

; external perimeters extrusion width = 0.39mm
; perimeters extrusion width = 0.40mm
; infill extrusion width = 0.60mm
; solid infill extrusion width = 0.60mm
; top infill extrusion width = 0.32mm
; first layer extrusion width = 0.45mm

; object:{"name":"gear_spacer_shim (2)","id":"gear_spacer_shim (2).stl id:0 copy 0","object_center":[125.000000,125.000000,0.000000],"boundingbox_center":[125.000000,125.000000,0.250000],"boundingbox_size":[11.999149,11.999573,0.500000]}
; plater:{"center":[125.000000,125.000000,0.000000],"boundingbox_center":[125.000000,125.000000,0.250000],"boundingbox_size":[11.999149,11.999573,0.500000]}

;TYPE:Custom
; custom gcode: start_gcode
M106 P4 S255
M140 S95 ; set bed final temp
M104 S250 ; set extruder final temp
M190 S95 ; wait for bed final temp
M109 S250 ; wait for extruder final temp
;G29
G28
;M98 P"/macros/nozzle/brush.g"
;PRINT_START

G92 E0 ;Reset Extruder
;;G1 Z2.0 F3000 ;Move Z Axis up


G1 X100 Y4.6 Z0.3 F18000.0 ; Move to side a little

G1 X5 Y4.6 Z0.3 F1500.0 E10 ; Draw the second line

G1 X5 Y4.2 Z0.3 F1500.0 E10 ; Draw the third line

G1 X100 Y4.2 Z0.3 F1500.0 E10 ; Draw the third line


;G92 E0;		Reset extruder
;G1 X1 Y10 F6000;
;G1 Z1.7;
;G1 X1 Y60 E140 F50;
;G1 E-<DESTRING> F1500;
;G1 Z4
;G1 X<NEXTX> Y<NEXTY> F12000;
;G92 E0 ;Reset Extruder

;G1 Z2.0 F3000 ;Move Z Axis up
; custom gcode end: start_gcode
M107
G21 ; set units to millimeters
G90 ; use absolute coordinates
M83 ; use relative distances for extrusion
; custom gcode: start_filament_gcode
; Filament gcode
M572 D0 S0.10
; custom gcode end: start_filament_gcode
;LAYER_CHANGE
;Z:0.2
;HEIGHT:0.2
; custom gcode: before_layer_gcode
;BEFORE_LAYER_CHANGE
;0.2

; custom gcode end: before_layer_gcode

G1 Z0.200000 F18000.000
; custom gcode: layer_gcode
;AFTER_LAYER_CHANGE
;0.2
; custom gcode end: layer_gcode

G1 E-0.80000 F3000.00000
G1 Z1.000000 F18000.000
G1 X116.174 Y116.256
G1 Z0.200000
G1 E0.80000 F2100.00000
; custom gcode: feature_gcode
;Skirt
M204 P2000 T5000
; custom gcode end: feature_gcode

;TYPE:Skirt
G1 F1779
G1 X117.046 Y115.456 E0.03644
G1 X118.047 Y114.704 E0.03856
G1 X119.101 Y114.065 E0.03798
G1 X120.232 Y113.527 E0.03856
G1 X121.399 Y113.109 E0.03818
G1 X122.607 Y112.808 E0.03836
G1 X123.840 Y112.630 E0.03837
G1 X125.060 Y112.575 E0.03760
G1 X126.334 Y112.647 E0.03932
G1 X127.552 Y112.840 E0.03798
G1 X128.769 Y113.161 E0.03876
G1 X129.878 Y113.573 E0.03644
G1 X130.820 Y114.023 E0.03216
G1 X131.887 Y114.659 E0.03828
G1 X132.850 Y115.369 E0.03683
G1 X133.797 Y116.225 E0.03933
G1 X134.607 Y117.121 E0.03721
G1 X135.348 Y118.122 E0.03836
G1 X135.982 Y119.188 E0.03818
G1 X136.506 Y120.311 E0.03818
G1 X136.920 Y121.492 E0.03856
G1 X137.209 Y122.691 E0.03798
G1 X137.379 Y123.925 E0.03837
G1 X137.424 Y125.101 E0.03625
G1 X137.371 Y126.150 E0.03235
G1 X137.195 Y127.380 E0.03828
G1 X136.910 Y128.541 E0.03683
G1 X136.481 Y129.750 E0.03952
G1 X135.968 Y130.838 E0.03702
G1 X135.329 Y131.906 E0.03837
G1 X134.593 Y132.896 E0.03799
G1 X133.759 Y133.813 E0.03817
G1 X132.823 Y134.653 E0.03875
G1 X131.827 Y135.381 E0.03799
G1 X130.754 Y136.012 E0.03837
G1 X129.674 Y136.512 E0.03664
G1 X128.504 Y136.920 E0.03818
G1 X127.494 Y137.172 E0.03207
G1 X126.313 Y137.355 E0.03683
G1 X125.050 Y137.425 E0.03895
G1 X123.837 Y137.370 E0.03741
G1 X122.604 Y137.191 E0.03837
G1 X121.401 Y136.892 E0.03818
G1 X120.229 Y136.472 E0.03836
G1 X119.098 Y135.933 E0.03857
G1 X118.044 Y135.295 E0.03798
G1 X117.048 Y134.546 E0.03837
G1 X116.172 Y133.742 E0.03664
G1 X115.341 Y132.814 E0.03836
G1 X114.719 Y131.975 E0.03216
G1 X114.097 Y130.958 E0.03674
G1 X113.539 Y129.796 E0.03971
G1 X113.131 Y128.672 E0.03682
G1 X112.823 Y127.465 E0.03837
G1 X112.638 Y126.246 E0.03798
G1 X112.576 Y124.995 E0.03857
G1 X112.639 Y123.751 E0.03836
G1 X112.823 Y122.532 E0.03798
G1 X113.132 Y121.325 E0.03837
G1 X113.540 Y120.202 E0.03682
G1 X114.099 Y119.039 E0.03972
G1 X114.722 Y118.019 E0.03683
G1 X115.345 Y117.181 E0.03217
G1 X116.134 Y116.300 E0.03643
G1 X116.437 Y116.571 F18000.000
G1 F1779
G1 X117.304 Y115.770 E0.03637
G1 X118.267 Y115.046 E0.03711
G1 X119.292 Y114.424 E0.03693
G1 X120.386 Y113.904 E0.03730
G1 X121.520 Y113.497 E0.03712
G1 X122.683 Y113.208 E0.03692
G1 X123.876 Y113.035 E0.03712
G1 X125.055 Y112.983 E0.03637
G1 X126.288 Y113.051 E0.03804
G1 X127.472 Y113.239 E0.03692
G1 X128.649 Y113.549 E0.03749
G1 X129.721 Y113.949 E0.03525
G1 X130.626 Y114.381 E0.03090
G1 X131.660 Y114.996 E0.03705
G1 X132.591 Y115.683 E0.03562
G1 X133.507 Y116.511 E0.03804
G1 X134.291 Y117.377 E0.03599
G1 X135.007 Y118.345 E0.03710
G1 X135.621 Y119.376 E0.03693
G1 X136.128 Y120.462 E0.03693
G1 X136.528 Y121.604 E0.03730
G1 X136.808 Y122.764 E0.03674
G1 X136.973 Y123.964 E0.03730
G1 X137.017 Y125.101 E0.03506
G1 X136.966 Y126.109 E0.03109
G1 X136.796 Y127.299 E0.03705
G1 X136.519 Y128.428 E0.03580
G1 X136.104 Y129.598 E0.03823
G1 X135.610 Y130.644 E0.03562
G1 X134.992 Y131.678 E0.03711
G1 X134.277 Y132.640 E0.03693
G1 X133.470 Y133.526 E0.03692
G1 X132.569 Y134.335 E0.03730
G1 X131.601 Y135.043 E0.03693
G1 X130.562 Y135.653 E0.03711
G1 X129.518 Y136.136 E0.03543
G1 X127.415 Y136.772 E0.06769
G1 X126.278 Y136.950 E0.03543
G1 X125.051 Y137.017 E0.03786
G1 X123.878 Y136.965 E0.03618
G1 X122.685 Y136.793 E0.03711
G1 X121.516 Y136.501 E0.03711
G1 X120.388 Y136.097 E0.03692
G1 X119.294 Y135.577 E0.03731
G1 X118.269 Y134.955 E0.03692
G1 X117.306 Y134.231 E0.03711
G1 X116.459 Y133.453 E0.03544
G1 X115.659 Y132.560 E0.03692
G1 X115.058 Y131.750 E0.03109
G1 X114.456 Y130.765 E0.03556
G1 X113.915 Y129.641 E0.03841
G1 X113.520 Y128.554 E0.03562
G1 X113.222 Y127.387 E0.03711
G1 X113.043 Y126.201 E0.03693
G1 X112.983 Y124.998 E0.03712
G1 X113.043 Y123.795 E0.03711
G1 X113.223 Y122.610 E0.03692
G1 X113.521 Y121.442 E0.03711
G1 X113.917 Y120.356 E0.03562
G1 X114.455 Y119.237 E0.03823
G1 X115.058 Y118.250 E0.03562
G1 X115.659 Y117.440 E0.03110
G1 X116.397 Y116.616 E0.03406
G1 X116.713 Y116.876 F18000.000
G1 F1779
G1 X117.563 Y116.084 E0.03578
G1 X118.498 Y115.381 E0.03604
G1 X119.484 Y114.784 E0.03550
G1 X120.545 Y114.278 E0.03621
G1 X121.635 Y113.888 E0.03568
G1 X122.765 Y113.607 E0.03585
G1 X123.917 Y113.440 E0.03586
G1 X125.057 Y113.390 E0.03514
G1 X126.248 Y113.457 E0.03675
G1 X127.391 Y113.638 E0.03567
G1 X128.528 Y113.938 E0.03622
G1 X129.564 Y114.324 E0.03405
G1 X131.432 Y115.334 E0.06540
G1 X132.332 Y115.997 E0.03442
G1 X133.221 Y116.801 E0.03693
G1 X133.975 Y117.633 E0.03459
G1 X134.667 Y118.569 E0.03585
G1 X135.260 Y119.564 E0.03568
G1 X135.753 Y120.619 E0.03585
G1 X136.139 Y121.723 E0.03603
G1 X136.409 Y122.843 E0.03550
G1 X136.568 Y123.996 E0.03586
G1 X136.610 Y125.101 E0.03405
G1 X136.397 Y127.219 E0.06558
G1 X136.129 Y128.310 E0.03459
G1 X135.728 Y129.440 E0.03693
G1 X135.252 Y130.451 E0.03441
G1 X134.655 Y131.450 E0.03585
G1 X133.964 Y132.379 E0.03568
G1 X133.185 Y133.236 E0.03567
G1 X132.310 Y134.021 E0.03621
G1 X131.380 Y134.701 E0.03550
G1 X130.371 Y135.294 E0.03603
G1 X129.367 Y135.758 E0.03405
G1 X127.341 Y136.372 E0.06522
G1 X126.237 Y136.544 E0.03441
G1 X125.052 Y136.610 E0.03658
G1 X123.918 Y136.560 E0.03496
G1 X122.760 Y136.392 E0.03603
G1 X121.636 Y136.113 E0.03567
G1 X120.541 Y135.720 E0.03585
G1 X119.484 Y135.217 E0.03604
G1 X118.499 Y134.620 E0.03549
G1 X117.564 Y133.917 E0.03603
G1 X116.746 Y133.164 E0.03424
G1 X115.396 Y131.524 E0.06543
G1 X114.814 Y130.572 E0.03438
G1 X114.292 Y129.486 E0.03711
G1 X113.910 Y128.436 E0.03441
G1 X113.622 Y127.308 E0.03586
G1 X113.448 Y126.163 E0.03568
G1 X113.390 Y125.000 E0.03586
G1 X113.448 Y123.838 E0.03585
G1 X113.621 Y122.693 E0.03567
G1 X113.910 Y121.565 E0.03585
G1 X114.291 Y120.515 E0.03441
G1 X114.814 Y119.429 E0.03712
G1 X115.396 Y118.476 E0.03441
G1 X116.674 Y116.922 E0.06199
G1 X116.988 Y117.180 F18000.000
G1 F1779
G1 X117.826 Y116.395 E0.03538
G1 X118.724 Y115.720 E0.03460
G1 X119.680 Y115.140 E0.03443
G1 X120.699 Y114.655 E0.03477
G1 X121.751 Y114.278 E0.03443
G1 X122.841 Y114.007 E0.03459
G1 X123.958 Y113.845 E0.03477
G1 X125.058 Y113.797 E0.03391
G1 X126.207 Y113.862 E0.03546
G1 X127.311 Y114.037 E0.03442
G1 X128.403 Y114.326 E0.03477
G1 X129.408 Y114.700 E0.03304
G1 X131.204 Y115.671 E0.06292
G1 X132.073 Y116.311 E0.03322
G1 X132.931 Y117.087 E0.03564
G1 X133.659 Y117.890 E0.03338
G1 X134.330 Y118.797 E0.03476
G1 X134.902 Y119.758 E0.03443
G1 X135.375 Y120.770 E0.03442
G1 X135.748 Y121.835 E0.03477
G1 X136.010 Y122.922 E0.03443
G1 X136.162 Y124.035 E0.03460
G1 X136.203 Y125.101 E0.03286
G1 X135.998 Y127.139 E0.06310
G1 X135.741 Y128.186 E0.03321
G1 X135.353 Y129.282 E0.03581
G1 X134.891 Y130.262 E0.03338
G1 X134.315 Y131.226 E0.03460
G1 X133.648 Y132.123 E0.03443
G1 X132.895 Y132.949 E0.03442
G1 X132.055 Y133.703 E0.03477
G1 X131.153 Y134.363 E0.03443
G1 X130.180 Y134.934 E0.03477
G1 X129.206 Y135.384 E0.03304
G1 X127.256 Y135.974 E0.06275
G1 X126.191 Y136.140 E0.03321
G1 X125.047 Y136.203 E0.03529
G1 X123.953 Y136.154 E0.03373
G1 X122.841 Y135.993 E0.03460
G1 X121.751 Y135.722 E0.03460
G1 X120.699 Y135.345 E0.03442
G1 X119.680 Y134.860 E0.03478
G1 X118.724 Y134.280 E0.03442
G1 X117.822 Y133.602 E0.03477
G1 X117.033 Y132.876 E0.03304
G1 X115.735 Y131.298 E0.06292
G1 X115.172 Y130.378 E0.03321
G1 X114.668 Y129.331 E0.03581
G1 X114.299 Y128.318 E0.03321
G1 X114.020 Y127.224 E0.03477
G1 X113.853 Y126.119 E0.03442
G1 X113.797 Y124.997 E0.03460
G1 X113.853 Y123.875 E0.03459
G1 X114.021 Y122.771 E0.03442
G1 X114.299 Y121.682 E0.03460
G1 X114.668 Y120.669 E0.03321
G1 X115.172 Y119.622 E0.03581
G1 X115.735 Y118.702 E0.03321
G1 X116.950 Y117.226 E0.05888
; printing object gear_spacer_shim (2).stl id:0 copy 0
G1 E-0.08000 F3000.00000
G1 F14400.000
G1 X117.826 Y116.395 E-0.23910
G1 X118.724 Y115.720 E-0.22232
G1 X119.680 Y115.140 E-0.22120
G1 X119.686 Y115.137 E-0.00138
G1 E-0.03600 F3000.00000
G1 Z0.600000 F18000.000
G1 X121.689 Y121.965
G1 Z0.200000
G1 E0.80000 F2100.00000
; custom gcode: feature_gcode
;ExternalPerimeter                   ;  ExternalPerimeter
M204 P750 T5000
; custom gcode end: feature_gcode

;TYPE:External perimeter
G1 F1779
G1 X121.405 Y122.301 E0.01354
G1 X121.109 Y122.750 E0.01658
G1 X120.939 Y123.073 E0.01122
G1 X120.796 Y123.408 E0.01122
G1 X120.636 Y123.922 E0.01658
G1 X120.563 Y124.279 E0.01122
G1 X120.520 Y124.641 E0.01122
G1 X120.509 Y125.179 E0.01658
G1 X120.538 Y125.544 E0.01129
G1 X120.636 Y126.076 E0.01665
G1 X120.796 Y126.592 E0.01665
G1 X120.939 Y126.927 E0.01122
G1 X121.109 Y127.250 E0.01122
G1 X121.405 Y127.699 E0.01658
G1 X121.636 Y127.981 E0.01122
G1 X121.888 Y128.244 E0.01122
G1 X122.298 Y128.592 E0.01658
G1 X122.598 Y128.799 E0.01122
G1 X122.913 Y128.981 E0.01122
G1 X123.406 Y129.203 E0.01665
G1 X123.922 Y129.364 E0.01665
G1 X124.279 Y129.437 E0.01122
G1 X124.641 Y129.481 E0.01122
G1 X125.181 Y129.492 E0.01665
G1 X125.719 Y129.437 E0.01665
G1 X126.078 Y129.364 E0.01129
G1 X126.592 Y129.204 E0.01658
G1 X126.930 Y129.060 E0.01129
G1 X127.401 Y128.801 E0.01658
G1 X127.703 Y128.592 E0.01129
G1 X128.113 Y128.244 E0.01658
G1 X128.365 Y127.981 E0.01122
G1 X128.596 Y127.699 E0.01122
G1 X128.892 Y127.250 E0.01658
G1 X129.063 Y126.925 E0.01129
G1 X129.265 Y126.424 E0.01665
G1 X129.404 Y125.901 E0.01665
G1 X129.463 Y125.542 E0.01122
G1 X129.492 Y125.181 E0.01115
G1 X129.492 Y124.817 E0.01122
G1 X129.438 Y124.281 E0.01658
G1 X129.365 Y123.924 E0.01122
G1 X129.264 Y123.574 E0.01122
G1 X129.063 Y123.075 E0.01658
G1 X128.892 Y122.750 E0.01129
G1 X128.594 Y122.299 E0.01665
G1 X128.244 Y121.888 E0.01665
G1 X127.981 Y121.635 E0.01122
G1 X127.699 Y121.405 E0.01122
G1 X127.250 Y121.108 E0.01658
G1 X126.927 Y120.939 E0.01122
G1 X126.592 Y120.796 E0.01122
G1 X126.078 Y120.636 E0.01658
G1 X125.719 Y120.563 E0.01129
G1 X125.184 Y120.508 E0.01658
G1 X124.817 Y120.508 E0.01129
G1 X124.282 Y120.563 E0.01658
G1 X123.922 Y120.636 E0.01129
G1 X123.408 Y120.796 E0.01658
G1 X123.073 Y120.939 E0.01122
G1 X122.751 Y121.108 E0.01122
G1 X122.302 Y121.405 E0.01658
G1 X122.018 Y121.637 E0.01129
G1 X121.731 Y121.923 E0.01247
G1 X121.297 Y121.884 F18000.000
G1 X121.187 Y121.409
; custom gcode: feature_gcode
;Perimeter                        ;  Perimeter
M204 P1000 T5000
; custom gcode end: feature_gcode

;TYPE:Perimeter
G1 F1779
G1 X121.370 Y121.214 E0.00826
G1 X121.770 Y120.868 E0.01628
G1 X122.202 Y120.564 E0.01628
G1 X122.663 Y120.305 E0.01628
G1 X123.147 Y120.093 E0.01628
G1 X123.650 Y119.932 E0.01628
G1 X124.167 Y119.822 E0.01628
G1 X124.692 Y119.764 E0.01628
G1 X125.221 Y119.760 E0.01628
G1 X125.747 Y119.808 E0.01628
G1 X126.265 Y119.910 E0.01628
G1 X126.771 Y120.063 E0.01628
G1 X127.259 Y120.266 E0.01628
G1 X127.724 Y120.518 E0.01628
G1 X128.161 Y120.814 E0.01628
G1 X128.570 Y121.157 E0.01644
G1 X128.813 Y121.398 E0.01053
G1 X129.159 Y121.804 E0.01644
G1 X129.460 Y122.239 E0.01628
G1 X129.715 Y122.702 E0.01628
G1 X129.922 Y123.188 E0.01628
G1 X130.080 Y123.692 E0.01628
G1 X130.186 Y124.210 E0.01628
G1 X130.239 Y124.736 E0.01628
G1 X130.239 Y125.270 E0.01644
G1 X130.210 Y125.610 E0.01053
G1 X130.121 Y126.136 E0.01644
G1 X129.980 Y126.646 E0.01628
G1 X129.790 Y127.139 E0.01628
G1 X129.550 Y127.610 E0.01628
G1 X129.264 Y128.054 E0.01628
G1 X128.935 Y128.468 E0.01628
G1 X128.566 Y128.846 E0.01628
G1 X128.161 Y129.186 E0.01628
G1 X127.724 Y129.482 E0.01628
G1 X127.259 Y129.734 E0.01628
G1 X126.771 Y129.937 E0.01628
G1 X126.265 Y130.090 E0.01628
G1 X125.747 Y130.192 E0.01628
G1 X125.221 Y130.240 E0.01628
G1 X124.692 Y130.236 E0.01628
G1 X124.167 Y130.178 E0.01628
G1 X123.650 Y130.068 E0.01628
G1 X123.147 Y129.907 E0.01628
G1 X122.663 Y129.695 E0.01628
G1 X122.202 Y129.436 E0.01628
G1 X121.770 Y129.132 E0.01628
G1 X121.366 Y128.782 E0.01644
G1 X121.128 Y128.538 E0.01053
G1 X120.788 Y128.126 E0.01644
G1 X120.495 Y127.686 E0.01628
G1 X120.248 Y127.219 E0.01628
G1 X120.047 Y126.724 E0.01644
G1 X119.945 Y126.398 E0.01053
G1 X119.829 Y125.877 E0.01644
G1 X119.767 Y125.352 E0.01628
G1 X119.758 Y124.824 E0.01628
G1 X119.803 Y124.292 E0.01644
G1 X119.860 Y123.955 E0.01053
G1 X119.993 Y123.438 E0.01644
G1 X120.176 Y122.942 E0.01628
G1 X120.408 Y122.467 E0.01628
G1 X120.686 Y122.018 E0.01628
G1 X121.008 Y121.599 E0.01628
G1 X121.145 Y121.453 E0.00617
G1 X120.848 Y121.172 F18000.000
; custom gcode: feature_gcode
;ExternalPerimeter                   ;  ExternalPerimeter
M204 P750 T5000
; custom gcode end: feature_gcode

;TYPE:External perimeter
G1 F1779
G1 X121.087 Y120.918 E0.01074
G1 X121.517 Y120.545 E0.01755
G1 X121.983 Y120.217 E0.01755
G1 X122.480 Y119.938 E0.01755
G1 X123.002 Y119.710 E0.01755
G1 X123.545 Y119.536 E0.01755
G1 X124.102 Y119.417 E0.01755
G1 X124.668 Y119.355 E0.01755
G1 X125.238 Y119.350 E0.01755
G1 X125.805 Y119.403 E0.01755
G1 X126.364 Y119.512 E0.01755
G1 X126.910 Y119.677 E0.01755
G1 X127.436 Y119.896 E0.01755
G1 X127.937 Y120.167 E0.01755
G1 X128.408 Y120.487 E0.01755
G1 X128.846 Y120.854 E0.01761
G1 X129.113 Y121.119 E0.01159
G1 X129.484 Y121.554 E0.01761
G1 X129.808 Y122.023 E0.01755
G1 X130.083 Y122.522 E0.01755
G1 X130.307 Y123.046 E0.01755
G1 X130.477 Y123.590 E0.01755
G1 X130.591 Y124.148 E0.01755
G1 X130.648 Y124.715 E0.01755
G1 X130.648 Y125.287 E0.01761
G1 X130.616 Y125.662 E0.01159
G1 X130.521 Y126.225 E0.01761
G1 X130.369 Y126.774 E0.01755
G1 X130.164 Y127.306 E0.01755
G1 X129.905 Y127.814 E0.01755
G1 X129.597 Y128.293 E0.01755
G1 X129.243 Y128.739 E0.01755
G1 X128.845 Y129.147 E0.01755
G1 X128.408 Y129.513 E0.01755
G1 X127.937 Y129.833 E0.01755
G1 X127.436 Y130.104 E0.01755
G1 X126.910 Y130.323 E0.01755
G1 X126.364 Y130.488 E0.01755
G1 X125.805 Y130.597 E0.01755
G1 X125.238 Y130.650 E0.01755
G1 X124.668 Y130.645 E0.01755
G1 X124.102 Y130.583 E0.01755
G1 X123.545 Y130.464 E0.01755
G1 X123.002 Y130.290 E0.01755
G1 X122.480 Y130.062 E0.01755
G1 X121.983 Y129.783 E0.01755
G1 X121.517 Y129.455 E0.01755
G1 X121.085 Y129.080 E0.01761
G1 X120.823 Y128.811 E0.01159
