G10 P0 R240 S240 ; sets the standby temperature
; generated by SuperSlicer 2.3.55 on 2023-09-27 at 10:52:46 UTC

; TODO: check the size of the extruder and the y-bar clearance. Optimize & test supports.

; external perimeters extrusion width = 0.39mm
; perimeters extrusion width = 0.40mm
; infill extrusion width = 0.60mm
; solid infill extrusion width = 0.60mm
; top infill extrusion width = 0.32mm
; first layer extrusion width = 0.45mm

; object:{"name":"Inverted_DIN_Mount(Mirror)_x2","id":"Inverted_DIN_Mount(Mirror)_x2.stl id:0 copy 0","object_center":[139.545158,113.618538,0.000000],"boundingbox_center":[139.545158,113.618538,5.900000],"boundingbox_size":[77.907455,59.999998,11.800000]}
; object:{"name":"Inverted_DIN_Mount_x2","id":"Inverted_DIN_Mount_x2.stl id:1 copy 0","object_center":[122.581452,130.390839,0.000000],"boundingbox_center":[122.581452,130.390839,5.900000],"boundingbox_size":[77.907455,60.000000,11.800000]}
; plater:{"center":[131.063305,122.004689,0.000000],"boundingbox_center":[131.063305,122.004689,5.900000],"boundingbox_size":[94.871162,76.772300,11.800000]}

;TYPE:Custom
; custom gcode: start_gcode
M106 P4 S255
M140 S95 ; set bed final temp
M104 S240 ; set extruder final temp
M190 S95 ; wait for bed final temp
M109 S240 ; wait for extruder final temp
;G29
G28
;M98 P"/macros/nozzle/brush.g"
;PRINT_START

G92 E0 ;Reset Extruder
;;G1 Z2.0 F3000 ;Move Z Axis up


G1 X100 Y4.6 Z0.3 F18000.0 ; Move to side a little

G1 X5 Y4.6 Z0.3 F1500.0 E10 ; Draw the second line

G1 X5 Y4.2 Z0.3 F1500.0 E10 ; Draw the third line

G1 X100 Y4.2 Z0.3 F1500.0 E10 ; Draw the third line


;G92 E0;		Reset extruder
;G1 X1 Y10 F6000;
;G1 Z1.7;
;G1 X1 Y60 E140 F50;
;G1 E-<DESTRING> F1500;
;G1 Z4
;G1 X<NEXTX> Y<NEXTY> F12000;
;G92 E0 ;Reset Extruder

;G1 Z2.0 F3000 ;Move Z Axis up
; custom gcode end: start_gcode
M107
G21 ; set units to millimeters
G90 ; use absolute coordinates
M83 ; use relative distances for extrusion
; custom gcode: start_filament_gcode
; Filament gcode
M572 D0 S0.07
; custom gcode end: start_filament_gcode
;LAYER_CHANGE
;Z:0.2
;HEIGHT:0.2
; custom gcode: before_layer_gcode
;BEFORE_LAYER_CHANGE
;0.2

; custom gcode end: before_layer_gcode

G1 Z0.200000 F18000.000
; custom gcode: layer_gcode
;AFTER_LAYER_CHANGE
;0.2
; custom gcode end: layer_gcode

G1 E-0.80000 F3000.00000
G1 Z1.000000 F18000.000
G1 X85.514 Y94.760
G1 Z0.200000
G1 E0.80000 F2100.00000
; custom gcode: feature_gcode
;Skirt
M204 P2000 T5000
; custom gcode end: feature_gcode

;TYPE:Skirt
G1 F2400.000
G1 X98.883 Y81.546 E0.59171
G1 X99.811 Y80.817 E0.03716
G1 X100.979 Y80.206 E0.04151
G1 X102.227 Y79.829 E0.04105
G1 X103.495 Y79.695 E0.04012
G1 X175.504 Y79.694 E2.26680
G1 X176.832 Y79.823 E0.04201
G1 X178.077 Y80.192 E0.04089
G1 X179.265 Y80.808 E0.04212
G1 X180.185 Y81.526 E0.03674
G1 X181.153 Y82.624 E0.04608
G1 X181.739 Y83.633 E0.03672
G1 X182.023 Y84.320 E0.02338
G1 X182.342 Y85.603 E0.04162
G1 X182.424 Y86.610 E0.03182
G1 X182.424 Y140.619 E1.70015
G1 X182.324 Y141.778 E0.03663
G1 X182.018 Y142.934 E0.03764
G1 X181.778 Y143.528 E0.02016
G1 X181.239 Y144.491 E0.03474
G1 X180.506 Y145.400 E0.03675
G1 X163.244 Y162.463 E0.76408
G1 X162.316 Y163.192 E0.03716
G1 X161.148 Y163.804 E0.04151
G1 X159.899 Y164.180 E0.04105
G1 X158.632 Y164.314 E0.04012
G1 X86.608 Y164.316 E2.26726
G1 X85.247 Y164.176 E0.04308
G1 X83.904 Y163.757 E0.04426
G1 X82.699 Y163.092 E0.04334
G1 X81.556 Y162.101 E0.04762
G1 X80.826 Y161.171 E0.03720
G1 X80.215 Y160.003 E0.04151
G1 X79.840 Y158.760 E0.04089
G1 X79.705 Y157.502 E0.03982
G1 X79.703 Y103.381 E1.70370
G1 X79.848 Y101.981 E0.04431
G1 X80.385 Y100.412 E0.05220
G1 X80.898 Y99.502 E0.03289
G1 X81.634 Y98.595 E0.03675
G1 X85.471 Y94.802 E0.16987
G1 X85.798 Y95.051 F18000.000
G1 F2400.000
G1 X99.156 Y81.848 E0.59125
G1 X100.030 Y81.160 E0.03500
G1 X101.134 Y80.582 E0.03920
G1 X102.308 Y80.228 E0.03862
G1 X103.510 Y80.102 E0.03804
G1 X175.504 Y80.101 E2.26631
G1 X176.754 Y80.223 E0.03956
G1 X177.935 Y80.573 E0.03877
G1 X179.052 Y81.155 E0.03964
G1 X179.923 Y81.838 E0.03484
G1 X180.832 Y82.874 E0.04339
G1 X181.384 Y83.833 E0.03482
G1 X181.807 Y85.012 E0.03945
G1 X181.940 Y85.670 E0.02112
G1 X182.017 Y86.611 E0.02974
G1 X182.017 Y140.619 E1.70011
G1 X181.919 Y141.733 E0.03520
G1 X181.409 Y143.355 E0.05353
G1 X180.901 Y144.264 E0.03280
G1 X180.199 Y145.132 E0.03514
G1 X162.970 Y162.162 E0.76259
G1 X162.096 Y162.849 E0.03500
G1 X160.993 Y163.427 E0.03920
G1 X159.818 Y163.781 E0.03862
G1 X158.616 Y163.908 E0.03804
G1 X86.614 Y163.909 E2.26660
G1 X85.331 Y163.778 E0.04058
G1 X84.068 Y163.384 E0.04167
G1 X82.932 Y162.759 E0.04080
G1 X81.856 Y161.825 E0.04485
G1 X81.172 Y160.956 E0.03484
G1 X80.593 Y159.853 E0.03920
G1 X80.238 Y158.678 E0.03862
G1 X80.111 Y157.486 E0.03775
G1 X80.110 Y103.382 E1.70317
G1 X80.247 Y102.063 E0.04174
G1 X80.747 Y100.597 E0.04875
G1 X81.236 Y99.730 E0.03134
G1 X81.937 Y98.867 E0.03499
G1 X85.755 Y95.093 E0.16902
G1 X86.082 Y95.341 F18000.000
G1 F2400.000
G1 X99.430 Y82.149 E0.59077
G1 X100.247 Y81.505 E0.03276
G1 X101.285 Y80.960 E0.03689
G1 X102.390 Y80.627 E0.03634
G1 X103.526 Y80.509 E0.03593
G1 X175.503 Y80.508 E2.26581
G1 X176.686 Y80.624 E0.03742
G1 X177.821 Y80.966 E0.03730
G1 X178.875 Y81.525 E0.03757
G1 X179.766 Y82.246 E0.03607
G1 X180.555 Y83.187 E0.03866
G1 X181.108 Y84.196 E0.03620
G1 X181.473 Y85.337 E0.03771
G1 X181.595 Y86.314 E0.03099
G1 X181.609 Y140.623 E1.70962
G1 X181.514 Y141.686 E0.03360
G1 X181.042 Y143.178 E0.04927
G1 X180.563 Y144.038 E0.03100
G1 X179.896 Y144.861 E0.03334
G1 X162.697 Y161.860 E0.76125
G1 X161.879 Y162.505 E0.03276
G1 X160.842 Y163.049 E0.03689
G1 X159.736 Y163.382 E0.03634
G1 X158.601 Y163.501 E0.03593
G1 X86.615 Y163.501 E2.26608
G1 X85.419 Y163.381 E0.03783
G1 X84.234 Y163.013 E0.03907
G1 X83.172 Y162.430 E0.03812
G1 X82.159 Y161.553 E0.04220
G1 X81.514 Y160.735 E0.03278
G1 X80.969 Y159.697 E0.03689
G1 X80.636 Y158.592 E0.03634
G1 X80.518 Y157.470 E0.03552
G1 X80.517 Y103.382 E1.70264
G1 X80.646 Y102.144 E0.03920
G1 X81.108 Y100.785 E0.04518
G1 X81.571 Y99.960 E0.02977
G1 X82.240 Y99.139 E0.03334
G1 X86.040 Y95.384 E0.16818
G1 X86.367 Y95.631 F18000.000
G1 F2400.000
G1 X99.704 Y82.451 E0.59026
G1 X100.466 Y81.848 E0.03059
G1 X101.438 Y81.337 E0.03456
G1 X102.473 Y81.026 E0.03405
G1 X103.537 Y80.916 E0.03367
G1 X175.503 Y80.915 E2.26544
G1 X176.610 Y81.024 E0.03503
G1 X177.669 Y81.344 E0.03482
G1 X178.653 Y81.866 E0.03507
G1 X179.490 Y82.545 E0.03392
G1 X180.224 Y83.425 E0.03609
G1 X180.740 Y84.371 E0.03392
G1 X181.078 Y85.437 E0.03519
G1 X181.191 Y86.370 E0.02958
G1 X181.202 Y140.623 E1.70785
G1 X181.110 Y141.638 E0.03210
G1 X180.675 Y143.003 E0.04508
G1 X180.226 Y143.810 E0.02907
G1 X179.592 Y144.589 E0.03163
G1 X162.423 Y161.559 E0.75991
G1 X161.661 Y162.161 E0.03059
G1 X160.689 Y162.672 E0.03456
G1 X159.653 Y162.984 E0.03405
G1 X158.589 Y163.094 E0.03367
G1 X86.620 Y163.094 E2.26556
G1 X85.500 Y162.982 E0.03541
G1 X84.398 Y162.640 E0.03634
G1 X83.407 Y162.097 E0.03558
G1 X82.460 Y161.279 E0.03938
G1 X81.857 Y160.517 E0.03060
G1 X81.347 Y159.545 E0.03456
G1 X81.036 Y158.513 E0.03392
G1 X80.925 Y157.457 E0.03341
G1 X80.924 Y103.387 E1.70210
G1 X81.044 Y102.228 E0.03668
G1 X81.469 Y100.974 E0.04166
G1 X81.905 Y100.193 E0.02818
G1 X82.540 Y99.414 E0.03163
G1 X86.325 Y95.674 E0.16751
; printing object Inverted_DIN_Mount(Mirror)_x2.stl id:0 copy 0
G1 E-0.08000 F3000.00000
G1 F14400.000
G1 X88.783 Y93.244 E-0.68400
G1 E-0.03600 F3000.00000
G1 Z0.600000 F18000.000
G1 X112.012 Y103.248
G1 Z0.200000
G1 E0.80000 F2100.00000
; custom gcode: feature_gcode
;Perimeter                        ;  Perimeter
M204 P1000 T5000
; custom gcode end: feature_gcode

;TYPE:Perimeter
G1 F2400.000
G1 X111.698 Y103.007 E0.01244
G1 X111.333 Y102.856 E0.01244
G1 X110.991 Y102.811 E0.01087
G1 X110.492 Y102.811 E0.01572
G1 X110.150 Y102.856 E0.01086
G1 X109.784 Y103.007 E0.01244
G1 X109.471 Y103.248 E0.01244
G1 X109.230 Y103.562 E0.01244
G1 X109.079 Y103.927 E0.01244
G1 X109.034 Y104.269 E0.01087
G1 X109.034 Y105.784 E0.04768
G1 X108.657 Y106.411 E0.02304
G1 X106.742 Y106.411 E0.06030
G1 X105.242 Y104.911 E0.06678
G1 X102.534 Y104.911 E0.08523
G1 X102.534 Y138.326 E1.05188
G1 X105.242 Y138.326 E0.08523
G1 X106.742 Y136.826 E0.06678
G1 X108.657 Y136.826 E0.06030
G1 X109.034 Y137.453 E0.02304
G1 X109.034 Y138.968 E0.04768
G1 X109.079 Y139.310 E0.01087
G1 X109.230 Y139.676 E0.01244
G1 X109.471 Y139.989 E0.01244
G1 X109.784 Y140.230 E0.01244
G1 X110.150 Y140.381 E0.01244
G1 X110.492 Y140.426 E0.01086
G1 X110.991 Y140.426 E0.01572
G1 X111.333 Y140.381 E0.01086
G1 X111.698 Y140.230 E0.01244
G1 X112.012 Y139.989 E0.01244
G1 X112.253 Y139.676 E0.01244
G1 X112.404 Y139.310 E0.01244
G1 X112.449 Y138.968 E0.01087
G1 X112.449 Y104.269 E1.09231
G1 X112.404 Y103.927 E0.01087
G1 X112.253 Y103.562 E0.01244
G1 X112.048 Y103.296 E0.01055
G1 X111.718 Y103.542 F18000.000
; custom gcode: feature_gcode
;ExternalPerimeter                   ;  ExternalPerimeter
M204 P750 T5000
; custom gcode end: feature_gcode

;TYPE:External perimeter
G1 F2100.000
G1 X111.490 Y103.368 E0.00902
G1 X111.226 Y103.258 E0.00902
G1 X110.964 Y103.224 E0.00830
G1 X110.519 Y103.224 E0.01402
G1 X110.257 Y103.258 E0.00830
G1 X109.992 Y103.368 E0.00902
G1 X109.765 Y103.542 E0.00902
G1 X109.591 Y103.770 E0.00902
G1 X109.481 Y104.034 E0.00902
G1 X109.446 Y104.296 E0.00830
G1 X109.446 Y105.898 E0.05043
G1 X108.971 Y106.690 E0.02908
G1 X108.919 Y106.755 E0.00259
G1 X108.816 Y106.813 E0.00374
G1 X106.571 Y106.824 E0.07069
G1 X105.071 Y105.324 E0.06678
G1 X102.946 Y105.324 E0.06687
G1 X102.946 Y137.914 E1.02591
G1 X105.071 Y137.914 E0.06687
G1 X106.571 Y136.414 E0.06678
G1 X108.816 Y136.424 E0.07069
G1 X108.919 Y136.483 E0.00374
G1 X108.971 Y136.547 E0.00259
G1 X109.446 Y137.339 E0.02908
G1 X109.446 Y138.941 E0.05043
G1 X109.481 Y139.203 E0.00830
G1 X109.591 Y139.468 E0.00902
G1 X109.765 Y139.695 E0.00902
G1 X109.992 Y139.869 E0.00902
G1 X110.257 Y139.979 E0.00902
G1 X110.519 Y140.014 E0.00830
G1 X110.964 Y140.014 E0.01402
G1 X111.226 Y139.979 E0.00830
G1 X111.490 Y139.869 E0.00902
G1 X111.718 Y139.695 E0.00902
G1 X111.892 Y139.468 E0.00902
G1 X112.002 Y139.203 E0.00902
G1 X112.036 Y138.941 E0.00830
G1 X112.036 Y104.296 E1.09061
G1 X112.002 Y104.034 E0.00830
G1 X111.892 Y103.770 E0.00902
G1 X111.754 Y103.590 E0.00713
G1 X111.780 Y103.262 F18000.000
G1 E-0.08000 F3000.00000
G1 F14400.000
G1 X111.490 Y103.368 E-0.06827
G1 X111.226 Y103.258 E-0.05673
G1 X110.964 Y103.224 E-0.05221
G1 X110.519 Y103.224 E-0.08812
G1 X110.257 Y103.258 E-0.05221
G1 X109.992 Y103.368 E-0.05673
G1 X109.765 Y103.542 E-0.05673
G1 X109.591 Y103.770 E-0.05673
G1 X109.481 Y104.034 E-0.05673
G1 X109.446 Y104.296 E-0.05221
G1 X109.446 Y104.737 E-0.08733
G1 E-0.03600 F3000.00000
G1 X108.220 Y137.640 F18000.000
G1 E0.80000 F2100.00000
; custom gcode: feature_gcode
;Perimeter                        ;  Perimeter
M204 P1000 T5000
; custom gcode end: feature_gcode

;TYPE:Perimeter
G1 F2400.000
G1 X108.220 Y139.022 E0.04349
G1 X108.286 Y139.523 E0.01592
G1 X108.519 Y140.086 E0.01919
G1 X108.890 Y140.570 E0.01919
G1 X109.374 Y140.941 E0.01919
G1 X109.937 Y141.174 E0.01919
G1 X110.438 Y141.240 E0.01592
G1 X111.044 Y141.240 E0.01908
G1 X111.546 Y141.174 E0.01592
G1 X112.109 Y140.941 E0.01919
G1 X112.461 Y140.671 E0.01395
G1 X112.692 Y140.832 E0.00888
G1 X112.627 Y141.047 E0.00710
G1 X112.523 Y141.241 E0.00692
G1 X112.384 Y141.411 E0.00692
G1 X112.214 Y141.550 E0.00692
G1 X112.020 Y141.654 E0.00692
G1 X111.810 Y141.718 E0.00692
G1 X111.514 Y141.747 E0.00936
G1 X103.669 Y141.747 E0.24697
G1 X103.373 Y141.718 E0.00936
G1 X103.163 Y141.654 E0.00692
G1 X102.969 Y141.550 E0.00692
G1 X102.799 Y141.411 E0.00692
G1 X102.660 Y141.241 E0.00692
G1 X102.556 Y141.047 E0.00692
G1 X102.492 Y140.837 E0.00692
G1 X102.463 Y140.541 E0.00936
G1 X102.463 Y139.140 E0.04411
G1 X105.579 Y139.140 E0.09808
G1 X107.079 Y137.640 E0.06678
G1 X108.160 Y137.640 E0.03403
G1 X108.427 Y137.233 F18000.000
G1 F2400.000
G1 X108.627 Y137.566 E0.01224
G1 X108.627 Y138.995 E0.04497
G1 X108.682 Y139.417 E0.01339
G1 X108.875 Y139.881 E0.01582
G1 X109.181 Y140.279 E0.01582
G1 X109.579 Y140.585 E0.01582
G1 X110.043 Y140.778 E0.01582
G1 X110.465 Y140.833 E0.01339
G1 X111.018 Y140.833 E0.01740
G1 X111.440 Y140.778 E0.01339
G1 X111.904 Y140.585 E0.01582
G1 X112.302 Y140.279 E0.01582
G1 X112.608 Y139.881 E0.01582
G1 X112.816 Y139.380 E0.01707
G1 X113.127 Y139.442 E0.00999
G1 X113.127 Y140.561 E0.03524
G1 X113.092 Y140.917 E0.01125
G1 X113.005 Y141.204 E0.00944
G1 X112.863 Y141.468 E0.00944
G1 X112.673 Y141.700 E0.00944
G1 X112.441 Y141.891 E0.00944
G1 X112.177 Y142.032 E0.00944
G1 X111.890 Y142.119 E0.00944
G1 X111.534 Y142.154 E0.01125
G1 X103.649 Y142.154 E0.24823
G1 X103.293 Y142.119 E0.01125
G1 X103.006 Y142.032 E0.00944
G1 X102.741 Y141.891 E0.00944
G1 X102.510 Y141.700 E0.00944
G1 X102.319 Y141.468 E0.00944
G1 X102.178 Y141.204 E0.00944
G1 X102.091 Y140.917 E0.00944
G1 X102.056 Y140.561 E0.01125
G1 X102.056 Y138.733 E0.05755
G1 X105.410 Y138.733 E0.10559
G1 X106.910 Y137.233 E0.06678
G1 X108.367 Y137.233 E0.04585
G1 E-0.08000 F3000.00000
G1 F14400.000
G1 X108.627 Y137.566 E-0.08368
G1 X108.627 Y138.995 E-0.28274
G1 X108.682 Y139.417 E-0.08420
G1 X108.875 Y139.881 E-0.09943
G1 X109.181 Y140.279 E-0.09944
G1 X109.319 Y140.386 E-0.03451
G1 E-0.03600 F3000.00000
G1 X169.391 Y135.501 F18000.000
G1 E0.80000 F2100.00000
G1 F2400.000
G1 X169.033 Y136.158 E0.02357
G1 X168.812 Y136.874 E0.02358
G1 X168.738 Y137.619 E0.02356
G1 X168.812 Y138.363 E0.02356
G1 X169.033 Y139.079 E0.02358
G1 X169.391 Y139.737 E0.02357
G1 X169.873 Y140.310 E0.02357
G1 X170.459 Y140.777 E0.02357
G1 X171.125 Y141.118 E0.02357
G1 X171.846 Y141.320 E0.02356
G1 X172.583 Y141.375 E0.02328
G1 X173.160 Y141.318 E0.01824
G1 X173.873 Y141.118 E0.02332
G1 X174.539 Y140.777 E0.02357
G1 X175.125 Y140.310 E0.02357
G1 X175.606 Y139.737 E0.02357
G1 X175.965 Y139.079 E0.02357
G1 X176.186 Y138.363 E0.02358
G1 X176.260 Y137.619 E0.02356
G1 X176.186 Y136.874 E0.02356
G1 X175.965 Y136.158 E0.02358
G1 X175.606 Y135.501 E0.02357
G1 X175.125 Y134.927 E0.02357
G1 X174.539 Y134.461 E0.02357
G1 X173.873 Y134.119 E0.02357
G1 X173.152 Y133.917 E0.02356
G1 X172.415 Y133.862 E0.02328
G1 X171.838 Y133.919 E0.01824
G1 X171.125 Y134.119 E0.02332
G1 X170.459 Y134.461 E0.02357
G1 X169.873 Y134.927 E0.02357
G1 X169.430 Y135.455 E0.02168
G1 X169.734 Y135.734 F18000.000
; custom gcode: feature_gcode
;ExternalPerimeter                   ;  ExternalPerimeter
M204 P750 T5000
; custom gcode end: feature_gcode

;TYPE:External perimeter
G1 F2100.000
G1 X169.415 Y136.319 E0.02097
G1 X169.219 Y136.956 E0.02098
G1 X169.152 Y137.619 E0.02096
G1 X169.219 Y138.281 E0.02096
G1 X169.415 Y138.918 E0.02098
G1 X169.734 Y139.503 E0.02097
G1 X170.162 Y140.013 E0.02097
G1 X170.683 Y140.428 E0.02097
G1 X171.276 Y140.732 E0.02097
G1 X171.917 Y140.912 E0.02096
G1 X172.578 Y140.961 E0.02086
G1 X173.083 Y140.911 E0.01598
G1 X173.722 Y140.732 E0.02088
G1 X174.315 Y140.428 E0.02097
G1 X174.836 Y140.013 E0.02097
G1 X175.264 Y139.503 E0.02097
G1 X175.583 Y138.918 E0.02097
G1 X175.779 Y138.281 E0.02098
G1 X175.846 Y137.619 E0.02096
G1 X175.779 Y136.956 E0.02096
G1 X175.583 Y136.319 E0.02098
G1 X175.264 Y135.734 E0.02097
G1 X174.836 Y135.224 E0.02097
G1 X174.315 Y134.809 E0.02097
G1 X173.722 Y134.505 E0.02097
G1 X173.081 Y134.325 E0.02096
G1 X172.420 Y134.276 E0.02086
G1 X171.915 Y134.326 E0.01598
G1 X171.276 Y134.505 E0.02088
G1 X170.683 Y134.809 E0.02097
G1 X170.162 Y135.224 E0.02097
G1 X169.772 Y135.688 E0.01908
G1 X169.334 Y135.717 F18000.000
G1 E-0.08000 F3000.00000
G1 F14400.000
G1 X169.415 Y136.319 E-0.14353
G1 X169.219 Y136.956 E-0.13188
G1 X169.152 Y137.619 E-0.13181
G1 X169.219 Y138.281 E-0.13181
G1 X169.415 Y138.918 E-0.13188
G1 X169.447 Y138.976 E-0.01310
G1 E-0.03600 F3000.00000
G1 X168.812 Y90.363 F18000.000
G1 E0.80000 F2100.00000
; custom gcode: feature_gcode
;Perimeter                        ;  Perimeter
M204 P1000 T5000
; custom gcode end: feature_gcode

;TYPE:Perimeter
G1 F2400.000
