G10 P0 R240 S240 ; sets the standby temperature
; generated by SuperSlicer 2.3.55 on 2024-05-01 at 13:46:01 UTC

; TODO: check the size of the extruder and the y-bar clearance. Optimize & test supports.

; external perimeters extrusion width = 0.39mm
; perimeters extrusion width = 0.60mm
; infill extrusion width = 0.60mm
; solid infill extrusion width = 0.60mm
; top infill extrusion width = 0.32mm
; support material extrusion width = 0.40mm
; first layer extrusion width = 0.45mm

; object:{"name":"C:/Users/muchm/AppData/Local/Temp/Neutron/Körper9","id":"C:/Users/muchm/AppData/Local/Temp/Neutron/Körper9.stl id:0 copy 0","object_center":[125.000000,125.000000,0.000000],"boundingbox_center":[125.000000,125.000000,18.500000],"boundingbox_size":[63.849998,51.349998,37.000000]}
; plater:{"center":[125.000000,125.000000,0.000000],"boundingbox_center":[125.000000,125.000000,18.500000],"boundingbox_size":[63.849998,51.349998,37.000000]}

;TYPE:Custom
; custom gcode: start_gcode
M106 P4 S255
M140 S100 ; set bed final temp
M104 S240 ; set extruder final temp
M190 S100 ; wait for bed final temp
M109 S240 ; wait for extruder final temp
;G29
G28
;M98 P"/macros/nozzle/brush.g"
;PRINT_START

G92 E0 ;Reset Extruder
;;G1 Z2.0 F3000 ;Move Z Axis up


G1 X100 Y4.6 Z0.3 F18000.0 ; Move to side a little

G1 X5 Y4.6 Z0.3 F1500.0 E10 ; Draw the second line

G1 X5 Y4.2 Z0.3 F1500.0 E10 ; Draw the third line

G1 X100 Y4.2 Z0.3 F1500.0 E10 ; Draw the third line


;G92 E0;		Reset extruder
;G1 X1 Y10 F6000;
;G1 Z1.7;
;G1 X1 Y60 E140 F50;
;G1 E-<DESTRING> F1500;
;G1 Z4
;G1 X<NEXTX> Y<NEXTY> F12000;
;G92 E0 ;Reset Extruder

;G1 Z2.0 F3000 ;Move Z Axis up
; custom gcode end: start_gcode
M107
G21 ; set units to millimeters
G90 ; use absolute coordinates
M83 ; use relative distances for extrusion
; custom gcode: start_filament_gcode
; Filament gcode
M572 D0 S0.05
; custom gcode end: start_filament_gcode
;LAYER_CHANGE
;Z:0.2
;HEIGHT:0.2
; custom gcode: before_layer_gcode
;BEFORE_LAYER_CHANGE
;0.2

; custom gcode end: before_layer_gcode

G1 Z0.200000 F18000.000
; custom gcode: layer_gcode
;AFTER_LAYER_CHANGE
;0.2
; custom gcode end: layer_gcode

G1 E-0.80000 F3000.00000
G1 Z1.000000 F18000.000
G1 X89.988 Y95.947
G1 Z0.200000
G1 E0.80000 F2100.00000
; custom gcode: feature_gcode
;Skirt
M204 P2000 T5000
; custom gcode end: feature_gcode

;TYPE:Skirt
G1 F2400.000
G1 X91.225 Y94.980 E0.04747
G1 X92.605 Y94.280 E0.04677
G1 X93.903 Y93.889 E0.04097
G1 X95.382 Y93.718 E0.04501
G1 X154.431 Y93.714 E1.78486
G1 X155.993 Y93.869 E0.04744
G1 X157.304 Y94.245 E0.04123
G1 X158.717 Y94.943 E0.04765
G1 X159.957 Y95.897 E0.04730
G1 X160.882 Y96.919 E0.04168
G1 X161.705 Y98.250 E0.04730
G1 X162.259 Y99.733 E0.04782
G1 X162.496 Y101.026 E0.03974
G1 X162.529 Y148.438 E1.43314
G1 X162.326 Y150.006 E0.04779
G1 X161.799 Y151.550 E0.04932
G1 X160.947 Y152.993 E0.05064
G1 X160.012 Y154.053 E0.04272
G1 X158.770 Y155.024 E0.04765
G1 X157.395 Y155.720 E0.04659
G1 X156.097 Y156.111 E0.04097
G1 X154.618 Y156.282 E0.04501
G1 X95.552 Y156.286 E1.78539
G1 X93.847 Y156.099 E0.05184
G1 X92.275 Y155.582 E0.05002
G1 X90.781 Y154.714 E0.05222
G1 X89.697 Y153.762 E0.04361
G1 X88.784 Y152.608 E0.04448
G1 X88.145 Y151.419 E0.04080
G1 X87.664 Y149.961 E0.04641
G1 X87.469 Y148.414 E0.04712
G1 X87.464 Y101.796 E1.40914
G1 X87.651 Y100.097 E0.05167
G1 X88.168 Y98.525 E0.05002
G1 X89.033 Y97.036 E0.05204
G1 X89.949 Y95.992 E0.04197
G1 X90.254 Y96.262 F18000.000
G1 F2400.000
G1 X91.453 Y95.317 E0.04613
G1 X92.766 Y94.654 E0.04448
G1 X93.994 Y94.286 E0.03875
G1 X95.406 Y94.124 E0.04296
G1 X154.431 Y94.121 E1.78413
G1 X155.916 Y94.269 E0.04512
G1 X157.157 Y94.624 E0.03902
G1 X158.506 Y95.292 E0.04550
G1 X159.689 Y96.204 E0.04516
G1 X160.560 Y97.168 E0.03926
G1 X161.344 Y98.439 E0.04516
G1 X161.869 Y99.850 E0.04550
G1 X162.092 Y101.084 E0.03790
G1 X162.123 Y148.412 E1.43057
G1 X161.930 Y149.909 E0.04562
G1 X161.427 Y151.385 E0.04713
G1 X160.615 Y152.757 E0.04821
G1 X159.721 Y153.767 E0.04078
G1 X158.547 Y154.683 E0.04499
G1 X157.234 Y155.346 E0.04448
G1 X156.011 Y155.713 E0.03858
G1 X154.599 Y155.876 E0.04295
G1 X95.552 Y155.878 E1.78481
G1 X93.929 Y155.700 E0.04936
G1 X92.433 Y155.207 E0.04764
G1 X91.011 Y154.378 E0.04973
G1 X89.983 Y153.471 E0.04146
G1 X89.067 Y152.297 E0.04499
G1 X88.409 Y150.994 E0.04414
G1 X88.040 Y149.778 E0.03841
G1 X87.876 Y148.389 E0.04228
G1 X87.872 Y101.797 E1.40833
G1 X88.050 Y100.179 E0.04919
G1 X88.545 Y98.677 E0.04781
G1 X89.372 Y97.261 E0.04956
G1 X90.214 Y96.307 E0.03849
; printing object C:/Users/muchm/AppData/Local/Temp/Neutron/Körper9.stl id:0 copy 0
G1 E-0.08000 F3000.00000
G1 F14400.000
G1 X91.453 Y95.317 E-0.31372
G1 X92.766 Y94.654 E-0.29125
G1 X93.149 Y94.540 E-0.07902
G1 E-0.03600 F3000.00000
G1 Z0.600000 F18000.000
G1 X94.285 Y100.535
G1 Z0.200000
G1 E0.80000 F2100.00000
; custom gcode: feature_gcode
;ExternalPerimeter                   ;  ExternalPerimeter
M204 P750 T5000
; custom gcode end: feature_gcode

;TYPE:External perimeter
G1 F2400.000
G1 X94.132 Y100.708 E0.00698
G1 X94.003 Y100.899 E0.00697
G1 X93.900 Y101.104 E0.00694
G1 X93.809 Y101.370 E0.00848
G1 X93.765 Y101.595 E0.00693
G1 X93.750 Y101.834 E0.00724
G1 X93.750 Y148.164 E1.40044
G1 X93.774 Y148.455 E0.00881
G1 X93.881 Y148.850 E0.01237
G1 X94.004 Y149.102 E0.00848
G1 X94.132 Y149.292 E0.00693
G1 X94.285 Y149.465 E0.00698
G1 X94.458 Y149.618 E0.00698
G1 X94.649 Y149.747 E0.00697
G1 X94.854 Y149.850 E0.00694
G1 X95.120 Y149.941 E0.00848
G1 X95.345 Y149.985 E0.00693
G1 X95.584 Y150.000 E0.00724
G1 X154.414 Y150.000 E1.77828
G1 X154.705 Y149.976 E0.00881
G1 X155.100 Y149.869 E0.01237
G1 X155.352 Y149.746 E0.00848
G1 X155.542 Y149.618 E0.00693
G1 X155.715 Y149.465 E0.00698
G1 X155.868 Y149.292 E0.00698
G1 X155.997 Y149.101 E0.00697
G1 X156.100 Y148.896 E0.00694
G1 X156.191 Y148.630 E0.00848
G1 X156.235 Y148.405 E0.00693
G1 X156.250 Y148.166 E0.00724
G1 X156.250 Y101.836 E1.40044
G1 X156.226 Y101.545 E0.00881
G1 X156.191 Y101.369 E0.00544
G1 X156.119 Y101.150 E0.00696
G1 X155.996 Y100.898 E0.00848
G1 X155.868 Y100.708 E0.00693
G1 X155.716 Y100.536 E0.00692
G1 X155.501 Y100.353 E0.00855
G1 X155.146 Y100.150 E0.01237
G1 X154.880 Y100.059 E0.00848
G1 X154.655 Y100.015 E0.00693
G1 X154.471 Y100.003 E0.00559
G1 X95.586 Y100.000 E1.77992
G1 X95.295 Y100.024 E0.00881
G1 X94.900 Y100.131 E0.01237
G1 X94.648 Y100.254 E0.00848
G1 X94.330 Y100.495 E0.01207
G1 X94.345 Y100.758 F18000.000
G1 X94.709 Y100.707
; custom gcode: feature_gcode
;Perimeter                        ;  Perimeter
M204 P1000 T5000
; custom gcode end: feature_gcode

;TYPE:Perimeter
G1 F2400.000
G1 X94.457 Y100.959 E0.01079
G1 X94.278 Y101.263 E0.01067
G1 X94.205 Y101.475 E0.00677
G1 X94.159 Y101.847 E0.01131
G1 X94.159 Y148.148 E1.39955
G1 X94.180 Y148.398 E0.00759
G1 X94.261 Y148.695 E0.00931
G1 X94.359 Y148.896 E0.00677
G1 X94.457 Y149.041 E0.00527
G1 X94.709 Y149.293 E0.01079
G1 X95.013 Y149.472 E0.01067
G1 X95.225 Y149.545 E0.00677
G1 X95.597 Y149.591 E0.01131
G1 X154.398 Y149.591 E1.77739
G1 X154.648 Y149.570 E0.00759
G1 X154.945 Y149.489 E0.00931
G1 X155.146 Y149.391 E0.00677
G1 X155.291 Y149.293 E0.00527
G1 X155.543 Y149.041 E0.01079
G1 X155.722 Y148.737 E0.01067
G1 X155.795 Y148.525 E0.00677
G1 X155.841 Y148.153 E0.01131
G1 X155.841 Y101.852 E1.39955
G1 X155.795 Y101.473 E0.01154
G1 X155.739 Y101.305 E0.00535
G1 X155.641 Y101.104 E0.00677
G1 X155.429 Y100.829 E0.01049
G1 X155.254 Y100.680 E0.00694
G1 X154.987 Y100.528 E0.00931
G1 X154.775 Y100.455 E0.00677
G1 X154.457 Y100.412 E0.00969
G1 X95.602 Y100.409 E1.77901
G1 X95.223 Y100.455 E0.01154
G1 X95.055 Y100.511 E0.00535
G1 X94.759 Y100.673 E0.01021
G1 X94.987 Y101.010 F18000.000
G1 F2400.000
G1 X94.779 Y101.209 E0.00868
G1 X94.654 Y101.422 E0.00749
G1 X94.599 Y101.580 E0.00506
G1 X94.566 Y101.859 E0.00850
G1 X94.566 Y148.131 E1.39866
G1 X94.583 Y148.342 E0.00638
G1 X94.638 Y148.542 E0.00626
G1 X94.779 Y148.791 E0.00867
G1 X94.959 Y148.971 E0.00766
G1 X95.172 Y149.096 E0.00749
G1 X95.330 Y149.151 E0.00506
G1 X95.609 Y149.184 E0.00850
G1 X154.381 Y149.184 E1.77650
G1 X154.592 Y149.167 E0.00638
G1 X154.792 Y149.112 E0.00626
G1 X155.041 Y148.971 E0.00867
G1 X155.221 Y148.791 E0.00766
G1 X155.346 Y148.578 E0.00749
G1 X155.401 Y148.420 E0.00506
G1 X155.434 Y148.141 E0.00850
G1 X155.434 Y101.869 E1.39866
G1 X155.400 Y101.577 E0.00888
G1 X155.288 Y101.308 E0.00880
G1 X155.143 Y101.120 E0.00717
G1 X155.008 Y101.006 E0.00534
G1 X154.828 Y100.904 E0.00626
G1 X154.670 Y100.849 E0.00506
G1 X154.444 Y100.819 E0.00689
G1 X95.619 Y100.816 E1.77811
G1 X95.327 Y100.850 E0.00888
G1 X95.037 Y100.977 E0.00957
G1 X94.994 Y101.685 F18000.000
G1 F2400.000
G1 X94.973 Y101.872 E0.00568
G1 X94.973 Y148.115 E1.39777
G1 X94.987 Y148.285 E0.00517
G1 X95.016 Y148.388 E0.00322
G1 X95.102 Y148.542 E0.00533
G1 X95.208 Y148.648 E0.00454
G1 X95.330 Y148.720 E0.00430
G1 X95.435 Y148.756 E0.00335
G1 X95.622 Y148.777 E0.00568
G1 X154.365 Y148.777 E1.77561
G1 X154.535 Y148.763 E0.00517
G1 X154.638 Y148.734 E0.00322
G1 X154.792 Y148.648 E0.00533
G1 X154.898 Y148.542 E0.00454
G1 X154.970 Y148.420 E0.00430
G1 X155.006 Y148.315 E0.00335
G1 X155.027 Y148.128 E0.00568
G1 X155.027 Y101.885 E1.39777
G1 X155.013 Y101.715 E0.00517
G1 X154.984 Y101.612 E0.00322
G1 X154.898 Y101.458 E0.00533
G1 X154.763 Y101.331 E0.00561
G1 X154.565 Y101.244 E0.00655
G1 X154.430 Y101.226 E0.00409
G1 X95.635 Y101.223 E1.77721
G1 X95.430 Y101.244 E0.00622
G1 X95.263 Y101.315 E0.00551
G1 X95.102 Y101.458 E0.00650
G1 X95.013 Y101.629 E0.00581
G1 X95.437 Y101.648 F18000.000
G1 F2400.000
G1 X95.386 Y101.796 E0.00472
G1 X95.380 Y101.885 E0.00272
G1 X95.380 Y148.098 E1.39688
G1 X95.398 Y148.313 E0.00652
G1 X95.546 Y148.364 E0.00472
G1 X95.635 Y148.370 E0.00272
G1 X154.348 Y148.370 E1.77472
G1 X154.563 Y148.352 E0.00652
G1 X154.614 Y148.204 E0.00472
G1 X154.620 Y148.115 E0.00271
G1 X154.620 Y101.902 E1.39688
G1 X154.602 Y101.687 E0.00652
G1 X154.417 Y101.634 E0.00582
G1 X95.652 Y101.630 E1.77630
G1 X95.497 Y101.643 E0.00470
G1 E-0.08000 F3000.00000
G1 F14400.000
G1 X95.386 Y101.796 E-0.03729
G1 X95.380 Y101.885 E-0.01778
G1 X95.380 Y105.063 E-0.62893
G1 E-0.03600 F3000.00000
G1 X153.315 Y101.772 F18000.000
G1 E0.80000 F2100.00000
; custom gcode: feature_gcode
;SolidInfill                      ;  SolidInfill
M204 P2000 T5000
; custom gcode end: feature_gcode

;TYPE:Solid infill
G1 F3600.000
G1 X154.298 Y102.339 E0.03430
G1 X154.298 Y102.809 E0.01421
G1 X152.818 Y101.955 E0.05164
G1 X152.004 Y101.955 E0.02461
G1 X154.298 Y103.279 E0.08006
G1 X154.298 Y103.749 E0.01421
G1 X151.190 Y101.955 E0.10848
G1 X150.376 Y101.955 E0.02461
G1 X154.298 Y104.219 E0.13690
G1 X154.298 Y104.689 E0.01421
G1 X149.561 Y101.955 E0.16532
G1 X148.747 Y101.955 E0.02461
G1 X154.298 Y105.160 E0.19374
G1 X154.298 Y105.630 E0.01421
G1 X147.933 Y101.955 E0.22216
G1 X147.119 Y101.955 E0.02461
G1 X154.298 Y106.100 E0.25058
G1 X154.298 Y106.570 E0.01421
G1 X146.305 Y101.955 E0.27900
G1 X145.490 Y101.955 E0.02461
G1 X154.298 Y107.040 E0.30741
G1 X154.298 Y107.510 E0.01421
G1 X144.676 Y101.955 E0.33583
G1 X143.862 Y101.955 E0.02461
G1 X154.298 Y107.980 E0.36425
G1 X154.298 Y108.450 E0.01421
G1 X143.048 Y101.955 E0.39267
G1 X142.233 Y101.954 E0.02461
G1 X154.298 Y108.920 E0.42109
G1 X154.298 Y109.390 E0.01421
G1 X141.419 Y101.954 E0.44951
G1 X140.605 Y101.954 E0.02461
G1 X154.298 Y109.860 E0.47793
G1 X154.298 Y110.330 E0.01421
G1 X139.791 Y101.954 E0.50635
G1 X138.976 Y101.954 E0.02461
G1 X154.298 Y110.800 E0.53477
G1 X154.298 Y111.270 E0.01421
G1 X138.162 Y101.954 E0.56319
G1 X137.348 Y101.954 E0.02461
G1 X154.298 Y111.740 E0.59161
G1 X154.298 Y112.210 E0.01421
G1 X136.534 Y101.954 E0.62003
G1 X135.720 Y101.954 E0.02461
G1 X154.298 Y112.680 E0.64844
G1 X154.298 Y113.150 E0.01421
G1 X134.905 Y101.954 E0.67686
G1 X134.091 Y101.954 E0.02461
G1 X154.298 Y113.620 E0.70528
G1 X154.298 Y114.091 E0.01421
G1 X133.277 Y101.954 E0.73370
G1 X132.463 Y101.954 E0.02461
G1 X154.298 Y114.561 E0.76212
G1 X154.298 Y115.031 E0.01421
G1 X131.648 Y101.954 E0.79054
G1 X130.834 Y101.954 E0.02461
G1 X154.298 Y115.501 E0.81896
G1 X154.298 Y115.971 E0.01421
G1 X130.020 Y101.954 E0.84738
G1 X129.206 Y101.954 E0.02461
G1 X154.298 Y116.441 E0.87580
G1 X154.298 Y116.911 E0.01421
G1 X128.391 Y101.954 E0.90422
G1 X127.577 Y101.954 E0.02461
G1 X154.298 Y117.381 E0.93264
G1 X154.298 Y117.851 E0.01421
G1 X126.763 Y101.954 E0.96106
G1 X125.949 Y101.954 E0.02461
G1 X154.298 Y118.321 E0.98948
G1 X154.298 Y118.791 E0.01421
G1 X125.135 Y101.954 E1.01789
G1 X124.320 Y101.954 E0.02461
G1 X154.298 Y119.261 E1.04631
G1 X154.298 Y119.731 E0.01421
G1 X123.506 Y101.953 E1.07473
G1 X122.692 Y101.953 E0.02461
G1 X154.298 Y120.201 E1.10315
G1 X154.298 Y120.671 E0.01421
G1 X121.878 Y101.953 E1.13157
G1 X121.063 Y101.953 E0.02461
G1 X154.298 Y121.141 E1.15999
G1 X154.298 Y121.611 E0.01421
G1 X120.249 Y101.953 E1.18841
G1 X119.435 Y101.953 E0.02461
G1 X154.298 Y122.081 E1.21683
G1 X154.298 Y122.552 E0.01421
G1 X118.621 Y101.953 E1.24525
G1 X117.806 Y101.953 E0.02461
G1 X154.298 Y123.022 E1.27367
G1 X154.298 Y123.492 E0.01421
G1 X116.992 Y101.953 E1.30209
G1 X116.178 Y101.953 E0.02461
G1 X154.298 Y123.962 E1.33051
G1 X154.298 Y124.432 E0.01421
G1 X115.364 Y101.953 E1.35892
G1 X114.550 Y101.953 E0.02461
G1 X154.298 Y124.902 E1.38734
G1 X154.298 Y125.372 E0.01421
G1 X113.735 Y101.953 E1.41576
G1 X112.921 Y101.953 E0.02461
G1 X154.298 Y125.842 E1.44418
G1 X154.298 Y126.312 E0.01421
G1 X112.107 Y101.953 E1.47260
G1 X111.293 Y101.953 E0.02461
G1 X154.298 Y126.782 E1.50102
G1 X154.298 Y127.252 E0.01421
G1 X110.478 Y101.953 E1.52944
G1 X109.664 Y101.953 E0.02461
G1 X154.298 Y127.722 E1.55786
G1 X154.298 Y128.192 E0.01421
G1 X108.850 Y101.953 E1.58628
G1 X108.036 Y101.953 E0.02461
G1 X154.298 Y128.662 E1.61470
G1 X154.298 Y129.132 E0.01421
G1 X107.221 Y101.953 E1.64312
G1 X106.407 Y101.953 E0.02461
G1 X154.298 Y129.602 E1.67154
G1 X154.298 Y130.072 E0.01421
G1 X105.593 Y101.953 E1.69996
G1 X104.779 Y101.953 E0.02461
G1 X154.298 Y130.542 E1.72837
G1 X154.298 Y131.012 E0.01421
G1 X103.965 Y101.952 E1.75679
G1 X103.150 Y101.952 E0.02461
G1 X154.298 Y131.483 E1.78521
G1 X154.298 Y131.953 E0.01421
G1 X102.336 Y101.952 E1.81363
G1 X101.522 Y101.952 E0.02461
G1 X154.298 Y132.423 E1.84205
G1 X154.298 Y132.893 E0.01421
G1 X100.708 Y101.952 E1.87047
G1 X99.893 Y101.952 E0.02461
G1 X154.298 Y133.363 E1.89889
G1 X154.298 Y133.833 E0.01421
G1 X99.079 Y101.952 E1.92731
G1 X98.265 Y101.952 E0.02461
G1 X154.298 Y134.303 E1.95573
G1 X154.298 Y134.773 E0.01421
G1 X97.451 Y101.952 E1.98415
G1 X96.636 Y101.952 E0.02461
G1 X154.298 Y135.243 E2.01257
G1 X154.298 Y135.713 E0.01421
G1 X95.822 Y101.952 E2.04099
G1 X95.702 Y101.952 E0.00363
G1 X95.702 Y102.353 E0.01211
G1 X154.298 Y136.183 E2.04518
G1 X154.298 Y136.653 E0.01421
G1 X95.702 Y102.823 E2.04518
G1 X95.702 Y103.293 E0.01421
G1 X154.298 Y137.123 E2.04518
G1 X154.298 Y137.593 E0.01421
G1 X95.702 Y103.763 E2.04518
G1 X95.702 Y104.233 E0.01421
G1 X154.298 Y138.063 E2.04518
G1 X154.298 Y138.533 E0.01421
G1 X95.702 Y104.703 E2.04518
G1 X95.702 Y105.173 E0.01421
G1 X154.298 Y139.003 E2.04518
G1 X154.298 Y139.473 E0.01421
G1 X95.702 Y105.643 E2.04518
G1 X95.702 Y106.113 E0.01421
G1 X154.298 Y139.944 E2.04518
G1 X154.298 Y140.414 E0.01421
G1 X95.702 Y106.583 E2.04518
G1 X95.702 Y107.053 E0.01421
G1 X154.298 Y140.884 E2.04518
G1 X154.298 Y141.354 E0.01421
G1 X95.702 Y107.523 E2.04518
G1 X95.702 Y107.993 E0.01421
G1 X154.298 Y141.824 E2.04518
G1 X154.298 Y142.294 E0.01421
G1 X95.702 Y108.463 E2.04518
G1 X95.702 Y108.933 E0.01421
G1 X154.298 Y142.764 E2.04518
G1 X154.298 Y143.234 E0.01421
G1 X95.702 Y109.404 E2.04518
G1 X95.702 Y109.874 E0.01421
G1 X154.298 Y143.704 E2.04518
G1 X154.298 Y144.174 E0.01421
G1 X95.702 Y110.344 E2.04518
G1 X95.702 Y110.814 E0.01421
G1 X154.298 Y144.644 E2.04518
G1 X154.298 Y145.114 E0.01421
G1 X95.702 Y111.284 E2.04518
G1 X95.702 Y111.754 E0.01421
G1 X154.298 Y145.584 E2.04518
G1 X154.298 Y146.054 E0.01421
G1 X95.702 Y112.224 E2.04518
G1 X95.702 Y112.694 E0.01421
