G10 P0 R240 S240 ; sets the standby temperature
; generated by SuperSlicer 2.3.55 on 2024-05-01 at 14:59:04 UTC

; TODO: check the size of the extruder and the y-bar clearance. Optimize & test supports.

; external perimeters extrusion width = 0.39mm
; perimeters extrusion width = 0.60mm
; infill extrusion width = 0.60mm
; solid infill extrusion width = 0.60mm
; top infill extrusion width = 0.32mm
; support material extrusion width = 0.40mm
; first layer extrusion width = 0.45mm

; object:{"name":"C:/Users/muchm/AppData/Local/Temp/Neutron/Körper14","id":"C:/Users/muchm/AppData/Local/Temp/Neutron/Körper14.stl id:0 copy 0","object_center":[125.000000,125.000000,0.000000],"boundingbox_center":[125.000000,125.000000,5.500000],"boundingbox_size":[68.650002,56.150002,11.000000]}
; plater:{"center":[125.000000,125.000000,0.000000],"boundingbox_center":[125.000000,125.000000,5.500000],"boundingbox_size":[68.650002,56.150002,11.000000]}

;TYPE:Custom
; custom gcode: start_gcode
M106 P4 S255
M140 S100 ; set bed final temp
M104 S240 ; set extruder final temp
M190 S100 ; wait for bed final temp
M109 S240 ; wait for extruder final temp
;G29
G28
;M98 P"/macros/nozzle/brush.g"
;PRINT_START

G92 E0 ;Reset Extruder
;;G1 Z2.0 F3000 ;Move Z Axis up


G1 X100 Y4.6 Z0.3 F18000.0 ; Move to side a little

G1 X5 Y4.6 Z0.3 F1500.0 E10 ; Draw the second line

G1 X5 Y4.2 Z0.3 F1500.0 E10 ; Draw the third line

G1 X100 Y4.2 Z0.3 F1500.0 E10 ; Draw the third line


;G92 E0;		Reset extruder
;G1 X1 Y10 F6000;
;G1 Z1.7;
;G1 X1 Y60 E140 F50;
;G1 E-<DESTRING> F1500;
;G1 Z4
;G1 X<NEXTX> Y<NEXTY> F12000;
;G92 E0 ;Reset Extruder

;G1 Z2.0 F3000 ;Move Z Axis up
; custom gcode end: start_gcode
M107
G21 ; set units to millimeters
G90 ; use absolute coordinates
M83 ; use relative distances for extrusion
; custom gcode: start_filament_gcode
; Filament gcode
M572 D0 S0.05
; custom gcode end: start_filament_gcode
;LAYER_CHANGE
;Z:0.2
;HEIGHT:0.2
; custom gcode: before_layer_gcode
;BEFORE_LAYER_CHANGE
;0.2

; custom gcode end: before_layer_gcode

G1 Z0.200000 F18000.000
; custom gcode: layer_gcode
;AFTER_LAYER_CHANGE
;0.2
; custom gcode end: layer_gcode

G1 E-0.80000 F3000.00000
G1 Z1.000000 F18000.000
G1 X88.364 Y94.179
G1 Z0.200000
G1 E0.80000 F2100.00000
; custom gcode: feature_gcode
;Skirt
M204 P2000 T5000
; custom gcode end: feature_gcode

;TYPE:Skirt
G1 F2400.000
G1 X89.804 Y93.041 E0.05547
G1 X91.376 Y92.189 E0.05406
G1 X93.059 Y91.620 E0.05371
G1 X94.925 Y91.336 E0.05705
G1 X154.431 Y91.314 E1.79868
G1 X156.221 Y91.469 E0.05430
G1 X158.049 Y91.961 E0.05722
G1 X159.232 Y92.480 E0.03906
G1 X160.017 Y92.927 E0.02731
G1 X161.515 Y94.066 E0.05687
G1 X162.742 Y95.399 E0.05476
G1 X163.751 Y96.980 E0.05670
G1 X164.134 Y97.805 E0.02749
G1 X164.554 Y99.027 E0.03906
G1 X164.884 Y100.796 E0.05440
G1 X164.936 Y101.821 E0.03103
G1 X164.909 Y148.911 E1.42338
G1 X164.612 Y150.763 E0.05670
G1 X163.984 Y152.543 E0.05705
G1 X163.561 Y153.368 E0.02802
G1 X162.851 Y154.454 E0.03923
G1 X161.636 Y155.821 E0.05529
G1 X160.196 Y156.959 E0.05547
G1 X158.624 Y157.811 E0.05406
G1 X156.941 Y158.380 E0.05371
G1 X155.075 Y158.664 E0.05705
G1 X95.540 Y158.686 E1.79956
G1 X94.519 Y158.631 E0.03092
G1 X93.215 Y158.415 E0.03994
G1 X91.378 Y157.811 E0.05846
G1 X89.669 Y156.868 E0.05899
G1 X88.621 Y156.054 E0.04012
G1 X87.929 Y155.386 E0.02908
G1 X86.794 Y153.951 E0.05529
G1 X85.946 Y152.390 E0.05371
G1 X85.374 Y150.708 E0.05371
G1 X85.089 Y148.877 E0.05599
G1 X85.065 Y101.784 E1.42349
G1 X85.119 Y100.769 E0.03074
G1 X85.335 Y99.465 E0.03994
G1 X85.941 Y97.622 E0.05863
G1 X86.885 Y95.915 E0.05899
G1 X87.700 Y94.867 E0.04011
G1 X88.323 Y94.222 E0.02709
G1 X88.615 Y94.505 F18000.000
G1 F2400.000
G1 X90.034 Y93.376 E0.05480
G1 X91.547 Y92.559 E0.05197
G1 X93.160 Y92.015 E0.05146
G1 X94.955 Y91.743 E0.05490
G1 X154.431 Y91.721 E1.79776
G1 X156.148 Y91.870 E0.05211
G1 X157.901 Y92.340 E0.05485
G1 X159.048 Y92.843 E0.03786
G1 X159.802 Y93.273 E0.02626
G1 X161.242 Y94.368 E0.05468
G1 X162.422 Y95.650 E0.05265
G1 X163.391 Y97.170 E0.05451
G1 X163.757 Y97.958 E0.02626
G1 X164.165 Y99.148 E0.03803
G1 X164.482 Y100.861 E0.05264
G1 X164.503 Y148.879 E1.45145
G1 X164.218 Y150.660 E0.05451
G1 X163.612 Y152.376 E0.05502
G1 X163.208 Y153.164 E0.02677
G1 X162.520 Y154.217 E0.03803
G1 X161.343 Y155.538 E0.05349
G1 X159.966 Y156.624 E0.05298
G1 X158.453 Y157.441 E0.05197
G1 X156.841 Y157.985 E0.05146
G1 X155.045 Y158.257 E0.05490
G1 X95.541 Y158.278 E1.79861
G1 X94.568 Y158.227 E0.02947
G1 X93.299 Y158.017 E0.03888
G1 X91.533 Y157.435 E0.05620
G1 X89.896 Y156.529 E0.05654
G1 X88.880 Y155.740 E0.03888
G1 X88.212 Y155.093 E0.02813
G1 X87.130 Y153.721 E0.05281
G1 X86.316 Y152.219 E0.05163
G1 X85.769 Y150.607 E0.05146
G1 X85.495 Y148.847 E0.05383
G1 X85.472 Y101.786 E1.42253
G1 X85.523 Y100.818 E0.02929
G1 X85.733 Y99.549 E0.03888
G1 X86.315 Y97.783 E0.05620
G1 X87.221 Y96.146 E0.05654
G1 X88.010 Y95.130 E0.03888
G1 X88.573 Y94.548 E0.02448
; printing object C:/Users/muchm/AppData/Local/Temp/Neutron/Körper14.stl id:0 copy 0
G1 E-0.08000 F3000.00000
G1 F14400.000
G1 X90.034 Y93.376 E-0.37062
G1 X91.427 Y92.624 E-0.31338
G1 E-0.03600 F3000.00000
G1 Z0.600000 F18000.000
G1 X92.443 Y98.422
G1 Z0.200000
G1 E0.80000 F2100.00000
; custom gcode: feature_gcode
;ExternalPerimeter                   ;  ExternalPerimeter
M204 P750 T5000
; custom gcode end: feature_gcode

;TYPE:External perimeter
G1 F2400.000
G1 X92.172 Y98.693 E0.01155
G1 X91.925 Y98.984 E0.01155
G1 X91.703 Y99.295 E0.01155
G1 X91.508 Y99.624 E0.01155
G1 X91.340 Y99.967 E0.01155
G1 X91.201 Y100.323 E0.01155
G1 X91.092 Y100.690 E0.01155
G1 X91.013 Y101.064 E0.01155
G1 X90.966 Y101.443 E0.01155
G1 X90.950 Y101.831 E0.01173
G1 X90.950 Y148.169 E1.40068
G1 X90.966 Y148.557 E0.01173
G1 X91.013 Y148.936 E0.01155
G1 X91.092 Y149.310 E0.01155
G1 X91.201 Y149.677 E0.01155
G1 X91.340 Y150.033 E0.01155
G1 X91.508 Y150.376 E0.01155
G1 X91.703 Y150.705 E0.01155
G1 X91.925 Y151.016 E0.01155
G1 X92.172 Y151.307 E0.01155
G1 X92.443 Y151.578 E0.01155
G1 X92.734 Y151.825 E0.01155
G1 X93.045 Y152.047 E0.01155
G1 X93.374 Y152.242 E0.01155
G1 X93.717 Y152.410 E0.01155
G1 X94.073 Y152.549 E0.01155
G1 X94.440 Y152.658 E0.01155
G1 X94.814 Y152.737 E0.01155
G1 X95.193 Y152.784 E0.01155
G1 X95.581 Y152.800 E0.01173
G1 X154.419 Y152.800 E1.77851
G1 X154.807 Y152.784 E0.01173
G1 X155.186 Y152.737 E0.01155
G1 X155.560 Y152.658 E0.01155
G1 X155.927 Y152.549 E0.01155
G1 X156.283 Y152.410 E0.01155
G1 X156.626 Y152.242 E0.01155
G1 X156.955 Y152.047 E0.01155
G1 X157.266 Y151.825 E0.01155
G1 X157.557 Y151.578 E0.01155
G1 X157.828 Y151.307 E0.01155
G1 X158.075 Y151.016 E0.01155
G1 X158.297 Y150.705 E0.01155
G1 X158.492 Y150.376 E0.01155
G1 X158.660 Y150.033 E0.01155
G1 X158.799 Y149.677 E0.01155
G1 X158.908 Y149.310 E0.01155
G1 X158.987 Y148.936 E0.01155
G1 X159.034 Y148.557 E0.01155
G1 X159.050 Y148.169 E0.01173
G1 X159.050 Y101.831 E1.40068
G1 X159.034 Y101.443 E0.01173
G1 X158.987 Y101.064 E0.01155
G1 X158.908 Y100.690 E0.01155
G1 X158.799 Y100.323 E0.01155
G1 X158.660 Y99.967 E0.01155
G1 X158.492 Y99.624 E0.01155
G1 X158.297 Y99.295 E0.01155
G1 X158.075 Y98.984 E0.01155
G1 X157.828 Y98.693 E0.01155
G1 X157.557 Y98.422 E0.01155
G1 X157.266 Y98.175 E0.01155
G1 X156.955 Y97.953 E0.01155
G1 X156.626 Y97.758 E0.01155
G1 X156.283 Y97.590 E0.01155
G1 X155.927 Y97.451 E0.01155
G1 X155.560 Y97.342 E0.01155
G1 X155.186 Y97.263 E0.01155
G1 X154.807 Y97.216 E0.01155
G1 X154.419 Y97.200 E0.01173
G1 X95.581 Y97.200 E1.77851
G1 X95.193 Y97.216 E0.01173
G1 X94.814 Y97.263 E0.01155
G1 X94.440 Y97.342 E0.01155
G1 X94.073 Y97.451 E0.01155
G1 X93.717 Y97.590 E0.01155
G1 X93.374 Y97.758 E0.01155
G1 X93.045 Y97.953 E0.01155
G1 X92.734 Y98.175 E0.01155
G1 X92.489 Y98.384 E0.00974
G1 X92.531 Y98.794 F18000.000
G1 E-0.08000 F3000.00000
G1 F14400.000
G1 X92.172 Y98.693 E-0.08749
G1 X91.925 Y98.984 E-0.07565
G1 X91.703 Y99.295 E-0.07565
G1 X91.508 Y99.624 E-0.07565
G1 X91.340 Y99.967 E-0.07565
G1 X91.201 Y100.323 E-0.07565
G1 X91.092 Y100.690 E-0.07565
G1 X91.013 Y101.064 E-0.07565
G1 X90.971 Y101.399 E-0.06695
G1 E-0.03600 F3000.00000
G1 X117.227 Y136.951 F18000.000
G1 E0.80000 F2100.00000
; custom gcode: feature_gcode
;Perimeter                        ;  Perimeter
M204 P1000 T5000
; custom gcode end: feature_gcode

;TYPE:Perimeter
G1 F2400.000
G1 X117.318 Y140.610 E0.11064
G1 X117.811 Y140.878 E0.01697
G1 X117.720 Y137.219 E0.11064
G1 X117.279 Y136.979 E0.01516
G1 E-0.08000 F3000.00000
G1 F14400.000
G1 X117.316 Y140.435 E-0.68400
G1 E-0.03600 F3000.00000
G1 X109.370 Y136.951 F18000.000
G1 E0.80000 F2100.00000
G1 F2400.000
G1 X109.461 Y140.610 E0.11064
G1 X109.954 Y140.878 E0.01697
G1 X109.863 Y137.219 E0.11064
G1 X109.422 Y136.979 E0.01516
G1 E-0.08000 F3000.00000
G1 F14400.000
G1 X109.459 Y140.435 E-0.68400
G1 E-0.03600 F3000.00000
G1 X101.512 Y136.951 F18000.000
G1 E0.80000 F2100.00000
G1 F2400.000
G1 X101.604 Y140.610 E0.11064
G1 X102.097 Y140.878 E0.01697
G1 X102.006 Y137.219 E0.11064
G1 X101.565 Y136.979 E0.01516
G1 E-0.08000 F3000.00000
G1 F14400.000
G1 X101.602 Y140.435 E-0.68400
G1 E-0.03600 F3000.00000
G1 X102.097 Y128.878 F18000.000
G1 E0.80000 F2100.00000
G1 F2400.000
G1 X102.006 Y125.219 E0.11064
G1 X101.512 Y124.951 E0.01697
G1 X101.604 Y128.610 E0.11064
G1 X102.044 Y128.850 E0.01516
G1 E-0.08000 F3000.00000
G1 F14400.000
G1 X102.007 Y125.394 E-0.68400
G1 E-0.03600 F3000.00000
G1 X105.368 Y130.872 F18000.000
G1 E0.80000 F2100.00000
G1 F2400.000
G1 X105.459 Y134.531 E0.11064
G1 X105.952 Y134.799 E0.01697
G1 X105.861 Y131.140 E0.11064
G1 X105.420 Y130.900 E0.01516
G1 E-0.08000 F3000.00000
G1 F14400.000
G1 X105.457 Y134.356 E-0.68400
G1 E-0.03600 F3000.00000
G1 X109.954 Y128.878 F18000.000
G1 E0.80000 F2100.00000
G1 F2400.000
G1 X109.863 Y125.219 E0.11064
G1 X109.370 Y124.951 E0.01697
G1 X109.461 Y128.610 E0.11064
G1 X109.901 Y128.850 E0.01516
G1 E-0.08000 F3000.00000
G1 F14400.000
G1 X109.865 Y125.394 E-0.68400
G1 E-0.03600 F3000.00000
G1 X113.225 Y130.872 F18000.000
G1 E0.80000 F2100.00000
G1 F2400.000
G1 X113.316 Y134.531 E0.11064
G1 X113.809 Y134.799 E0.01697
G1 X113.718 Y131.140 E0.11064
G1 X113.277 Y130.900 E0.01516
G1 E-0.08000 F3000.00000
G1 F14400.000
G1 X113.314 Y134.356 E-0.68400
G1 E-0.03600 F3000.00000
G1 X117.811 Y128.878 F18000.000
G1 E0.80000 F2100.00000
G1 F2400.000
G1 X117.720 Y125.219 E0.11064
G1 X117.227 Y124.951 E0.01697
G1 X117.318 Y128.610 E0.11064
G1 X117.758 Y128.850 E0.01516
G1 E-0.08000 F3000.00000
G1 F14400.000
G1 X117.722 Y125.394 E-0.68400
G1 E-0.03600 F3000.00000
G1 X121.082 Y130.872 F18000.000
G1 E0.80000 F2100.00000
G1 F2400.000
G1 X121.173 Y134.531 E0.11064
G1 X121.666 Y134.799 E0.01697
G1 X121.575 Y131.140 E0.11064
G1 X121.135 Y130.900 E0.01516
G1 E-0.08000 F3000.00000
G1 F14400.000
G1 X121.171 Y134.356 E-0.68400
G1 E-0.03600 F3000.00000
G1 X125.084 Y136.951 F18000.000
G1 E0.80000 F2100.00000
G1 F2400.000
G1 X125.175 Y140.610 E0.11064
G1 X125.668 Y140.878 E0.01697
G1 X125.577 Y137.219 E0.11064
G1 X125.137 Y136.979 E0.01516
G1 E-0.08000 F3000.00000
G1 F14400.000
G1 X125.173 Y140.435 E-0.68400
G1 E-0.03600 F3000.00000
G1 X132.941 Y136.951 F18000.000
G1 E0.80000 F2100.00000
G1 F2400.000
G1 X133.032 Y140.610 E0.11064
G1 X133.525 Y140.878 E0.01697
G1 X133.434 Y137.219 E0.11064
G1 X132.994 Y136.979 E0.01516
G1 E-0.08000 F3000.00000
G1 F14400.000
G1 X133.030 Y140.435 E-0.68400
G1 E-0.03600 F3000.00000
G1 X140.798 Y136.951 F18000.000
G1 E0.80000 F2100.00000
G1 F2400.000
G1 X140.889 Y140.610 E0.11064
G1 X141.382 Y140.878 E0.01697
G1 X141.291 Y137.219 E0.11064
G1 X140.851 Y136.979 E0.01516
G1 E-0.08000 F3000.00000
G1 F14400.000
G1 X140.887 Y140.435 E-0.68400
G1 E-0.03600 F3000.00000
G1 X148.655 Y136.951 F18000.000
G1 E0.80000 F2100.00000
G1 F2400.000
G1 X148.746 Y140.610 E0.11064
G1 X149.239 Y140.878 E0.01697
G1 X149.148 Y137.219 E0.11064
G1 X148.708 Y136.979 E0.01516
G1 E-0.08000 F3000.00000
G1 F14400.000
G1 X148.745 Y140.435 E-0.68400
G1 E-0.03600 F3000.00000
G1 X158.641 Y136.979 F18000.000
G1 E0.80000 F2100.00000
G1 F2400.000
G1 X158.641 Y101.839 E1.06218
G1 X158.626 Y101.477 E0.01096
G1 X158.583 Y101.131 E0.01053
G1 X158.511 Y100.790 E0.01053
G1 X158.412 Y100.456 E0.01053
G1 X158.285 Y100.132 E0.01053
G1 X158.132 Y99.819 E0.01053
G1 X157.954 Y99.520 E0.01053
G1 X157.751 Y99.236 E0.01053
G1 X157.526 Y98.970 E0.01053
G1 X157.280 Y98.724 E0.01053
G1 X157.014 Y98.499 E0.01053
G1 X156.730 Y98.296 E0.01053
G1 X156.431 Y98.118 E0.01053
G1 X156.118 Y97.965 E0.01053
G1 X155.794 Y97.838 E0.01053
G1 X155.460 Y97.739 E0.01053
G1 X155.119 Y97.667 E0.01053
G1 X154.773 Y97.624 E0.01053
G1 X154.411 Y97.609 E0.01096
G1 X95.589 Y97.609 E1.77800
G1 X95.227 Y97.624 E0.01096
G1 X94.881 Y97.667 E0.01053
G1 X94.540 Y97.739 E0.01053
G1 X94.206 Y97.838 E0.01053
G1 X93.882 Y97.965 E0.01053
G1 X93.569 Y98.118 E0.01053
G1 X93.270 Y98.296 E0.01053
G1 X92.986 Y98.499 E0.01053
G1 X92.720 Y98.724 E0.01053
G1 X92.474 Y98.970 E0.01053
G1 X92.249 Y99.236 E0.01053
G1 X92.046 Y99.520 E0.01053
G1 X91.868 Y99.819 E0.01053
G1 X91.715 Y100.132 E0.01053
G1 X91.588 Y100.456 E0.01053
G1 X91.489 Y100.790 E0.01053
G1 X91.417 Y101.131 E0.01053
G1 X91.374 Y101.477 E0.01053
G1 X91.359 Y101.839 E0.01096
G1 X91.359 Y148.161 E1.40017
G1 X91.374 Y148.523 E0.01096
G1 X91.417 Y148.869 E0.01053
G1 X91.489 Y149.210 E0.01053
G1 X91.588 Y149.544 E0.01053
G1 X91.715 Y149.868 E0.01053
G1 X91.868 Y150.181 E0.01053
G1 X92.046 Y150.480 E0.01053
G1 X92.249 Y150.764 E0.01053
G1 X92.474 Y151.030 E0.01053
G1 X92.720 Y151.276 E0.01053
G1 X92.986 Y151.501 E0.01053
G1 X93.270 Y151.704 E0.01053
G1 X93.569 Y151.882 E0.01053
G1 X93.882 Y152.035 E0.01053
G1 X94.206 Y152.162 E0.01053
G1 X94.540 Y152.261 E0.01053
G1 X94.881 Y152.333 E0.01053
G1 X95.227 Y152.376 E0.01053
G1 X95.589 Y152.391 E0.01096
G1 X154.411 Y152.391 E1.77800
G1 X154.773 Y152.376 E0.01096
G1 X155.119 Y152.333 E0.01053
G1 X155.460 Y152.261 E0.01053
G1 X155.794 Y152.162 E0.01053
G1 X156.118 Y152.035 E0.01053
G1 X156.431 Y151.882 E0.01053
G1 X156.730 Y151.704 E0.01053
G1 X157.014 Y151.501 E0.01053
G1 X157.280 Y151.276 E0.01053
G1 X157.526 Y151.030 E0.01053
G1 X157.751 Y150.764 E0.01053
G1 X157.954 Y150.480 E0.01053
G1 X158.132 Y150.181 E0.01053
G1 X158.285 Y149.868 E0.01053
G1 X158.412 Y149.544 E0.01053
G1 X158.511 Y149.210 E0.01053
G1 X158.583 Y148.869 E0.01053
G1 X158.626 Y148.523 E0.01053
G1 X158.641 Y148.161 E0.01096
G1 X158.641 Y137.039 E0.33617
G1 E-0.08000 F3000.00000
G1 F14400.000
G1 X158.641 Y133.583 E-0.68400
G1 E-0.03600 F3000.00000
G1 X149.055 Y100.415 F18000.000
G1 E0.80000 F2100.00000
G1 F2400.000
G1 X152.518 Y98.298 E0.12270
G1 X152.439 Y98.016 E0.00885
G1 X145.260 Y98.016 E0.21701
G1 X145.186 Y98.308 E0.00909
G1 X149.002 Y100.386 E0.13135
G1 X149.043 Y99.945 F18000.000
G1 F2400.000
G1 X151.071 Y98.705 E0.07186
G1 X150.992 Y98.423 E0.00885
G1 X146.858 Y98.423 E0.12495
G1 X146.784 Y98.715 E0.00909
G1 X148.990 Y99.916 E0.07593
G1 X149.031 Y99.475 F18000.000
G1 F1800.000
G1 X149.624 Y99.112 E0.02102
G1 X149.545 Y98.830 E0.00885
G1 X148.457 Y98.830 E0.03290
G1 X148.383 Y99.122 E0.00909
G1 X148.978 Y99.446 E0.02051
G1 E-0.08000 F3000.00000
G1 F14400.000
G1 X149.624 Y99.112 E-0.14391
G1 X149.545 Y98.830 E-0.05798
G1 X148.457 Y98.830 E-0.21539
G1 X148.383 Y99.122 E-0.05949
G1 X148.978 Y99.446 E-0.13428
G1 E-0.10894 F3000.00000
G1 X101.102 Y100.903 F18000.000
G1 E0.80000 F2100.00000
; custom gcode: feature_gcode
;ExternalPerimeter                   ;  ExternalPerimeter
M204 P750 T5000
; custom gcode end: feature_gcode

;TYPE:External perimeter
G1 F2400.000
G1 X101.196 Y104.684 E0.11431
G1 X97.969 Y106.655 E0.11431
G1 X94.648 Y104.847 E0.11431
G1 X94.554 Y101.066 E0.11431
G1 X97.781 Y99.095 E0.11431
G1 X101.049 Y100.875 E0.11249
G1 X101.497 Y100.963 F18000.000
G1 E-0.08000 F3000.00000
G1 F14400.000
G1 X101.182 Y104.328 E-0.68400
G1 E-0.03600 F3000.00000
G1 X110.268 Y101.066 F18000.000
G1 E0.80000 F2100.00000
G1 F2400.000
G1 X113.495 Y99.095 E0.11431
G1 X116.816 Y100.903 E0.11431
G1 X116.910 Y104.684 E0.11431
G1 X113.683 Y106.655 E0.11431
