G10 P0 R235 S235 ; sets the standby temperature
; generated by SuperSlicer 2.3.55 on 2023-09-22 at 06:26:31 UTC

; TODO: check the size of the extruder and the y-bar clearance. Optimize & test supports.

; external perimeters extrusion width = 0.39mm
; perimeters extrusion width = 0.40mm
; infill extrusion width = 0.60mm
; solid infill extrusion width = 0.60mm
; top infill extrusion width = 0.32mm
; first layer extrusion width = 0.45mm

; object:{"name":"LDOSBCW2Mount","id":"LDOSBCW2Mount.stl id:0 copy 0","object_center":[124.990401,115.661588,0.000000],"boundingbox_center":[124.990401,115.661588,4.040338],"boundingbox_size":[34.081442,22.338698,8.080676]}
; object:{"name":"[o]_stealthburner_LED_diffuser_mask","id":"[o]_stealthburner_LED_diffuser_mask.stl id:1 copy 0","object_center":[116.895936,134.012549,0.000000],"boundingbox_center":[116.895936,134.012549,2.400000],"boundingbox_size":[15.697964,13.434319,4.800000]}
; object:{"name":"[o]_stealthburner_LED_carrier","id":"[o]_stealthburner_LED_carrier.stl id:2 copy 0","object_center":[132.449914,135.775126,0.000000],"boundingbox_center":[132.449914,135.775126,3.506323],"boundingbox_size":[14.409997,19.299999,7.012646]}
; plater:{"center":[124.990401,124.958682,0.000000],"boundingbox_center":[124.990401,124.958682,4.040338],"boundingbox_size":[34.081442,40.932886,8.080676]}

;TYPE:Custom
; custom gcode: start_gcode
M106 P4 S255
M140 S95 ; set bed final temp
M104 S235 ; set extruder final temp
M190 S95 ; wait for bed final temp
M109 S235 ; wait for extruder final temp
;G29
G28
;M98 P"/macros/nozzle/brush.g"
;PRINT_START

G92 E0 ;Reset Extruder
;;G1 Z2.0 F3000 ;Move Z Axis up


G1 X100 Y4.6 Z0.3 F18000.0 ; Move to side a little

G1 X5 Y4.6 Z0.3 F1500.0 E10 ; Draw the second line

G1 X5 Y4.2 Z0.3 F1500.0 E10 ; Draw the third line

G1 X100 Y4.2 Z0.3 F1500.0 E10 ; Draw the third line


;G92 E0;		Reset extruder
;G1 X1 Y10 F6000;
;G1 Z1.7;
;G1 X1 Y60 E140 F50;
;G1 E-<DESTRING> F1500;
;G1 Z4
;G1 X<NEXTX> Y<NEXTY> F12000;
;G92 E0 ;Reset Extruder

;G1 Z2.0 F3000 ;Move Z Axis up
; custom gcode end: start_gcode
M107
G21 ; set units to millimeters
G90 ; use absolute coordinates
M83 ; use relative distances for extrusion
; custom gcode: start_filament_gcode
; Filament gcode
M572 D0 S0.07
; custom gcode end: start_filament_gcode
;LAYER_CHANGE
;Z:0.2
;HEIGHT:0.2
; custom gcode: before_layer_gcode
;BEFORE_LAYER_CHANGE
;0.2

; custom gcode end: before_layer_gcode

G1 Z0.200000 F18000.000
; custom gcode: layer_gcode
;AFTER_LAYER_CHANGE
;0.2
; custom gcode end: layer_gcode

G1 E-0.80000 F3000.00000
G1 Z1.000000 F18000.000
G1 X104.861 Y101.118
G1 Z0.200000
G1 E0.80000 F2100.00000
; custom gcode: feature_gcode
;Skirt
M204 P2000 T5000
; custom gcode end: feature_gcode

;TYPE:Skirt
G1 F2400.000
G1 X105.725 Y100.364 E0.03610
G1 X106.501 Y99.813 E0.02997
G1 X107.503 Y99.245 E0.03624
G1 X108.820 Y98.698 E0.04490
G1 X109.828 Y98.414 E0.03298
G1 X110.980 Y98.216 E0.03680
G1 X112.015 Y98.151 E0.03264
G1 X125.557 Y98.116 E0.42628
G1 X128.388 Y98.310 E0.08935
G1 X133.769 Y99.083 E0.17112
G1 X135.218 Y99.391 E0.04665
G1 X136.629 Y99.875 E0.04693
G1 X137.705 Y100.378 E0.03741
G1 X138.961 Y101.138 E0.04620
G1 X140.196 Y102.110 E0.04947
G1 X140.928 Y102.823 E0.03216
G1 X141.839 Y103.898 E0.04437
G1 X142.422 Y104.747 E0.03243
G1 X143.100 Y105.967 E0.04393
G1 X147.991 Y118.207 E0.41494
G1 X148.366 Y119.999 E0.05763
G1 X148.439 Y121.196 E0.03776
G1 X148.405 Y122.086 E0.02804
G1 X145.961 Y146.655 E0.77723
G1 X145.735 Y147.501 E0.02758
G1 X145.396 Y148.309 E0.02758
G1 X144.954 Y149.058 E0.02738
G1 X144.410 Y149.745 E0.02758
G1 X143.779 Y150.352 E0.02758
G1 X143.075 Y150.864 E0.02738
G1 X142.309 Y151.276 E0.02738
G1 X141.489 Y151.583 E0.02758
G1 X140.585 Y151.782 E0.02915
G1 X139.661 Y151.850 E0.02915
G1 X127.074 Y151.849 E0.39625
G1 X126.238 Y151.780 E0.02640
G1 X125.425 Y151.604 E0.02620
G1 X109.222 Y146.890 E0.53119
G1 X108.220 Y146.499 E0.03387
G1 X107.477 Y146.071 E0.02699
G1 X106.802 Y145.553 E0.02679
G1 X104.267 Y143.023 E0.11274
G1 X103.441 Y141.869 E0.04466
G1 X102.889 Y140.562 E0.04466
G1 X102.641 Y139.223 E0.04289
G1 X101.595 Y125.108 E0.44555
G1 X101.579 Y123.541 E0.04932
G1 X101.760 Y107.701 E0.49868
G1 X101.916 Y106.573 E0.03583
G1 X102.166 Y105.566 E0.03267
G1 X102.526 Y104.562 E0.03358
G1 X102.962 Y103.646 E0.03193
G1 X103.505 Y102.745 E0.03312
G1 X104.146 Y101.891 E0.03361
G1 X104.820 Y101.162 E0.03125
G1 X105.119 Y101.438 F18000.000
G1 F2400.000
G1 X105.975 Y100.686 E0.03589
G1 X106.818 Y100.095 E0.03239
G1 X108.045 Y99.439 E0.04380
G1 X109.083 Y99.038 E0.03504
G1 X109.955 Y98.802 E0.02845
G1 X111.041 Y98.619 E0.03465
G1 X112.029 Y98.558 E0.03117
G1 X125.557 Y98.523 E0.42584
G1 X128.334 Y98.713 E0.08763
G1 X133.702 Y99.484 E0.17071
G1 X135.099 Y99.781 E0.04496
G1 X136.474 Y100.251 E0.04575
G1 X137.505 Y100.733 E0.03583
G1 X138.731 Y101.474 E0.04507
G1 X139.929 Y102.417 E0.04802
G1 X140.629 Y103.099 E0.03076
G1 X141.517 Y104.148 E0.04326
G1 X142.078 Y104.964 E0.03120
G1 X142.739 Y106.156 E0.04287
G1 X147.597 Y118.310 E0.41204
G1 X147.961 Y120.038 E0.05561
G1 X147.998 Y122.059 E0.06363
G1 X145.568 Y146.542 E0.77449
G1 X145.362 Y147.333 E0.02574
G1 X145.048 Y148.095 E0.02593
G1 X144.633 Y148.806 E0.02593
G1 X144.129 Y149.450 E0.02574
G1 X143.542 Y150.019 E0.02574
G1 X142.879 Y150.507 E0.02593
G1 X142.155 Y150.899 E0.02593
G1 X141.390 Y151.187 E0.02574
G1 X140.539 Y151.378 E0.02745
G1 X139.663 Y151.443 E0.02764
G1 X127.089 Y151.442 E0.39581
G1 X126.317 Y151.380 E0.02440
G1 X125.553 Y151.217 E0.02459
G1 X109.337 Y146.499 E0.53162
G1 X108.428 Y146.148 E0.03068
G1 X107.723 Y145.746 E0.02555
G1 X107.074 Y145.249 E0.02574
G1 X104.583 Y142.765 E0.11072
G1 X103.805 Y141.686 E0.04189
G1 X103.284 Y140.462 E0.04189
G1 X103.047 Y139.189 E0.04075
G1 X102.001 Y125.079 E0.44540
G1 X101.986 Y123.547 E0.04822
G1 X102.165 Y107.745 E0.49748
G1 X102.315 Y106.655 E0.03464
G1 X102.555 Y105.686 E0.03141
G1 X103.316 Y103.846 E0.06269
G1 X103.841 Y102.975 E0.03202
G1 X104.458 Y102.154 E0.03233
G1 X105.078 Y101.482 E0.02878
G1 X105.377 Y101.758 F18000.000
G1 F2400.000
G1 X106.225 Y101.007 E0.03568
G1 X107.034 Y100.441 E0.03108
G1 X108.224 Y99.804 E0.04248
G1 X109.222 Y99.421 E0.03364
G1 X110.075 Y99.192 E0.02782
G1 X111.101 Y99.022 E0.03273
G1 X112.043 Y98.965 E0.02972
G1 X125.551 Y98.930 E0.42522
G1 X128.280 Y99.117 E0.08611
G1 X133.636 Y99.886 E0.17031
G1 X134.981 Y100.170 E0.04328
G1 X136.325 Y100.630 E0.04473
G1 X137.311 Y101.091 E0.03426
G1 X138.495 Y101.806 E0.04355
G1 X139.662 Y102.725 E0.04674
G1 X140.330 Y103.376 E0.02937
G1 X141.192 Y104.392 E0.04196
G1 X141.731 Y105.177 E0.02997
G1 X142.375 Y106.338 E0.04180
G1 X147.202 Y118.408 E0.40920
G1 X147.556 Y120.079 E0.05376
G1 X147.592 Y122.032 E0.06151
G1 X145.174 Y146.432 E0.77185
G1 X144.984 Y147.180 E0.02430
G1 X144.695 Y147.890 E0.02411
G1 X144.313 Y148.553 E0.02411
G1 X143.843 Y149.158 E0.02411
G1 X143.291 Y149.698 E0.02430
G1 X142.675 Y150.153 E0.02411
G1 X142.003 Y150.521 E0.02411
G1 X141.282 Y150.795 E0.02430
G1 X140.483 Y150.974 E0.02577
G1 X139.667 Y151.036 E0.02577
G1 X127.104 Y151.035 E0.39545
G1 X125.683 Y150.831 E0.04519
G1 X109.457 Y146.110 E0.53197
G1 X108.633 Y145.794 E0.02779
G1 X107.956 Y145.412 E0.02448
G1 X107.338 Y144.940 E0.02448
G1 X104.898 Y142.507 E0.10848
G1 X104.168 Y141.499 E0.03916
G1 X103.677 Y140.356 E0.03916
G1 X103.453 Y139.157 E0.03842
G1 X102.408 Y125.050 E0.44529
G1 X102.393 Y123.553 E0.04713
G1 X102.570 Y107.782 E0.49649
G1 X102.715 Y106.730 E0.03343
G1 X102.944 Y105.806 E0.02997
G1 X103.668 Y104.051 E0.05978
G1 X104.174 Y103.209 E0.03090
G1 X104.766 Y102.420 E0.03105
G1 X105.336 Y101.802 E0.02647
G1 X105.635 Y102.078 F18000.000
G1 F2400.000
G1 X106.480 Y101.324 E0.03565
G1 X107.248 Y100.787 E0.02950
G1 X108.408 Y100.167 E0.04141
G1 X110.199 Y99.581 E0.05930
G1 X112.051 Y99.372 E0.05870
G1 X125.552 Y99.337 E0.42498
G1 X128.227 Y99.521 E0.08441
G1 X133.569 Y100.287 E0.16991
G1 X134.869 Y100.562 E0.04181
G1 X136.171 Y101.007 E0.04333
G1 X137.118 Y101.449 E0.03288
G1 X138.265 Y102.142 E0.04221
G1 X139.395 Y103.032 E0.04526
G1 X140.305 Y103.951 E0.04072
G1 X140.870 Y104.642 E0.02811
G1 X141.384 Y105.390 E0.02858
G1 X142.011 Y106.521 E0.04070
G1 X146.810 Y118.519 E0.40678
G1 X147.151 Y120.120 E0.05152
G1 X147.186 Y122.005 E0.05937
G1 X144.779 Y146.331 E0.76949
G1 X144.343 Y147.684 E0.04474
G1 X143.553 Y148.872 E0.04492
G1 X142.470 Y149.801 E0.04492
G1 X141.176 Y150.402 E0.04492
G1 X140.434 Y150.570 E0.02393
G1 X139.671 Y150.629 E0.02411
G1 X127.119 Y150.628 E0.39513
G1 X125.816 Y150.445 E0.04140
G1 X109.577 Y145.721 E0.53239
G1 X108.840 Y145.442 E0.02481
G1 X108.196 Y145.083 E0.02322
G1 X107.609 Y144.636 E0.02322
G1 X105.215 Y142.251 E0.10637
G1 X104.531 Y141.315 E0.03647
G1 X104.071 Y140.252 E0.03647
G1 X103.861 Y139.153 E0.03524
G1 X102.802 Y124.677 E0.45692
G1 X102.974 Y107.841 E0.53001
G1 X103.113 Y106.816 E0.03255
G1 X103.331 Y105.930 E0.02872
G1 X104.024 Y104.249 E0.05725
G1 X105.078 Y102.681 E0.05946
G1 X105.594 Y102.122 E0.02397
; printing object LDOSBCW2Mount.stl id:0 copy 0
G1 E-0.08000 F3000.00000
G1 F14400.000
G1 X106.480 Y101.324 E-0.23594
G1 X107.248 Y100.787 E-0.18544
G1 X108.408 Y100.167 E-0.26034
G1 X108.419 Y100.164 E-0.00228
G1 E-0.03600 F3000.00000
G1 Z0.600000 F18000.000
G1 X109.831 Y111.904
G1 Z0.200000
G1 E0.80000 F2100.00000
; custom gcode: feature_gcode
;Perimeter                        ;  Perimeter
M204 P1000 T5000
; custom gcode end: feature_gcode

;TYPE:Perimeter
G1 F2400.000
G1 X110.304 Y112.195 E0.01747
G1 X110.897 Y112.440 E0.02023
G1 X111.520 Y112.587 E0.02012
G1 X112.151 Y112.634 E0.01994
G1 X112.782 Y112.585 E0.01992
G1 X113.403 Y112.437 E0.02007
G1 X113.996 Y112.191 E0.02021
G1 X114.539 Y111.856 E0.02010
G1 X115.020 Y111.443 E0.01996
G1 X115.433 Y110.961 E0.01999
G1 X115.768 Y110.415 E0.02014
G1 X116.011 Y109.824 E0.02014
G1 X116.158 Y109.205 E0.02001
G1 X116.208 Y108.572 E0.02000
G1 X116.158 Y107.935 E0.02012
G1 X116.007 Y107.314 E0.02013
G1 X115.762 Y106.727 E0.02001
G1 X115.491 Y106.285 E0.01632
G1 X123.434 Y106.264 E0.25004
G1 X122.999 Y106.978 E0.02633
G1 X122.799 Y107.468 E0.01664
G1 X122.679 Y107.976 E0.01645
G1 X122.637 Y108.497 E0.01644
G1 X122.677 Y109.023 E0.01661
G1 X122.802 Y109.542 E0.01682
G1 X123.008 Y110.032 E0.01674
G1 X123.467 Y110.772 E0.02741
G1 X121.999 Y110.792 E0.04621
G1 X121.483 Y110.834 E0.01628
G1 X120.941 Y110.940 E0.01738
G1 X120.409 Y111.110 E0.01760
G1 X119.898 Y111.344 E0.01770
G1 X119.417 Y111.638 E0.01775
G1 X118.977 Y111.987 E0.01768
G1 X118.583 Y112.384 E0.01760
G1 X118.238 Y112.824 E0.01760
G1 X117.946 Y113.304 E0.01768
G1 X117.714 Y113.817 E0.01772
G1 X117.545 Y114.352 E0.01766
G1 X117.441 Y114.902 E0.01762
G1 X117.402 Y115.462 E0.01766
G1 X117.431 Y116.023 E0.01768
G1 X117.526 Y116.573 E0.01759
G1 X117.670 Y117.065 E0.01615
G1 X119.626 Y122.443 E0.18013
G1 X119.628 Y123.698 E0.03951
G1 X118.689 Y123.201 E0.03345
G1 X117.971 Y122.881 E0.02472
G1 X117.235 Y122.610 E0.02470
G1 X116.489 Y122.390 E0.02449
G1 X115.910 Y122.256 E0.01871
G1 X115.331 Y122.151 E0.01852
G1 X114.747 Y122.076 E0.01852
G1 X114.153 Y122.030 E0.01876
G1 X113.329 Y122.016 E0.02594
G1 X112.498 Y122.060 E0.02620
G1 X111.671 Y122.163 E0.02623
G1 X110.854 Y122.325 E0.02623
G1 X110.051 Y122.545 E0.02620
G1 X109.723 Y122.660 E0.01095
G1 X109.830 Y111.964 E0.33673
G1 E-0.08000 F3000.00000
G1 F14400.000
G1 X110.304 Y112.195 E-0.10423
G1 X110.897 Y112.440 E-0.12721
G1 X111.520 Y112.587 E-0.12652
G1 X112.151 Y112.634 E-0.12536
G1 X112.782 Y112.585 E-0.12523
G1 X113.153 Y112.497 E-0.07545
G1 E-0.03600 F3000.00000
G1 X109.433 Y111.044 F18000.000
G1 E0.80000 F2100.00000
G1 F2400.000
G1 X110.001 Y111.530 E0.02354
G1 X110.489 Y111.831 E0.01806
G1 X111.023 Y112.052 E0.01817
G1 X111.582 Y112.183 E0.01809
G1 X112.151 Y112.226 E0.01795
G1 X112.719 Y112.181 E0.01794
G1 X113.277 Y112.049 E0.01805
G1 X113.810 Y111.828 E0.01815
G1 X114.298 Y111.526 E0.01807
G1 X114.731 Y111.155 E0.01797
G1 X115.103 Y110.720 E0.01799
G1 X115.403 Y110.230 E0.01810
G1 X115.622 Y109.698 E0.01811
G1 X115.754 Y109.142 E0.01801
G1 X115.799 Y108.572 E0.01800
G1 X115.754 Y107.999 E0.01808
G1 X115.619 Y107.441 E0.01809
G1 X115.399 Y106.913 E0.01801
G1 X115.100 Y106.425 E0.01800
G1 X114.635 Y105.880 E0.02256
G1 X124.568 Y105.854 E0.31271
G1 X123.913 Y106.408 E0.02701
G1 X123.608 Y106.761 E0.01470
G1 X123.363 Y107.162 E0.01478
G1 X123.188 Y107.592 E0.01461
G1 X123.082 Y108.039 E0.01447
G1 X123.046 Y108.497 E0.01447
G1 X123.081 Y108.959 E0.01459
G1 X123.190 Y109.415 E0.01475
G1 X123.371 Y109.845 E0.01468
G1 X123.614 Y110.237 E0.01451
G1 X123.912 Y110.585 E0.01444
G1 X124.586 Y111.164 E0.02797
G1 X122.018 Y111.199 E0.08084
G1 X121.539 Y111.238 E0.01514
G1 X121.043 Y111.335 E0.01591
G1 X120.556 Y111.491 E0.01609
G1 X120.089 Y111.704 E0.01616
G1 X119.650 Y111.973 E0.01620
G1 X119.249 Y112.291 E0.01614
G1 X118.888 Y112.654 E0.01609
G1 X118.573 Y113.056 E0.01609
G1 X118.307 Y113.495 E0.01615
G1 X118.095 Y113.963 E0.01617
G1 X117.941 Y114.451 E0.01613
G1 X117.845 Y114.954 E0.01610
G1 X117.810 Y115.465 E0.01613
G1 X117.836 Y115.978 E0.01615
G1 X117.923 Y116.481 E0.01609
G1 X118.057 Y116.938 E0.01500
G1 X120.033 Y122.371 E0.18197
G1 X120.036 Y124.451 E0.06548
G1 X119.180 Y123.922 E0.03166
G1 X118.510 Y123.567 E0.02387
G1 X117.818 Y123.258 E0.02386
G1 X117.107 Y122.996 E0.02385
G1 X116.385 Y122.784 E0.02369
G1 X115.828 Y122.654 E0.01802
G1 X115.269 Y122.554 E0.01787
G1 X114.706 Y122.481 E0.01787
G1 X114.134 Y122.437 E0.01806
G1 X113.337 Y122.423 E0.02510
G1 X112.534 Y122.466 E0.02529
G1 X111.736 Y122.565 E0.02531
G1 X110.947 Y122.722 E0.02532
G1 X110.172 Y122.934 E0.02529
G1 X109.310 Y123.236 E0.02877
G1 X109.432 Y111.104 E0.38192
G1 E-0.08000 F3000.00000
G1 F14400.000
G1 X110.001 Y111.530 E-0.14065
G1 X110.489 Y111.831 E-0.11352
G1 X111.023 Y112.052 E-0.11424
G1 X111.582 Y112.183 E-0.11373
G1 X112.151 Y112.226 E-0.11288
G1 X112.599 Y112.191 E-0.08898
G1 E-0.03600 F3000.00000
G1 X123.484 Y108.896 F18000.000
G1 E0.80000 F2100.00000
G1 F2400.000
G1 X123.578 Y109.288 E0.01267
G1 X123.733 Y109.658 E0.01263
G1 X123.943 Y109.996 E0.01252
G1 X124.201 Y110.297 E0.01247
G1 X124.502 Y110.555 E0.01251
G1 X124.843 Y110.766 E0.01262
G1 X125.215 Y110.919 E0.01266
G1 X125.604 Y111.011 E0.01257
G1 X126.000 Y111.041 E0.01251
G1 X126.397 Y111.010 E0.01253
G1 X126.787 Y110.917 E0.01262
G1 X127.157 Y110.763 E0.01263
G1 X127.496 Y110.553 E0.01255
G1 X127.798 Y110.295 E0.01251
G1 X128.058 Y109.992 E0.01256
G1 X128.267 Y109.650 E0.01263
G1 X128.419 Y109.280 E0.01260
G1 X128.511 Y108.893 E0.01253
G1 X128.542 Y108.496 E0.01254
G1 X128.511 Y108.096 E0.01260
G1 X128.417 Y107.707 E0.01261
G1 X128.263 Y107.339 E0.01254
G1 X128.055 Y107.000 E0.01254
G1 X127.796 Y106.696 E0.01259
G1 X127.491 Y106.436 E0.01259
G1 X127.151 Y106.228 E0.01256
G1 X126.782 Y106.076 E0.01257
G1 X126.398 Y105.984 E0.01241
G1 X125.992 Y105.947 E0.01284
G1 X125.588 Y105.987 E0.01280
G1 X125.206 Y106.082 E0.01239
G1 X124.841 Y106.235 E0.01246
G1 X124.504 Y106.441 E0.01244
G1 X124.200 Y106.698 E0.01252
G1 X123.938 Y107.002 E0.01264
G1 X123.728 Y107.346 E0.01269
G1 X123.577 Y107.716 E0.01258
G1 X123.486 Y108.103 E0.01249
G1 X123.454 Y108.498 E0.01249
G1 X123.480 Y108.836 E0.01068
G1 X123.891 Y108.805 F18000.000
; custom gcode: feature_gcode
;ExternalPerimeter                   ;  ExternalPerimeter
M204 P750 T5000
; custom gcode end: feature_gcode

;TYPE:External perimeter
G1 F1958.020
G1 X123.971 Y109.159 E0.01141
G1 X124.101 Y109.468 E0.01055
G1 X124.277 Y109.751 E0.01050
G1 X124.494 Y110.004 E0.01048
G1 X124.746 Y110.222 E0.01050
G1 X125.032 Y110.397 E0.01055
G1 X125.342 Y110.525 E0.01057
G1 X125.667 Y110.602 E0.01052
G1 X126.000 Y110.628 E0.01050
G1 X126.333 Y110.602 E0.01051
G1 X126.659 Y110.524 E0.01055
G1 X126.968 Y110.395 E0.01055
G1 X127.252 Y110.219 E0.01052
G1 X127.506 Y110.002 E0.01050
G1 X127.723 Y109.749 E0.01052
G1 X127.898 Y109.463 E0.01055
G1 X128.025 Y109.153 E0.01054
G1 X128.102 Y108.828 E0.01051
G1 X128.129 Y108.495 E0.01051
G1 X128.103 Y108.162 E0.01054
