G10 P0 R250 S250 ; sets the standby temperature
; generated by SuperSlicer 2.3.55 on 2024-03-14 at 12:04:55 UTC

; TODO: check the size of the extruder and the y-bar clearance. Optimize & test supports.

; external perimeters extrusion width = 0.39mm
; perimeters extrusion width = 0.60mm
; infill extrusion width = 0.60mm
; solid infill extrusion width = 0.60mm
; top infill extrusion width = 0.32mm
; support material extrusion width = 0.40mm
; first layer extrusion width = 0.45mm

; object:{"name":"mattes_wall_hook","id":"mattes_wall_hook.stl_1 id:0 copy 0","object_center":[87.198970,145.899155,0.000000],"boundingbox_center":[87.198970,145.899155,0.600000],"boundingbox_size":[36.211182,34.534752,1.200001]}
; object:{"name":"mattes_wall_hook","id":"mattes_wall_hook.stl_2 id:1 copy 0","object_center":[122.765395,125.625116,0.000000],"boundingbox_center":[122.765395,125.625116,1.842669],"boundingbox_size":[59.866669,92.349416,62.184191]}
; object:{"name":"mattes_wall_hook","id":"mattes_wall_hook.stl_1 id:2 copy 0","object_center":[77.394555,109.152405,0.000000],"boundingbox_center":[77.394555,109.152405,0.600000],"boundingbox_size":[36.211182,34.534752,1.200001]}
; object:{"name":"mattes_wall_hook","id":"mattes_wall_hook.stl_2 id:3 copy 0","object_center":[160.748638,124.374885,0.000000],"boundingbox_center":[160.748638,124.374885,1.842669],"boundingbox_size":[59.866669,92.349416,62.184191]}
; plater:{"center":[124.985468,125.000000,0.000000],"boundingbox_center":[124.985468,125.000000,1.842669],"boundingbox_size":[131.393008,93.599647,62.184191]}

;TYPE:Custom
; custom gcode: start_gcode
M106 P4 S255
M140 S100 ; set bed final temp
M104 S250 ; set extruder final temp
M190 S100 ; wait for bed final temp
M109 S250 ; wait for extruder final temp
;G29
G28
;M98 P"/macros/nozzle/brush.g"
;PRINT_START

G92 E0 ;Reset Extruder
;;G1 Z2.0 F3000 ;Move Z Axis up


G1 X100 Y4.6 Z0.3 F18000.0 ; Move to side a little

G1 X5 Y4.6 Z0.3 F1500.0 E10 ; Draw the second line

G1 X5 Y4.2 Z0.3 F1500.0 E10 ; Draw the third line

G1 X100 Y4.2 Z0.3 F1500.0 E10 ; Draw the third line


;G92 E0;		Reset extruder
;G1 X1 Y10 F6000;
;G1 Z1.7;
;G1 X1 Y60 E140 F50;
;G1 E-<DESTRING> F1500;
;G1 Z4
;G1 X<NEXTX> Y<NEXTY> F12000;
;G92 E0 ;Reset Extruder

;G1 Z2.0 F3000 ;Move Z Axis up
; custom gcode end: start_gcode
M107
G21 ; set units to millimeters
G90 ; use absolute coordinates
M83 ; use relative distances for extrusion
; custom gcode: start_filament_gcode
; Filament gcode
M572 D0 S0.05
; custom gcode end: start_filament_gcode
;LAYER_CHANGE
;Z:0.2
;HEIGHT:0.2
; custom gcode: before_layer_gcode
;BEFORE_LAYER_CHANGE
;0.2

; custom gcode end: before_layer_gcode

G1 Z0.200000 F18000.000
; custom gcode: layer_gcode
;AFTER_LAYER_CHANGE
;0.2
; custom gcode end: layer_gcode

G1 E-0.80000 F3000.00000
G1 Z1.000000 F18000.000
G1 X58.124 Y87.311
G1 Z0.200000
G1 E0.80000 F2100.00000
; custom gcode: feature_gcode
;Skirt
M204 P2000 T5000
; custom gcode end: feature_gcode

;TYPE:Skirt
G1 F2400.000
G1 X59.075 Y86.822 E0.03301
G1 X90.994 Y74.365 E1.05772
G1 X92.267 Y74.040 E0.04055
G1 X162.620 Y73.840 E2.17181
G1 X164.101 Y73.946 E0.04585
G1 X165.895 Y74.359 E0.05681
G1 X167.578 Y75.076 E0.05647
G1 X168.779 Y75.817 E0.04356
G1 X170.195 Y77.026 E0.05750
G1 X171.341 Y78.420 E0.05570
G1 X172.079 Y79.656 E0.04444
G1 X172.745 Y81.296 E0.05464
G1 X196.131 Y168.969 E2.80109
G1 X196.277 Y170.414 E0.04486
G1 X196.046 Y171.849 E0.04486
G1 X195.452 Y173.181 E0.04503
G1 X194.539 Y174.311 E0.04486
G1 X193.672 Y175.029 E0.03475
G1 X192.741 Y175.544 E0.03283
G1 X191.713 Y175.878 E0.03337
G1 X190.640 Y176.009 E0.03337
G1 X120.392 Y176.147 E2.16856
G1 X119.476 Y176.063 E0.02840
G1 X68.162 Y168.466 E1.60135
G1 X67.289 Y168.246 E0.02779
G1 X66.463 Y167.889 E0.02779
G1 X65.704 Y167.404 E0.02779
G1 X65.033 Y166.805 E0.02779
G1 X64.220 Y165.714 E0.04199
G1 X63.694 Y164.460 E0.04199
G1 X53.865 Y127.622 E1.17698
G1 X53.705 Y126.736 E0.02779
G1 X53.686 Y120.562 E0.19059
G1 X55.563 Y91.522 E0.89834
G1 X55.745 Y90.533 E0.03103
G1 X56.099 Y89.593 E0.03103
G1 X56.616 Y88.730 E0.03103
G1 X57.279 Y87.974 E0.03103
G1 X58.077 Y87.348 E0.03134
G1 X58.327 Y87.667 F18000.000
G1 F2400.000
G1 X59.226 Y87.201 E0.03126
G1 X91.142 Y74.745 E1.05762
G1 X92.324 Y74.443 E0.03766
G1 X162.620 Y74.247 E2.17006
G1 X164.064 Y74.351 E0.04471
G1 X165.769 Y74.747 E0.05402
G1 X167.395 Y75.439 E0.05457
G1 X168.536 Y76.144 E0.04138
G1 X169.906 Y77.314 E0.05562
G1 X171.012 Y78.659 E0.05375
G1 X171.715 Y79.839 E0.04240
G1 X172.357 Y81.421 E0.05270
G1 X195.732 Y169.051 E2.79974
G1 X195.870 Y170.398 E0.04181
G1 X195.656 Y171.735 E0.04181
G1 X195.103 Y172.972 E0.04181
G1 X194.250 Y174.024 E0.04181
G1 X193.443 Y174.692 E0.03234
G1 X192.577 Y175.171 E0.03057
G1 X191.619 Y175.482 E0.03109
G1 X190.624 Y175.602 E0.03092
G1 X120.416 Y175.741 E2.16734
G1 X119.511 Y175.658 E0.02805
G1 X68.237 Y168.066 E1.60010
G1 X67.423 Y167.862 E0.02589
G1 X66.653 Y167.529 E0.02589
G1 X65.942 Y167.074 E0.02607
G1 X65.317 Y166.514 E0.02589
G1 X64.571 Y165.507 E0.03870
G1 X64.085 Y164.345 E0.03887
G1 X54.258 Y127.517 E1.17665
G1 X54.111 Y126.697 E0.02572
G1 X54.093 Y120.584 E0.18871
G1 X55.968 Y91.570 E0.89753
G1 X56.136 Y90.646 E0.02901
G1 X56.467 Y89.766 E0.02901
G1 X56.949 Y88.966 E0.02884
G1 X57.569 Y88.260 E0.02901
G1 X58.280 Y87.704 E0.02785
; printing object mattes_wall_hook.stl_1 id:0 copy 0
G1 E-0.08000 F3000.00000
G1 F14400.000
G1 X59.226 Y87.201 E-0.21209
G1 X61.447 Y86.334 E-0.47191
G1 E-0.03600 F3000.00000
G1 Z0.600000 F18000.000
G1 X72.403 Y130.230
G1 Z0.200000
G1 E0.80000 F2100.00000
; custom gcode: feature_gcode
;Perimeter                        ;  Perimeter
M204 P1000 T5000
; custom gcode end: feature_gcode

;TYPE:Perimeter
G1 F2400.000
G1 X101.995 Y130.230 E0.91349
G1 X101.995 Y159.105 E0.89138
G1 X103.806 Y159.105 E0.05592
G1 X103.806 Y161.155 E0.06328
G1 X70.592 Y161.155 E1.02533
G1 X70.592 Y159.105 E0.06328
G1 X72.403 Y159.105 E0.05592
G1 X72.403 Y130.290 E0.88953
G1 X71.996 Y129.823 F18000.000
G1 F2400.000
G1 X102.402 Y129.823 E0.93863
G1 X102.402 Y158.698 E0.89138
G1 X104.213 Y158.698 E0.05592
G1 X104.213 Y161.562 E0.08841
G1 X70.185 Y161.562 E1.05047
G1 X70.185 Y158.698 E0.08841
G1 X71.996 Y158.698 E0.05592
G1 X71.996 Y129.883 E0.88953
G1 X71.589 Y129.416 F18000.000
G1 F2400.000
G1 X102.809 Y129.416 E0.96376
G1 X102.809 Y158.291 E0.89138
G1 X104.620 Y158.291 E0.05592
G1 X104.620 Y161.969 E0.11355
G1 X69.778 Y161.969 E1.07560
G1 X69.778 Y158.291 E0.11355
G1 X71.589 Y158.291 E0.05592
G1 X71.589 Y129.476 E0.88953
G1 X71.180 Y129.007 F18000.000
; custom gcode: feature_gcode
;ExternalPerimeter                   ;  ExternalPerimeter
M204 P750 T5000
; custom gcode end: feature_gcode

;TYPE:External perimeter
G1 F2400.000
G1 X103.218 Y129.007 E0.98903
G1 X103.218 Y157.882 E0.89138
G1 X105.030 Y157.882 E0.05592
G1 X105.030 Y162.379 E0.13881
G1 X69.368 Y162.379 E1.10086
G1 X69.368 Y157.882 E0.13881
G1 X71.180 Y157.882 E0.05592
G1 X71.180 Y129.067 E0.88953
G1 X71.526 Y129.207 F18000.000
G1 E-0.08000 F3000.00000
G1 F14400.000
G1 X74.636 Y129.060 E-0.68400
G1 E-0.03600 F3000.00000
G1 X101.856 Y131.042 F18000.000
G1 E0.80000 F2100.00000
; custom gcode: feature_gcode
;SolidInfill                      ;  SolidInfill
M204 P2000 T5000
; custom gcode end: feature_gcode

;TYPE:Solid infill
G1 F3600.000
G1 X101.008 Y130.552 E0.03024
G1 X100.194 Y130.552 E0.02513
G1 X101.673 Y131.406 E0.05273
G1 X101.673 Y131.876 E0.01451
G1 X99.380 Y130.552 E0.08176
G1 X98.565 Y130.552 E0.02513
G1 X101.673 Y132.346 E0.11078
G1 X101.673 Y132.816 E0.01451
G1 X97.751 Y130.552 E0.13980
G1 X96.937 Y130.552 E0.02513
G1 X101.673 Y133.286 E0.16882
G1 X101.673 Y133.756 E0.01451
G1 X96.123 Y130.552 E0.19784
G1 X95.309 Y130.552 E0.02513
G1 X101.673 Y134.226 E0.22686
G1 X101.673 Y134.696 E0.01451
G1 X94.495 Y130.552 E0.25588
G1 X93.680 Y130.552 E0.02513
G1 X101.673 Y135.166 E0.28490
G1 X101.673 Y135.636 E0.01451
G1 X92.866 Y130.552 E0.31393
G1 X92.052 Y130.552 E0.02513
G1 X101.673 Y136.106 E0.34295
G1 X101.673 Y136.576 E0.01451
G1 X91.238 Y130.552 E0.37197
G1 X90.424 Y130.552 E0.02513
G1 X101.673 Y137.047 E0.40099
G1 X101.673 Y137.517 E0.01451
G1 X89.610 Y130.552 E0.43001
G1 X88.796 Y130.552 E0.02513
G1 X101.673 Y137.987 E0.45903
G1 X101.673 Y138.457 E0.01451
G1 X87.981 Y130.552 E0.48805
G1 X87.167 Y130.552 E0.02513
G1 X101.673 Y138.927 E0.51707
G1 X101.673 Y139.397 E0.01451
G1 X86.353 Y130.552 E0.54610
G1 X85.539 Y130.552 E0.02513
G1 X101.673 Y139.867 E0.57512
G1 X101.673 Y140.337 E0.01451
G1 X84.725 Y130.552 E0.60414
G1 X83.911 Y130.552 E0.02513
G1 X101.673 Y140.807 E0.63316
G1 X101.673 Y141.277 E0.01451
G1 X83.096 Y130.552 E0.66218
G1 X82.282 Y130.552 E0.02513
G1 X101.673 Y141.747 E0.69120
G1 X101.673 Y142.217 E0.01451
G1 X81.468 Y130.552 E0.72022
G1 X80.654 Y130.552 E0.02513
G1 X101.673 Y142.687 E0.74924
G1 X101.673 Y143.157 E0.01451
G1 X79.840 Y130.552 E0.77827
G1 X79.026 Y130.552 E0.02513
G1 X101.673 Y143.627 E0.80729
G1 X101.673 Y144.097 E0.01451
G1 X78.211 Y130.552 E0.83631
G1 X77.397 Y130.552 E0.02513
G1 X101.673 Y144.567 E0.86533
G1 X101.673 Y145.037 E0.01451
G1 X76.583 Y130.552 E0.89435
G1 X75.769 Y130.552 E0.02513
G1 X101.673 Y145.508 E0.92337
G1 X101.673 Y145.978 E0.01451
G1 X74.955 Y130.552 E0.95239
G1 X74.141 Y130.552 E0.02513
G1 X101.673 Y146.448 E0.98142
G1 X101.673 Y146.918 E0.01451
G1 X73.327 Y130.552 E1.01044
G1 X72.725 Y130.552 E0.01858
G1 X72.725 Y130.674 E0.00379
G1 X101.673 Y147.388 E1.03189
G1 X101.673 Y147.858 E0.01451
G1 X72.725 Y131.144 E1.03189
G1 X72.725 Y131.614 E0.01451
G1 X101.673 Y148.328 E1.03189
G1 X101.673 Y148.798 E0.01451
G1 X72.725 Y132.085 E1.03189
G1 X72.725 Y132.555 E0.01451
G1 X101.673 Y149.268 E1.03189
G1 X101.673 Y149.738 E0.01451
G1 X72.725 Y133.025 E1.03189
G1 X72.725 Y133.495 E0.01451
G1 X101.673 Y150.208 E1.03189
G1 X101.673 Y150.678 E0.01451
G1 X72.725 Y133.965 E1.03189
G1 X72.725 Y134.435 E0.01451
G1 X101.673 Y151.148 E1.03189
G1 X101.673 Y151.618 E0.01451
G1 X72.725 Y134.905 E1.03189
G1 X72.725 Y135.375 E0.01451
G1 X101.673 Y152.088 E1.03189
G1 X101.673 Y152.558 E0.01451
G1 X72.725 Y135.845 E1.03189
G1 X72.725 Y136.315 E0.01451
G1 X101.673 Y153.028 E1.03189
G1 X101.673 Y153.498 E0.01451
G1 X72.725 Y136.785 E1.03189
G1 X72.725 Y137.255 E0.01451
G1 X101.673 Y153.968 E1.03189
G1 X101.673 Y154.439 E0.01451
G1 X72.725 Y137.725 E1.03189
G1 X72.725 Y138.195 E0.01451
G1 X101.673 Y154.909 E1.03189
G1 X101.673 Y155.379 E0.01451
G1 X72.725 Y138.665 E1.03189
G1 X72.725 Y139.135 E0.01451
G1 X101.673 Y155.849 E1.03189
G1 X101.673 Y156.319 E0.01451
G1 X72.725 Y139.605 E1.03189
G1 X72.725 Y140.075 E0.01451
G1 X101.673 Y156.789 E1.03189
G1 X101.673 Y157.259 E0.01451
G1 X72.725 Y140.546 E1.03189
G1 X72.725 Y141.016 E0.01451
G1 X101.673 Y157.729 E1.03189
G1 X101.673 Y158.199 E0.01451
G1 X72.725 Y141.486 E1.03189
G1 X72.725 Y141.956 E0.01451
G1 X101.856 Y158.775 E1.03842
G1 X102.669 Y159.244 F18000.000
G1 F3600.000
G1 X103.485 Y159.715 E0.02909
G1 X103.485 Y160.185 E0.01451
G1 X72.725 Y142.426 E1.09646
G1 X72.725 Y142.896 E0.01451
G1 X103.485 Y160.655 E1.09646
G1 X103.485 Y160.834 E0.00551
G1 X102.980 Y160.834 E0.01558
G1 X72.725 Y143.366 E1.07846
G1 X72.725 Y143.836 E0.01451
G1 X102.166 Y160.834 E1.04944
G1 X101.352 Y160.834 E0.02513
G1 X72.725 Y144.306 E1.02042
G1 X72.725 Y144.776 E0.01451
G1 X100.537 Y160.834 E0.99140
G1 X99.723 Y160.834 E0.02513
G1 X72.725 Y145.246 E0.96238
G1 X72.725 Y145.716 E0.01451
G1 X98.909 Y160.834 E0.93336
G1 X98.095 Y160.834 E0.02513
G1 X72.725 Y146.186 E0.90434
G1 X72.725 Y146.656 E0.01451
G1 X97.281 Y160.834 E0.87532
G1 X96.467 Y160.834 E0.02513
G1 X72.725 Y147.126 E0.84629
G1 X72.725 Y147.596 E0.01451
G1 X95.652 Y160.834 E0.81727
G1 X94.838 Y160.834 E0.02513
G1 X72.725 Y148.066 E0.78825
G1 X72.725 Y148.536 E0.01451
G1 X94.024 Y160.834 E0.75923
G1 X93.210 Y160.834 E0.02513
G1 X72.725 Y149.006 E0.73021
G1 X72.725 Y149.477 E0.01451
G1 X92.396 Y160.834 E0.70119
G1 X91.582 Y160.834 E0.02513
G1 X72.725 Y149.947 E0.67217
G1 X72.725 Y150.417 E0.01451
G1 X90.768 Y160.834 E0.64315
G1 X89.953 Y160.834 E0.02513
G1 X72.725 Y150.887 E0.61412
G1 X72.725 Y151.357 E0.01451
G1 X89.139 Y160.834 E0.58510
G1 X88.325 Y160.834 E0.02513
G1 X72.725 Y151.827 E0.55608
G1 X72.725 Y152.297 E0.01451
G1 X87.511 Y160.834 E0.52706
G1 X86.697 Y160.834 E0.02513
G1 X72.725 Y152.767 E0.49804
G1 X72.725 Y153.237 E0.01451
G1 X85.883 Y160.834 E0.46902
G1 X85.068 Y160.834 E0.02513
G1 X72.725 Y153.707 E0.44000
G1 X72.725 Y154.177 E0.01451
G1 X84.254 Y160.834 E0.41098
G1 X83.440 Y160.834 E0.02513
G1 X72.725 Y154.647 E0.38195
G1 X72.725 Y155.117 E0.01451
G1 X82.626 Y160.834 E0.35293
G1 X81.812 Y160.834 E0.02513
G1 X72.725 Y155.587 E0.32391
G1 X72.725 Y156.057 E0.01451
G1 X80.998 Y160.834 E0.29489
G1 X80.183 Y160.834 E0.02513
G1 X72.725 Y156.527 E0.26587
G1 X72.725 Y156.997 E0.01451
G1 X79.369 Y160.834 E0.23685
G1 X78.555 Y160.834 E0.02513
G1 X72.725 Y157.467 E0.20783
G1 X72.725 Y157.938 E0.01451
G1 X77.741 Y160.834 E0.17881
G1 X76.927 Y160.834 E0.02513
G1 X72.725 Y158.408 E0.14978
G1 X72.725 Y158.878 E0.01451
G1 X76.113 Y160.834 E0.12076
G1 X75.299 Y160.834 E0.02513
G1 X72.725 Y159.348 E0.09174
G1 X72.725 Y159.427 E0.00245
G1 X72.048 Y159.427 E0.02090
G1 X74.484 Y160.834 E0.08685
G1 X73.670 Y160.834 E0.02513
G1 X71.234 Y159.427 E0.08685
G1 X70.913 Y159.427 E0.00989
G1 X70.913 Y159.712 E0.00880
G1 X72.856 Y160.834 E0.06925
G1 X72.042 Y160.834 E0.02513
G1 X70.913 Y160.182 E0.04023
G1 X70.913 Y160.652 E0.01451
G1 X71.545 Y161.017 E0.02252
; stop printing object mattes_wall_hook.stl_1 id:0 copy 0
; printing object mattes_wall_hook.stl_1 id:2 copy 0
G1 E-0.08000 F3000.00000
G1 F14400.000
G1 X70.913 Y160.652 E-0.14435
G1 X70.913 Y160.182 E-0.09303
G1 X72.042 Y160.834 E-0.25791
G1 X72.856 Y160.834 E-0.16114
G1 X72.735 Y160.764 E-0.02757
G1 E-0.03600 F3000.00000
G1 Z0.600000 F18000.000
G1 X62.599 Y122.359
G1 Z0.200000
G1 E0.80000 F2100.00000
; custom gcode: feature_gcode
;Perimeter                        ;  Perimeter
M204 P1000 T5000
; custom gcode end: feature_gcode

;TYPE:Perimeter
G1 F2400.000
G1 X62.599 Y93.483 E0.89138
G1 X92.190 Y93.483 E0.91349
G1 X92.190 Y122.359 E0.89138
G1 X94.002 Y122.359 E0.05592
G1 X94.002 Y124.408 E0.06328
G1 X60.787 Y124.408 E1.02533
G1 X60.787 Y122.359 E0.06328
G1 X62.539 Y122.359 E0.05407
G1 X62.192 Y121.952 F18000.000
G1 F2400.000
G1 X62.192 Y93.076 E0.89138
G1 X92.597 Y93.076 E0.93863
G1 X92.597 Y121.952 E0.89138
G1 X94.409 Y121.952 E0.05592
G1 X94.409 Y124.816 E0.08841
G1 X60.380 Y124.816 E1.05047
G1 X60.380 Y121.952 E0.08841
G1 X62.132 Y121.952 E0.05407
G1 X61.785 Y121.544 F18000.000
G1 F2400.000
G1 X61.785 Y92.669 E0.89138
G1 X93.004 Y92.669 E0.96376
G1 X93.004 Y121.544 E0.89138
G1 X94.816 Y121.544 E0.05592
G1 X94.816 Y125.223 E0.11355
G1 X59.973 Y125.223 E1.07560
G1 X59.973 Y121.544 E0.11355
G1 X61.725 Y121.544 E0.05407
G1 X61.375 Y121.135 F18000.000
; custom gcode: feature_gcode
;ExternalPerimeter                   ;  ExternalPerimeter
M204 P750 T5000
; custom gcode end: feature_gcode

;TYPE:External perimeter
G1 F2400.000
G1 X61.375 Y92.260 E0.89138
G1 X93.414 Y92.260 E0.98903
G1 X93.414 Y121.135 E0.89138
G1 X95.225 Y121.135 E0.05592
G1 X95.225 Y125.632 E0.13881
G1 X59.564 Y125.632 E1.10086
G1 X59.564 Y121.135 E0.13881
G1 X61.315 Y121.135 E0.05407
G1 X61.775 Y121.135 F18000.000
G1 E-0.08000 F3000.00000
G1 F14400.000
G1 X61.323 Y117.679 E-0.68400
G1 E-0.03600 F3000.00000
G1 X61.741 Y124.270 F18000.000
G1 E0.80000 F2100.00000
; custom gcode: feature_gcode
;SolidInfill                      ;  SolidInfill
M204 P2000 T5000
; custom gcode end: feature_gcode

;TYPE:Solid infill
G1 F3600.000
G1 X61.109 Y123.905 E0.02252
G1 X61.109 Y123.435 E0.01451
G1 X62.237 Y124.087 E0.04023
G1 X63.052 Y124.087 E0.02513
G1 X61.109 Y122.965 E0.06925
G1 X61.109 Y122.680 E0.00880
G1 X61.429 Y122.680 E0.00989
G1 X63.866 Y124.087 E0.08685
G1 X64.680 Y124.087 E0.02513
G1 X62.243 Y122.680 E0.08685
G1 X62.920 Y122.680 E0.02090
G1 X62.920 Y122.601 E0.00245
G1 X65.494 Y124.087 E0.09174
G1 X66.308 Y124.087 E0.02513
