G10 P0 R210 S210 ; sets the standby temperature
; generated by SuperSlicer 2.3.55 on 2023-12-10 at 22:04:17 UTC

; TODO: check the size of the extruder and the y-bar clearance. Optimize & test supports.

; external perimeters extrusion width = 0.60mm
; perimeters extrusion width = 0.60mm
; infill extrusion width = 0.80mm
; solid infill extrusion width = 0.50mm
; top infill extrusion width = 0.30mm
; first layer extrusion width = 0.60mm

; object:{"name":"medium-box","id":"medium-box.stl id:0 copy 0","object_center":[124.999984,124.970702,0.000000],"boundingbox_center":[124.999984,124.970702,23.500000],"boundingbox_size":[170.000000,161.500000,47.000000]}
; plater:{"center":[124.999984,124.970702,0.000000],"boundingbox_center":[124.999984,124.970702,23.500000],"boundingbox_size":[170.000000,161.500000,47.000000]}

;TYPE:Custom
; custom gcode: start_gcode
M106 P4 S255
M140 S60 ; set bed final temp
M104 S210 ; set extruder final temp
M190 S60 ; wait for bed final temp
M109 S210 ; wait for extruder final temp
;G29
G28
;M98 P"/macros/nozzle/brush.g"
;PRINT_START

G92 E0 ;Reset Extruder
;;G1 Z2.0 F3000 ;Move Z Axis up


G1 X100 Y4.6 Z0.3 F18000.0 ; Move to side a little

G1 X5 Y4.6 Z0.3 F1500.0 E10 ; Draw the second line

G1 X5 Y4.2 Z0.3 F1500.0 E10 ; Draw the third line

G1 X100 Y4.2 Z0.3 F1500.0 E10 ; Draw the third line


;G92 E0;		Reset extruder
;G1 X1 Y10 F6000;
;G1 Z1.7;
;G1 X1 Y60 E140 F50;
;G1 E-<DESTRING> F1500;
;G1 Z4
;G1 X<NEXTX> Y<NEXTY> F12000;
;G92 E0 ;Reset Extruder

;G1 Z2.0 F3000 ;Move Z Axis up
; custom gcode end: start_gcode
M107
G21 ; set units to millimeters
G90 ; use absolute coordinates
M83 ; use relative distances for extrusion
; custom gcode: start_filament_gcode
; Filament gcode
M572 D0 S0.025
; custom gcode end: start_filament_gcode
;LAYER_CHANGE
;Z:0.2
;HEIGHT:0.2
; custom gcode: before_layer_gcode
;BEFORE_LAYER_CHANGE
;0.2

; custom gcode end: before_layer_gcode

G1 Z0.200000 F21000.000
; custom gcode: layer_gcode
;AFTER_LAYER_CHANGE
;0.2
; custom gcode end: layer_gcode

G1 E-0.80000 F3000.00000
G1 Z1.000000 F21000.000
G1 X35.300 Y84.118
G1 Z0.200000
G1 E0.80000 F2100.00000
; custom gcode: feature_gcode
;Skirt
M204 P2000 T5000
; custom gcode end: feature_gcode

;TYPE:Skirt
G1 F2400.000
G1 X34.099 Y45.701 E1.69137
G1 X34.119 Y43.900 E0.07926
G1 X34.374 Y42.600 E0.05831
G1 X34.962 Y41.287 E0.06332
G1 X35.850 Y40.138 E0.06389
G1 X36.774 Y39.369 E0.05291
G1 X37.783 Y38.817 E0.05060
G1 X38.917 Y38.453 E0.05239
G1 X40.136 Y38.317 E0.05398
G1 X209.806 Y38.317 E7.46641
G1 X211.137 Y38.465 E0.05890
G1 X212.386 Y38.892 E0.05809
G1 X213.477 Y39.551 E0.05609
G1 X214.451 Y40.469 E0.05891
G1 X215.176 Y41.530 E0.05657
G1 X215.669 Y42.744 E0.05762
G1 X215.884 Y43.933 E0.05319
G1 X215.903 Y45.546 E0.07099
G1 X210.898 Y205.769 E7.05408
G1 X210.744 Y206.910 E0.05066
G1 X210.387 Y207.976 E0.04947
G1 X209.865 Y208.927 E0.04773
G1 X209.150 Y209.803 E0.04974
G1 X208.216 Y210.579 E0.05346
G1 X207.189 Y211.136 E0.05139
G1 X206.042 Y211.497 E0.05295
G1 X204.804 Y211.624 E0.05473
G1 X45.134 Y211.624 E7.02635
G1 X43.938 Y211.493 E0.05293
G1 X42.828 Y211.143 E0.05121
G1 X41.830 Y210.610 E0.04982
G1 X40.918 Y209.871 E0.05165
G1 X40.175 Y208.985 E0.05085
G1 X39.632 Y208.019 E0.04877
G1 X39.261 Y206.933 E0.05052
G1 X39.102 Y205.770 E0.05165
G1 X35.302 Y84.178 E5.35328
G1 X35.856 Y84.101 F21000.000
G1 F2400.000
G1 X34.656 Y45.684 E1.69136
G1 X34.672 Y43.977 E0.07516
G1 X34.897 Y42.793 E0.05304
G1 X35.437 Y41.578 E0.05849
G1 X36.255 Y40.521 E0.05878
G1 X37.091 Y39.827 E0.04785
G1 X38.007 Y39.328 E0.04588
G1 X39.037 Y38.997 E0.04760
G1 X40.146 Y38.874 E0.04911
G1 X209.806 Y38.874 E7.46596
G1 X211.028 Y39.011 E0.05409
G1 X212.172 Y39.407 E0.05327
G1 X213.221 Y40.057 E0.05430
G1 X214.056 Y40.864 E0.05110
G1 X214.709 Y41.838 E0.05157
G1 X215.150 Y42.954 E0.05283
G1 X215.332 Y44.021 E0.04761
G1 X215.346 Y45.562 E0.06785
G1 X210.342 Y205.737 E7.05198
G1 X210.203 Y206.776 E0.04613
G1 X209.876 Y207.753 E0.04533
G1 X209.401 Y208.618 E0.04340
G1 X208.746 Y209.420 E0.04558
G1 X207.899 Y210.121 E0.04837
G1 X206.972 Y210.623 E0.04638
G1 X205.929 Y210.951 E0.04813
G1 X204.804 Y211.067 E0.04976
G1 X45.143 Y211.067 E7.02597
G1 X44.049 Y210.947 E0.04842
G1 X43.036 Y210.626 E0.04673
G1 X42.132 Y210.142 E0.04514
G1 X41.301 Y209.466 E0.04715
G1 X40.625 Y208.657 E0.04638
G1 X40.136 Y207.781 E0.04414
G1 X39.801 Y206.795 E0.04582
G1 X39.658 Y205.739 E0.04689
G1 X35.858 Y84.161 E5.35270
; printing object medium-box.stl id:0 copy 0
G1 E-0.08000 F3000.00000
G1 F16800.000
G1 X35.732 Y80.131 E-0.68400
G1 E-0.03600 F3000.00000
G1 Z0.600000 F21000.000
G1 X47.203 Y203.517
G1 Z0.200000
G1 E0.80000 F2100.00000
; custom gcode: feature_gcode
;Perimeter                        ;  Perimeter
M204 P1000 T5000
; custom gcode end: feature_gcode

;TYPE:Perimeter
G1 F2400.000
G1 X47.200 Y46.424 E6.91295
G1 X202.800 Y46.424 E6.84723
G1 X202.797 Y203.517 E6.91295
G1 X47.263 Y203.517 E6.84430
G1 X46.646 Y204.075 F21000.000
G1 F2400.000
G1 X46.643 Y46.388 E6.93904
G1 X46.616 Y45.866 E0.02302
G1 X203.384 Y45.862 E6.89859
G1 X203.357 Y46.388 E0.02317
G1 X203.354 Y204.075 E6.93904
G1 X46.706 Y204.075 E6.89333
G1 X46.089 Y204.632 F21000.000
G1 F2400.000
G1 X46.086 Y46.402 E6.96293
G1 X46.030 Y45.307 E0.04824
G1 X203.970 Y45.300 E6.95018
G1 X203.914 Y46.402 E0.04856
G1 X203.911 Y204.632 E6.96293
G1 X46.149 Y204.632 E6.94236
G1 X45.532 Y205.189 F21000.000
; custom gcode: feature_gcode
;ExternalPerimeter                   ;  ExternalPerimeter
M204 P750 T5000
; custom gcode end: feature_gcode

;TYPE:External perimeter
G1 F2400.000
G1 X45.529 Y46.416 E6.98683
G1 X45.495 Y45.745 E0.02956
G1 X45.412 Y45.551 E0.00929
G1 X45.262 Y45.386 E0.00980
G1 X44.959 Y45.257 E0.01451
G1 X41.125 Y45.249 E0.16869
G1 X40.675 Y45.221 E0.01984
G1 X40.385 Y45.503 F21000.000
; custom gcode: feature_gcode
;ThinWall
M204 P2000 T5000
; custom gcode end: feature_gcode

;TYPE:Thin wall
G1 F2400.000
G1 X40.385 Y45.472 E0.00006
G1 X40.385 Y45.456 E0.00010
G1 X40.385 Y45.441 E0.00015
G1 X40.385 Y45.425 E0.00020
G1 X40.385 Y45.410 E0.00025
G1 X40.385 Y45.394 E0.00030
G1 X40.385 Y45.379 E0.00035
G1 X40.386 Y44.564 E0.02069
G1 X40.386 Y44.548 E0.00035
G1 X40.386 Y44.533 E0.00030
G1 X40.386 Y44.517 E0.00025
G1 X40.386 Y44.501 E0.00020
G1 X40.386 Y44.486 E0.00015
G1 X40.386 Y44.470 E0.00010
G1 X40.386 Y44.439 E0.00009
G1 X40.386 Y44.470 E0.00001
G1 X40.386 Y44.486 E0.00001
G1 X40.386 Y44.501 E0.00002
G1 X40.386 Y44.517 E0.00002
G1 X40.386 Y44.533 E0.00003
G1 X40.386 Y44.548 E0.00003
G1 X40.386 Y44.564 E0.00004
G1 X40.385 Y45.379 E0.00230
G1 X40.385 Y45.394 E0.00004
G1 X40.385 Y45.410 E0.00003
G1 X40.385 Y45.425 E0.00003
G1 X40.385 Y45.441 E0.00002
G1 X40.385 Y45.456 E0.00002
G1 X40.385 Y45.472 E0.00001
G1 X40.385 Y45.503 E0.00001
G1 X40.675 Y45.221 F21000.000
; custom gcode: feature_gcode
;ExternalPerimeter                   ;  ExternalPerimeter
M204 P750 T5000
; custom gcode end: feature_gcode

;TYPE:External perimeter
G1 F2400.000
G1 X40.677 Y44.723 E0.02192
G1 X41.202 Y44.692 E0.02316
G1 X44.679 Y44.692 E0.15299
G1 X45.172 Y44.714 E0.02173
G1 X46.176 Y44.751 E0.04421
G1 X47.179 Y44.753 E0.04414
G1 X202.822 Y44.753 E6.84910
G1 X204.326 Y44.740 E0.06617
G1 X205.322 Y44.692 E0.04390
G1 X208.798 Y44.692 E0.15296
G1 X209.323 Y44.723 E0.02316
G1 X209.325 Y45.221 E0.02192
G1 X209.615 Y45.503 F21000.000
; custom gcode: feature_gcode
;ThinWall
M204 P2000 T5000
; custom gcode end: feature_gcode

;TYPE:Thin wall
G1 F2400.000
G1 X209.615 Y45.472 E0.00006
G1 X209.615 Y45.456 E0.00010
G1 X209.615 Y45.441 E0.00015
G1 X209.615 Y45.425 E0.00020
G1 X209.615 Y45.410 E0.00025
G1 X209.615 Y45.394 E0.00030
G1 X209.615 Y45.379 E0.00035
G1 X209.614 Y44.564 E0.02069
G1 X209.614 Y44.548 E0.00035
G1 X209.614 Y44.533 E0.00030
G1 X209.614 Y44.517 E0.00025
G1 X209.614 Y44.501 E0.00020
G1 X209.614 Y44.486 E0.00015
G1 X209.614 Y44.470 E0.00010
G1 X209.614 Y44.439 E0.00009
G1 X209.614 Y44.470 E0.00001
G1 X209.614 Y44.486 E0.00001
G1 X209.614 Y44.501 E0.00002
G1 X209.614 Y44.517 E0.00002
G1 X209.614 Y44.533 E0.00003
G1 X209.614 Y44.548 E0.00003
G1 X209.614 Y44.564 E0.00004
G1 X209.615 Y45.379 E0.00230
G1 X209.615 Y45.394 E0.00004
G1 X209.615 Y45.410 E0.00003
G1 X209.615 Y45.425 E0.00003
G1 X209.615 Y45.441 E0.00002
G1 X209.615 Y45.456 E0.00002
G1 X209.615 Y45.472 E0.00001
G1 X209.615 Y45.503 E0.00001
G1 X209.325 Y45.221 F21000.000
; custom gcode: feature_gcode
;ExternalPerimeter                   ;  ExternalPerimeter
M204 P750 T5000
; custom gcode end: feature_gcode

;TYPE:External perimeter
G1 F2400.000
G1 X208.875 Y45.249 E0.01984
G1 X205.041 Y45.257 E0.16869
G1 X204.738 Y45.386 E0.01451
G1 X204.588 Y45.551 E0.00980
G1 X204.505 Y45.745 E0.00929
G1 X204.471 Y46.416 E0.02956
G1 X204.468 Y205.189 E6.98683
G1 X45.592 Y205.189 E6.99139
G1 X45.732 Y204.842 F21000.000
G1 E-0.08000 F3000.00000
G1 F16800.000
G1 X45.590 Y201.157 E-0.68400
G1 E-0.03600 F3000.00000
G1 X201.490 Y46.608 F21000.000
G1 E0.80000 F2100.00000
; custom gcode: feature_gcode
;SolidInfill                      ;  SolidInfill
M204 P2000 T5000
; custom gcode end: feature_gcode

;TYPE:Solid infill
G1 F6000.000
G1 X202.365 Y47.483 E0.05448
G1 X202.365 Y48.271 E0.03467
G1 X200.953 Y46.858 E0.08791
G1 X200.165 Y46.858 E0.03467
G1 X202.365 Y49.059 E0.13693
G1 X202.365 Y49.847 E0.03467
G1 X199.377 Y46.858 E0.18596
G1 X198.589 Y46.858 E0.03467
G1 X202.365 Y50.634 E0.23499
G1 X202.365 Y51.422 E0.03467
G1 X197.802 Y46.858 E0.28402
G1 X197.014 Y46.858 E0.03467
G1 X202.365 Y52.210 E0.33305
G1 X202.365 Y52.998 E0.03467
G1 X196.226 Y46.858 E0.38207
G1 X195.438 Y46.858 E0.03467
G1 X202.365 Y53.786 E0.43110
G1 X202.365 Y54.573 E0.03467
G1 X194.650 Y46.858 E0.48013
G1 X193.862 Y46.858 E0.03467
G1 X202.365 Y55.361 E0.52916
G1 X202.365 Y56.149 E0.03467
G1 X193.075 Y46.858 E0.57818
G1 X192.287 Y46.858 E0.03467
G1 X202.365 Y56.937 E0.62721
G1 X202.365 Y57.725 E0.03467
G1 X191.499 Y46.858 E0.67624
G1 X190.711 Y46.858 E0.03467
G1 X202.365 Y58.513 E0.72527
G1 X202.365 Y59.300 E0.03467
G1 X189.923 Y46.858 E0.77430
G1 X189.136 Y46.858 E0.03467
G1 X202.365 Y60.088 E0.82332
G1 X202.365 Y60.876 E0.03467
G1 X188.348 Y46.858 E0.87235
G1 X187.560 Y46.858 E0.03467
G1 X202.365 Y61.664 E0.92138
G1 X202.365 Y62.452 E0.03467
G1 X186.772 Y46.858 E0.97041
G1 X185.984 Y46.858 E0.03467
G1 X202.365 Y63.239 E1.01943
G1 X202.365 Y64.027 E0.03467
G1 X185.196 Y46.858 E1.06846
G1 X184.409 Y46.858 E0.03467
G1 X202.365 Y64.815 E1.11749
G1 X202.365 Y65.603 E0.03467
G1 X183.621 Y46.858 E1.16652
G1 X182.833 Y46.858 E0.03467
G1 X202.365 Y66.391 E1.21555
G1 X202.365 Y67.178 E0.03467
G1 X182.045 Y46.858 E1.26457
G1 X181.257 Y46.858 E0.03467
G1 X202.365 Y67.966 E1.31360
G1 X202.365 Y68.754 E0.03467
G1 X180.469 Y46.858 E1.36263
G1 X179.682 Y46.858 E0.03467
G1 X202.365 Y69.542 E1.41166
G1 X202.365 Y70.330 E0.03467
G1 X178.894 Y46.858 E1.46069
G1 X178.106 Y46.858 E0.03467
G1 X202.365 Y71.118 E1.50971
G1 X202.365 Y71.905 E0.03467
G1 X177.318 Y46.858 E1.55874
G1 X176.530 Y46.858 E0.03467
G1 X202.365 Y72.693 E1.60777
G1 X202.365 Y73.481 E0.03467
G1 X175.742 Y46.858 E1.65680
G1 X174.955 Y46.858 E0.03467
G1 X202.365 Y74.269 E1.70582
G1 X202.365 Y75.057 E0.03467
G1 X174.167 Y46.858 E1.75485
G1 X173.379 Y46.858 E0.03467
G1 X202.365 Y75.844 E1.80388
G1 X202.365 Y76.632 E0.03467
G1 X172.591 Y46.858 E1.85291
G1 X171.803 Y46.858 E0.03467
G1 X202.365 Y77.420 E1.90194
G1 X202.365 Y78.208 E0.03467
G1 X171.015 Y46.858 E1.95096
G1 X170.228 Y46.858 E0.03467
G1 X202.365 Y78.996 E1.99999
G1 X202.365 Y79.783 E0.03467
G1 X169.440 Y46.858 E2.04902
G1 X168.652 Y46.858 E0.03467
G1 X202.365 Y80.571 E2.09805
G1 X202.365 Y81.359 E0.03467
G1 X167.864 Y46.858 E2.14708
G1 X167.076 Y46.858 E0.03467
G1 X202.365 Y82.147 E2.19610
G1 X202.365 Y82.935 E0.03467
G1 X166.288 Y46.858 E2.24513
G1 X165.501 Y46.858 E0.03467
G1 X202.365 Y83.723 E2.29416
G1 X202.365 Y84.510 E0.03467
G1 X164.713 Y46.858 E2.34319
G1 X163.925 Y46.858 E0.03467
G1 X202.365 Y85.298 E2.39221
G1 X202.365 Y86.086 E0.03467
G1 X163.137 Y46.858 E2.44124
G1 X162.349 Y46.858 E0.03467
G1 X202.365 Y86.874 E2.49027
G1 X202.365 Y87.662 E0.03467
G1 X161.562 Y46.858 E2.53930
G1 X160.774 Y46.858 E0.03467
G1 X202.365 Y88.449 E2.58833
G1 X202.365 Y89.237 E0.03467
G1 X159.986 Y46.858 E2.63735
G1 X159.198 Y46.858 E0.03467
G1 X202.365 Y90.025 E2.68638
G1 X202.365 Y90.813 E0.03467
G1 X158.410 Y46.858 E2.73541
G1 X157.622 Y46.858 E0.03467
G1 X202.365 Y91.601 E2.78444
G1 X202.365 Y92.388 E0.03467
G1 X156.835 Y46.858 E2.83346
G1 X156.047 Y46.858 E0.03467
G1 X202.365 Y93.176 E2.88249
G1 X202.365 Y93.964 E0.03467
G1 X155.259 Y46.858 E2.93152
G1 X154.471 Y46.858 E0.03467
G1 X202.365 Y94.752 E2.98055
G1 X202.364 Y95.540 E0.03467
G1 X153.683 Y46.858 E3.02958
G1 X152.895 Y46.858 E0.03467
G1 X202.364 Y96.328 E3.07860
G1 X202.364 Y97.115 E0.03467
G1 X152.108 Y46.858 E3.12763
G1 X151.320 Y46.858 E0.03467
G1 X202.364 Y97.903 E3.17666
G1 X202.364 Y98.691 E0.03467
G1 X150.532 Y46.858 E3.22569
G1 X149.744 Y46.858 E0.03467
G1 X202.364 Y99.479 E3.27472
G1 X202.364 Y100.267 E0.03467
G1 X148.956 Y46.858 E3.32374
G1 X148.168 Y46.858 E0.03467
G1 X202.364 Y101.054 E3.37277
G1 X202.364 Y101.842 E0.03467
G1 X147.381 Y46.858 E3.42180
G1 X146.593 Y46.858 E0.03467
G1 X202.364 Y102.630 E3.47083
G1 X202.364 Y103.418 E0.03467
G1 X145.805 Y46.858 E3.51985
G1 X145.017 Y46.858 E0.03467
G1 X202.364 Y104.206 E3.56888
G1 X202.364 Y104.993 E0.03467
G1 X144.229 Y46.858 E3.61791
G1 X143.441 Y46.858 E0.03467
G1 X202.364 Y105.781 E3.66694
G1 X202.364 Y106.569 E0.03467
G1 X142.654 Y46.858 E3.71597
G1 X141.866 Y46.858 E0.03467
G1 X202.364 Y107.357 E3.76499
G1 X202.364 Y108.145 E0.03467
G1 X141.078 Y46.858 E3.81402
G1 X140.290 Y46.858 E0.03467
G1 X202.364 Y108.933 E3.86305
G1 X202.364 Y109.720 E0.03467
G1 X139.502 Y46.858 E3.91208
G1 X138.714 Y46.858 E0.03467
G1 X202.364 Y110.508 E3.96111
G1 X202.364 Y111.296 E0.03467
G1 X137.927 Y46.858 E4.01013
G1 X137.139 Y46.858 E0.03467
G1 X202.364 Y112.084 E4.05916
G1 X202.364 Y112.872 E0.03467
G1 X136.351 Y46.858 E4.10819
G1 X135.563 Y46.858 E0.03467
G1 X202.364 Y113.659 E4.15722
G1 X202.364 Y114.447 E0.03467
G1 X134.775 Y46.858 E4.20624
G1 X133.987 Y46.858 E0.03467
G1 X202.364 Y115.235 E4.25527
G1 X202.364 Y116.023 E0.03467
G1 X133.200 Y46.858 E4.30430
G1 X132.412 Y46.858 E0.03467
G1 X202.364 Y116.811 E4.35333
G1 X202.364 Y117.598 E0.03467
G1 X131.624 Y46.858 E4.40236
G1 X130.836 Y46.858 E0.03467
G1 X202.364 Y118.386 E4.45138
G1 X202.364 Y119.174 E0.03467
G1 X130.048 Y46.858 E4.50041
G1 X129.261 Y46.858 E0.03467
G1 X202.364 Y119.962 E4.54944
G1 X202.364 Y120.750 E0.03467
G1 X128.473 Y46.858 E4.59847
G1 X127.685 Y46.858 E0.03467
G1 X202.364 Y121.538 E4.64750
G1 X202.364 Y122.325 E0.03467
G1 X126.897 Y46.858 E4.69652
G1 X126.109 Y46.858 E0.03467
G1 X202.364 Y123.113 E4.74555
G1 X202.364 Y123.901 E0.03467
G1 X125.321 Y46.858 E4.79458
G1 X124.534 Y46.858 E0.03467
G1 X202.364 Y124.689 E4.84361
G1 X202.364 Y125.477 E0.03467
G1 X123.746 Y46.858 E4.89263
G1 X122.958 Y46.858 E0.03467
G1 X202.364 Y126.264 E4.94166
G1 X202.364 Y127.052 E0.03467
G1 X122.170 Y46.858 E4.99069
G1 X121.382 Y46.858 E0.03467
G1 X202.364 Y127.840 E5.03972
G1 X202.364 Y128.628 E0.03467
G1 X120.594 Y46.858 E5.08875
G1 X119.807 Y46.858 E0.03467
G1 X202.364 Y129.416 E5.13777
G1 X202.364 Y130.203 E0.03467
G1 X119.019 Y46.858 E5.18680
G1 X118.231 Y46.858 E0.03467
G1 X202.364 Y130.991 E5.23583
G1 X202.364 Y131.779 E0.03467
G1 X117.443 Y46.858 E5.28486
G1 X116.655 Y46.858 E0.03467
G1 X202.364 Y132.567 E5.33389
G1 X202.364 Y133.355 E0.03467
G1 X115.867 Y46.858 E5.38291
G1 X115.080 Y46.858 E0.03467
G1 X202.364 Y134.143 E5.43194
G1 X202.364 Y134.930 E0.03467
G1 X114.292 Y46.858 E5.48097
G1 X113.504 Y46.858 E0.03467
G1 X202.364 Y135.718 E5.53000
G1 X202.364 Y136.506 E0.03467
G1 X112.716 Y46.858 E5.57902
G1 X111.928 Y46.858 E0.03467
G1 X202.364 Y137.294 E5.62805
G1 X202.364 Y138.082 E0.03467
G1 X111.140 Y46.858 E5.67708
G1 X110.353 Y46.858 E0.03467
G1 X202.364 Y138.869 E5.72611
G1 X202.364 Y139.657 E0.03467
G1 X109.565 Y46.858 E5.77514
