G10 P0 R225 S225 ; sets the standby temperature
; generated by SuperSlicer 2.3.55 on 2023-05-21 at 14:25:32 UTC

; TODO: check the size of the extruder and the y-bar clearance. Optimize & test supports.

; external perimeters extrusion width = 0.39mm
; perimeters extrusion width = 0.60mm
; infill extrusion width = 0.60mm
; solid infill extrusion width = 0.60mm
; top infill extrusion width = 0.32mm
; support material extrusion width = 0.40mm
; first layer extrusion width = 0.45mm

; object:{"name":"midspan_panel_clip_6mm_x8","id":"midspan_panel_clip_6mm_x8.stl id:0 copy 0","object_center":[125.005428,114.750000,0.000000],"boundingbox_center":[125.005428,114.750000,5.000150],"boundingbox_size":[35.022914,20.040127,10.000299]}
; object:{"name":"midspan_panel_clip_4mm_x7","id":"midspan_panel_clip_4mm_x7.stl id:1 copy 0","object_center":[124.994572,135.250000,0.000000],"boundingbox_center":[124.994572,135.250000,3.500000],"boundingbox_size":[35.022914,20.040127,7.000000]}
; plater:{"center":[125.000000,125.000000,0.000000],"boundingbox_center":[125.000000,125.000000,5.000150],"boundingbox_size":[35.033770,40.540127,10.000299]}

;TYPE:Custom
; custom gcode: start_gcode
M106 P4 S255
M140 S105 ; set bed final temp
M104 S235 ; set extruder final temp
M190 S105 ; wait for bed final temp
M109 S235 ; wait for extruder final temp
;G29
G28
;M98 P"/macros/nozzle/brush.g"
;PRINT_START

G92 E0 ;Reset Extruder
;;G1 Z2.0 F3000 ;Move Z Axis up


G1 X100 Y4.6 Z0.3 F18000.0 ; Move to side a little

G1 X5 Y4.6 Z0.3 F1500.0 E10 ; Draw the second line

G1 X5 Y4.2 Z0.3 F1500.0 E10 ; Draw the third line

G1 X100 Y4.2 Z0.3 F1500.0 E10 ; Draw the third line


;G92 E0;		Reset extruder
;G1 X1 Y10 F6000;
;G1 Z1.7;
;G1 X1 Y60 E140 F50;
;G1 E-<DESTRING> F1500;
;G1 Z4
;G1 X<NEXTX> Y<NEXTY> F12000;
;G92 E0 ;Reset Extruder

;G1 Z2.0 F3000 ;Move Z Axis up
; custom gcode end: start_gcode
M107
G21 ; set units to millimeters
G90 ; use absolute coordinates
M83 ; use relative distances for extrusion
; custom gcode: start_filament_gcode
; Filament gcode
M572 D0 S0.05
; custom gcode end: start_filament_gcode
;LAYER_CHANGE
;Z:0.2
;HEIGHT:0.2
; custom gcode: before_layer_gcode
;BEFORE_LAYER_CHANGE
;0.2

; custom gcode end: before_layer_gcode

G1 Z0.200000 F18000.000
; custom gcode: layer_gcode
;AFTER_LAYER_CHANGE
;0.2
; custom gcode end: layer_gcode

G1 E-0.80000 F3000.00000
G1 Z1.000000 F18000.000
G1 X106.422 Y102.812
G1 Z0.200000
G1 E0.80000 F2100.00000
; custom gcode: feature_gcode
;Skirt
M204 P2000 T5000
; custom gcode end: feature_gcode

;TYPE:Skirt
G1 F2400.000
G1 X107.558 Y101.999 E0.04222
G1 X108.857 Y101.390 E0.04335
G1 X110.096 Y101.054 E0.03882
G1 X111.521 Y100.924 E0.04325
G1 X139.272 Y100.992 E0.83882
G1 X140.976 Y101.354 E0.05266
G1 X142.502 Y102.051 E0.05069
G1 X143.848 Y103.061 E0.05088
G1 X144.965 Y104.366 E0.05192
G1 X145.513 Y105.304 E0.03284
G1 X145.917 Y106.281 E0.03194
G1 X146.181 Y107.286 E0.03141
G1 X146.313 Y108.404 E0.03404
G1 X146.806 Y134.180 E0.77925
G1 X146.789 Y141.617 E0.22481
G1 X146.699 Y142.546 E0.02820
G1 X146.493 Y143.496 E0.02939
G1 X146.179 Y144.411 E0.02923
G1 X145.766 Y145.276 E0.02898
G1 X145.259 Y146.083 E0.02881
G1 X144.645 Y146.846 E0.02959
G1 X143.971 Y147.509 E0.02861
G1 X143.162 Y148.136 E0.03093
G1 X142.201 Y148.700 E0.03366
G1 X141.190 Y149.124 E0.03316
G1 X140.074 Y149.423 E0.03490
G1 X138.934 Y149.563 E0.03472
G1 X110.960 Y149.528 E0.84558
G1 X109.988 Y149.408 E0.02958
G1 X109.139 Y149.206 E0.02640
G1 X108.167 Y148.853 E0.03125
G1 X107.321 Y148.425 E0.02866
G1 X106.580 Y147.941 E0.02675
G1 X105.797 Y147.290 E0.03078
G1 X104.617 Y145.909 E0.05491
G1 X104.035 Y144.911 E0.03490
G1 X103.594 Y143.830 E0.03531
G1 X103.285 Y142.567 E0.03930
G1 X103.178 Y141.352 E0.03685
G1 X103.186 Y134.120 E0.21863
G1 X103.703 Y108.607 E0.77134
G1 X103.784 Y107.608 E0.03027
G1 X104.112 Y106.237 E0.04261
G1 X104.663 Y104.981 E0.04147
G1 X105.419 Y103.850 E0.04111
G1 X106.380 Y102.855 E0.04184
G1 X106.680 Y103.126 F18000.000
G1 F2400.000
G1 X107.762 Y102.351 E0.04022
G1 X108.989 Y101.775 E0.04100
G1 X110.162 Y101.456 E0.03675
G1 X111.518 Y101.331 E0.04114
G1 X139.206 Y101.395 E0.83694
G1 X140.835 Y101.736 E0.05030
G1 X142.278 Y102.392 E0.04792
G1 X143.558 Y103.348 E0.04827
G1 X144.615 Y104.574 E0.04894
G1 X145.144 Y105.477 E0.03165
G1 X145.528 Y106.402 E0.03027
G1 X145.781 Y107.360 E0.02995
G1 X145.907 Y108.430 E0.03258
G1 X146.399 Y134.181 E0.77849
G1 X146.383 Y141.585 E0.22380
G1 X146.297 Y142.476 E0.02707
G1 X146.104 Y143.376 E0.02784
G1 X145.805 Y144.248 E0.02786
G1 X145.416 Y145.068 E0.02743
G1 X144.933 Y145.839 E0.02749
G1 X144.353 Y146.562 E0.02803
G1 X143.715 Y147.192 E0.02710
G1 X142.954 Y147.786 E0.02917
G1 X142.021 Y148.334 E0.03270
G1 X141.034 Y148.747 E0.03234
G1 X139.959 Y149.031 E0.03363
G1 X138.815 Y149.161 E0.03478
G1 X110.998 Y149.122 E0.84085
G1 X109.263 Y148.818 E0.05323
G1 X108.336 Y148.482 E0.02980
G1 X107.537 Y148.079 E0.02707
G1 X106.832 Y147.621 E0.02541
G1 X106.081 Y146.999 E0.02947
G1 X104.967 Y145.701 E0.05170
G1 X104.406 Y144.743 E0.03356
G1 X103.985 Y143.717 E0.03352
G1 X103.687 Y142.499 E0.03792
G1 X103.585 Y141.341 E0.03511
G1 X103.593 Y134.129 E0.21800
G1 X104.110 Y108.615 E0.77137
G1 X104.182 Y107.700 E0.02776
G1 X104.492 Y106.385 E0.04081
G1 X105.012 Y105.192 E0.03936
G1 X105.728 Y104.115 E0.03909
G1 X106.638 Y103.170 E0.03966
; printing object midspan_panel_clip_6mm_x8.stl id:0 copy 0
G1 E-0.08000 F3000.00000
G1 F14400.000
G1 X107.762 Y102.351 E-0.27504
G1 X108.989 Y101.775 E-0.26843
G1 X109.675 Y101.589 E-0.14053
G1 E-0.03600 F3000.00000
G1 Z0.600000 F18000.000
G1 X129.478 Y115.261
G1 Z0.200000
G1 E0.80000 F2100.00000
; custom gcode: feature_gcode
;Perimeter                        ;  Perimeter
M204 P1000 T5000
; custom gcode end: feature_gcode

;TYPE:Perimeter
G1 F2400.000
G1 X129.505 Y114.588 E0.02038
G1 X129.436 Y113.963 E0.01900
G1 X129.356 Y113.602 E0.01117
G1 X129.251 Y113.258 E0.01089
G1 X129.004 Y112.681 E0.01897
G1 X128.650 Y112.107 E0.02038
G1 X128.245 Y111.626 E0.01900
G1 X127.977 Y111.372 E0.01117
G1 X127.698 Y111.144 E0.01089
G1 X127.171 Y110.803 E0.01897
G1 X126.558 Y110.524 E0.02038
G1 X125.953 Y110.351 E0.01900
G1 X125.589 Y110.289 E0.01117
G1 X125.231 Y110.255 E0.01088
G1 X124.603 Y110.266 E0.01897
G1 X123.938 Y110.376 E0.02038
G1 X123.340 Y110.569 E0.01900
G1 X123.003 Y110.721 E0.01116
G1 X122.687 Y110.893 E0.01088
G1 X122.172 Y111.252 E0.01897
G1 X121.681 Y111.714 E0.02038
G1 X121.292 Y112.208 E0.01900
G1 X121.097 Y112.521 E0.01117
G1 X120.930 Y112.841 E0.01089
G1 X120.703 Y113.426 E0.01897
G1 X120.553 Y114.083 E0.02038
G1 X120.505 Y114.710 E0.01900
G1 X120.518 Y115.079 E0.01117
G1 X120.558 Y115.437 E0.01089
G1 X120.695 Y116.049 E0.01897
G1 X120.937 Y116.679 E0.02038
G1 X121.247 Y117.225 E0.01900
G1 X121.463 Y117.525 E0.01117
G1 X121.696 Y117.800 E0.01088
G1 X122.151 Y118.232 E0.01897
G1 X122.703 Y118.619 E0.02038
G1 X123.265 Y118.900 E0.01900
G1 X123.612 Y119.028 E0.01116
G1 X123.958 Y119.127 E0.01088
G1 X124.577 Y119.232 E0.01897
G1 X125.225 Y119.245 E0.01959
G1 X125.610 Y119.210 E0.01169
G1 X126.225 Y119.084 E0.01897
G1 X126.858 Y118.853 E0.02038
G1 X127.411 Y118.553 E0.01900
G1 X127.714 Y118.343 E0.01117
G1 X127.994 Y118.115 E0.01089
G1 X128.434 Y117.668 E0.01897
G1 X128.831 Y117.124 E0.02038
G1 X129.123 Y116.567 E0.01900
G1 X129.257 Y116.222 E0.01117
G1 X129.362 Y115.878 E0.01089
G1 X129.467 Y115.320 E0.01716
G1 X129.073 Y115.215 F18000.000
G1 F2400.000
G1 X129.097 Y114.602 E0.01856
G1 X129.034 Y114.029 E0.01741
G1 X128.962 Y113.706 E0.01002
G1 X128.868 Y113.397 E0.00974
G1 X128.642 Y112.869 E0.01739
G1 X128.320 Y112.346 E0.01856
G1 X127.948 Y111.906 E0.01741
G1 X127.708 Y111.677 E0.01002
G1 X127.458 Y111.474 E0.00974
G1 X126.975 Y111.161 E0.01739
G1 X126.417 Y110.907 E0.01856
G1 X125.863 Y110.748 E0.01741
G1 X125.536 Y110.692 E0.01002
G1 X125.215 Y110.663 E0.00974
G1 X124.640 Y110.672 E0.01739
G1 X124.034 Y110.773 E0.01856
G1 X123.486 Y110.950 E0.01741
G1 X123.184 Y111.086 E0.01002
G1 X122.901 Y111.240 E0.00974
G1 X122.429 Y111.569 E0.01739
G1 X121.982 Y111.989 E0.01856
G1 X121.626 Y112.442 E0.01741
G1 X121.450 Y112.723 E0.01002
G1 X121.301 Y113.009 E0.00974
G1 X121.093 Y113.545 E0.01739
G1 X120.956 Y114.144 E0.01856
G1 X120.913 Y114.718 E0.01741
G1 X120.924 Y115.049 E0.01002
G1 X120.960 Y115.370 E0.00974
G1 X121.086 Y115.931 E0.01739
G1 X121.306 Y116.504 E0.01856
G1 X121.590 Y117.005 E0.01741
G1 X121.784 Y117.274 E0.01002
G1 X121.992 Y117.520 E0.00974
G1 X122.410 Y117.916 E0.01739
G1 X122.912 Y118.269 E0.01856
G1 X123.427 Y118.526 E0.01741
G1 X123.738 Y118.641 E0.01002
G1 X124.048 Y118.729 E0.00974
G1 X124.615 Y118.825 E0.01739
G1 X125.210 Y118.838 E0.01799
G1 X125.550 Y118.806 E0.01032
G1 X126.114 Y118.691 E0.01739
G1 X126.691 Y118.481 E0.01856
G1 X127.197 Y118.206 E0.01741
G1 X127.469 Y118.017 E0.01002
G1 X127.719 Y117.814 E0.00974
G1 X128.123 Y117.404 E0.01739
G1 X128.485 Y116.908 E0.01856
G1 X128.752 Y116.398 E0.01741
G1 X128.872 Y116.089 E0.01002
G1 X128.966 Y115.781 E0.00974
G1 X129.062 Y115.274 E0.01557
G1 X128.667 Y115.169 F18000.000
G1 F2400.000
G1 X128.689 Y114.616 E0.01673
G1 X128.632 Y114.096 E0.01582
G1 X128.568 Y113.809 E0.00888
G1 X128.485 Y113.537 E0.00860
G1 X128.279 Y113.057 E0.01580
G1 X127.989 Y112.585 E0.01673
G1 X127.651 Y112.185 E0.01582
G1 X127.439 Y111.983 E0.00888
G1 X127.218 Y111.803 E0.00860
G1 X126.779 Y111.519 E0.01580
G1 X126.275 Y111.290 E0.01673
G1 X125.772 Y111.146 E0.01582
G1 X125.483 Y111.096 E0.00888
G1 X125.200 Y111.070 E0.00860
G1 X124.677 Y111.079 E0.01580
G1 X124.131 Y111.169 E0.01673
G1 X123.633 Y111.330 E0.01582
G1 X123.365 Y111.451 E0.00888
G1 X123.115 Y111.587 E0.00860
G1 X122.686 Y111.885 E0.01580
G1 X122.283 Y112.265 E0.01673
G1 X121.959 Y112.676 E0.01582
G1 X121.804 Y112.925 E0.00888
G1 X121.673 Y113.178 E0.00860
G1 X121.483 Y113.665 E0.01580
G1 X121.360 Y114.205 E0.01673
G1 X121.321 Y114.727 E0.01582
G1 X121.331 Y115.020 E0.00888
G1 X121.362 Y115.303 E0.00860
G1 X121.476 Y115.813 E0.01580
G1 X121.675 Y116.330 E0.01673
G1 X121.933 Y116.785 E0.01582
G1 X122.105 Y117.023 E0.00888
G1 X122.289 Y117.240 E0.00860
G1 X122.668 Y117.600 E0.01580
G1 X123.121 Y117.918 E0.01673
G1 X123.589 Y118.152 E0.01582
G1 X123.865 Y118.254 E0.00888
G1 X124.138 Y118.332 E0.00860
G1 X124.654 Y118.419 E0.01580
G1 X125.196 Y118.430 E0.01639
G1 X125.491 Y118.403 E0.00895
G1 X126.003 Y118.298 E0.01580
G1 X126.523 Y118.109 E0.01673
G1 X126.983 Y117.859 E0.01582
G1 X127.224 Y117.692 E0.00888
G1 X127.445 Y117.512 E0.00860
G1 X127.812 Y117.140 E0.01580
G1 X128.138 Y116.692 E0.01674
G1 X128.381 Y116.229 E0.01582
G1 X128.487 Y115.955 E0.00888
G1 X128.570 Y115.683 E0.00860
G1 X128.656 Y115.228 E0.01399
G1 X128.260 Y115.123 F18000.000
; custom gcode: feature_gcode
;ExternalPerimeter                   ;  ExternalPerimeter
M204 P750 T5000
; custom gcode end: feature_gcode

;TYPE:External perimeter
G1 F1800.000
G1 X128.279 Y114.631 E0.01490
G1 X128.228 Y114.163 E0.01422
G1 X128.172 Y113.914 E0.00772
G1 X128.100 Y113.678 E0.00745
G1 X127.915 Y113.246 E0.01421
G1 X127.656 Y112.826 E0.01490
G1 X127.353 Y112.466 E0.01422
G1 X127.168 Y112.290 E0.00773
G1 X126.977 Y112.135 E0.00745
G1 X126.582 Y111.879 E0.01421
G1 X126.134 Y111.675 E0.01490
G1 X125.681 Y111.545 E0.01422
G1 X125.429 Y111.502 E0.00772
G1 X125.184 Y111.480 E0.00745
G1 X124.714 Y111.488 E0.01421
G1 X124.228 Y111.568 E0.01490
G1 X123.780 Y111.713 E0.01422
G1 X123.547 Y111.818 E0.00772
G1 X123.331 Y111.935 E0.00745
G1 X122.945 Y112.204 E0.01421
G1 X122.586 Y112.542 E0.01490
G1 X122.295 Y112.912 E0.01422
G1 X122.160 Y113.129 E0.00772
G1 X122.046 Y113.347 E0.00745
G1 X121.875 Y113.785 E0.01421
G1 X121.766 Y114.266 E0.01490
G1 X121.730 Y114.735 E0.01422
G1 X121.739 Y114.990 E0.00772
G1 X121.766 Y115.235 E0.00745
G1 X121.869 Y115.694 E0.01421
G1 X122.046 Y116.154 E0.01490
G1 X122.278 Y116.563 E0.01422
G1 X122.428 Y116.770 E0.00773
G1 X122.587 Y116.959 E0.00745
G1 X122.928 Y117.282 E0.01421
G1 X123.331 Y117.566 E0.01490
G1 X123.752 Y117.776 E0.01422
G1 X123.992 Y117.864 E0.00772
G1 X124.229 Y117.932 E0.00745
G1 X124.692 Y118.010 E0.01421
G1 X125.181 Y118.021 E0.01478
G1 X125.431 Y117.998 E0.00757
G1 X125.891 Y117.903 E0.01421
G1 X126.355 Y117.735 E0.01490
G1 X126.768 Y117.510 E0.01422
G1 X126.978 Y117.365 E0.00773
G1 X127.169 Y117.209 E0.00745
G1 X127.499 Y116.874 E0.01421
G1 X127.790 Y116.476 E0.01490
G1 X128.008 Y116.059 E0.01422
G1 X128.101 Y115.821 E0.00772
G1 X128.172 Y115.585 E0.00745
G1 X128.248 Y115.182 E0.01240
G1 X128.622 Y114.955 F18000.000
G1 E-0.08000 F3000.00000
G1 F14400.000
G1 X128.279 Y114.631 E-0.10934
G1 X128.228 Y114.163 E-0.09310
G1 X128.172 Y113.914 E-0.05058
G1 X128.100 Y113.678 E-0.04875
G1 X127.915 Y113.246 E-0.09306
G1 X127.656 Y112.826 E-0.09758
G1 X127.353 Y112.466 E-0.09310
G1 X127.168 Y112.290 E-0.05058
G1 X126.980 Y112.137 E-0.04791
G1 E-0.03600 F3000.00000
G1 X138.606 Y115.720 F18000.000
G1 E0.80000 F2100.00000
; custom gcode: feature_gcode
;Perimeter                        ;  Perimeter
M204 P1000 T5000
; custom gcode end: feature_gcode

;TYPE:Perimeter
G1 F2400.000
G1 X138.590 Y115.921 E0.00611
G1 X138.549 Y116.090 E0.00523
G1 X138.452 Y116.279 E0.00642
G1 X138.309 Y116.446 E0.00666
G1 X134.188 Y120.558 E0.17596
G1 X134.012 Y120.708 E0.00699
G1 X133.850 Y120.791 E0.00550
G1 X133.685 Y120.844 E0.00523
G1 X133.453 Y120.861 E0.00702
G1 X116.545 Y120.842 E0.51109
G1 X116.343 Y120.826 E0.00614
G1 X116.174 Y120.785 E0.00523
G1 X115.985 Y120.688 E0.00643
G1 X115.818 Y120.545 E0.00666
G1 X111.706 Y116.424 E0.17596
G1 X111.556 Y116.248 E0.00699
G1 X111.474 Y116.086 E0.00550
G1 X111.420 Y115.921 E0.00523
G1 X111.403 Y115.689 E0.00702
G1 X111.411 Y108.633 E0.21329
G1 X138.605 Y108.664 E0.82200
G1 X138.606 Y115.660 E0.21147
G1 X139.013 Y115.736 F18000.000
G1 F2400.000
G1 X138.993 Y115.986 E0.00757
G1 X138.917 Y116.264 E0.00870
G1 X138.769 Y116.534 E0.00933
G1 X138.608 Y116.723 E0.00750
G1 X134.465 Y120.857 E0.17692
G1 X134.209 Y121.065 E0.00994
G1 X134.005 Y121.168 E0.00692
G1 X133.797 Y121.235 E0.00660
G1 X133.469 Y121.268 E0.00998
G1 X116.528 Y121.249 E0.51206
G1 X116.278 Y121.229 E0.00759
G1 X116.066 Y121.177 E0.00660
G1 X115.788 Y121.044 E0.00931
G1 X115.541 Y120.844 E0.00962
G1 X111.407 Y116.701 E0.17692
G1 X111.237 Y116.502 E0.00789
G1 X111.096 Y116.241 E0.00897
G1 X111.015 Y115.965 E0.00869
G1 X110.996 Y115.705 E0.00789
G1 X111.004 Y108.789 E0.20904
G1 X111.020 Y108.630 E0.00485
G1 X111.105 Y108.439 E0.00631
G1 X111.176 Y108.361 E0.00317
G1 X111.383 Y108.244 E0.00720
G1 X111.557 Y108.226 E0.00529
G1 X138.459 Y108.257 E0.81315
G1 X138.644 Y108.276 E0.00561
G1 X138.786 Y108.339 E0.00472
G1 X138.890 Y108.434 E0.00424
G1 X138.976 Y108.560 E0.00461
G1 X139.012 Y108.709 E0.00465
G1 X139.013 Y115.676 E0.21059
G1 X139.420 Y115.753 F18000.000
G1 F2400.000
G1 X139.396 Y116.051 E0.00903
G1 X139.290 Y116.428 E0.01184
G1 X139.160 Y116.683 E0.00867
G1 X138.907 Y117.000 E0.01226
G1 X134.741 Y121.157 E0.17788
G1 X134.415 Y121.417 E0.01260
G1 X134.160 Y121.546 E0.00863
G1 X133.899 Y121.630 E0.00829
G1 X133.484 Y121.676 E0.01263
G1 X116.512 Y121.656 E0.51302
G1 X116.213 Y121.632 E0.00905
G1 X115.947 Y121.567 E0.00830
G1 X115.581 Y121.396 E0.01221
G1 X115.264 Y121.143 E0.01226
G1 X111.107 Y116.977 E0.17788
G1 X110.912 Y116.748 E0.00909
G1 X110.718 Y116.396 E0.01215
G1 X110.611 Y116.020 E0.01184
G1 X110.589 Y115.720 E0.00909
G1 X110.597 Y108.767 E0.21015
G1 X110.620 Y108.544 E0.00679
G1 X110.679 Y108.363 E0.00575
G1 X110.774 Y108.198 E0.00576
G1 X110.902 Y108.057 E0.00575
G1 X111.055 Y107.945 E0.00575
G1 X111.242 Y107.861 E0.00619
G1 X111.536 Y107.819 E0.00897
G1 X138.480 Y107.850 E0.81443
G1 X138.711 Y107.874 E0.00701
G1 X138.980 Y107.980 E0.00875
G1 X139.195 Y108.161 E0.00850
G1 X139.349 Y108.395 E0.00846
G1 X139.419 Y108.667 E0.00849
G1 X139.420 Y115.693 E0.21237
G1 X139.829 Y115.769 F18000.000
; custom gcode: feature_gcode
;ExternalPerimeter                   ;  ExternalPerimeter
M204 P750 T5000
; custom gcode end: feature_gcode

;TYPE:External perimeter
G1 F1800.000
