G10 P0 R250 S250 ; sets the standby temperature
; generated by SuperSlicer 2.3.55 on 2023-05-16 at 18:46:04 UTC

; TODO: check the size of the extruder and the y-bar clearance. Optimize & test supports.

; external perimeters extrusion width = 0.39mm
; perimeters extrusion width = 0.60mm
; infill extrusion width = 0.80mm
; solid infill extrusion width = 0.60mm
; top infill extrusion width = 0.32mm
; support material extrusion width = 0.40mm
; first layer extrusion width = 0.45mm

; object:{"name":"mini12864_case_rear","id":"mini12864_case_rear.stl id:0 copy 0","object_center":[124.969849,125.000000,0.000000],"boundingbox_center":[124.969849,125.000000,5.800000],"boundingbox_size":[73.599182,116.999878,11.600000]}
; plater:{"center":[124.969849,125.000000,0.000000],"boundingbox_center":[124.969849,125.000000,5.800000],"boundingbox_size":[73.599182,116.999878,11.600000]}

;TYPE:Custom
; custom gcode: start_gcode
M106 P4 S255
M140 S95 ; set bed final temp
M104 S255 ; set extruder final temp
M190 S95 ; wait for bed final temp
M109 S255 ; wait for extruder final temp
;G29
G28
;M98 P"/macros/nozzle/brush.g"
;PRINT_START

G92 E0 ;Reset Extruder
;;G1 Z2.0 F3000 ;Move Z Axis up


G1 X100 Y4.6 Z0.3 F18000.0 ; Move to side a little

G1 X5 Y4.6 Z0.3 F1500.0 E10 ; Draw the second line

G1 X5 Y4.2 Z0.3 F1500.0 E10 ; Draw the third line

G1 X100 Y4.2 Z0.3 F1500.0 E10 ; Draw the third line


;G92 E0;		Reset extruder
;G1 X1 Y10 F6000;
;G1 Z1.7;
;G1 X1 Y60 E140 F50;
;G1 E-<DESTRING> F1500;
;G1 Z4
;G1 X<NEXTX> Y<NEXTY> F12000;
;G92 E0 ;Reset Extruder

;G1 Z2.0 F3000 ;Move Z Axis up
; custom gcode end: start_gcode
M107
G21 ; set units to millimeters
G90 ; use absolute coordinates
M83 ; use relative distances for extrusion
; custom gcode: start_filament_gcode
; Filament gcode
M572 D0 S0.08
; custom gcode end: start_filament_gcode
;LAYER_CHANGE
;Z:0.2
;HEIGHT:0.2
; custom gcode: before_layer_gcode
;BEFORE_LAYER_CHANGE
;0.2

; custom gcode end: before_layer_gcode

G1 Z0.200000 F18000.000
; custom gcode: layer_gcode
;AFTER_LAYER_CHANGE
;0.2
; custom gcode end: layer_gcode

G1 E-0.80000 F3000.00000
G1 Z1.000000 F18000.000
G1 X105.381 Y64.483
G1 Z0.200000
G1 E0.80000 F2100.00000
; custom gcode: feature_gcode
;Skirt
M204 P2000 T5000
; custom gcode end: feature_gcode

;TYPE:Skirt
G1 F2400.000
G1 X106.140 Y63.530 E0.03799
G1 X106.961 Y62.754 E0.03525
G1 X108.055 Y62.000 E0.04144
G1 X108.895 Y61.571 E0.02943
G1 X109.938 Y61.199 E0.03453
G1 X110.987 Y60.975 E0.03344
G1 X112.044 Y60.891 E0.03308
G1 X159.175 Y60.889 E1.47011
G1 X160.635 Y61.024 E0.04573
G1 X162.303 Y61.514 E0.05423
G1 X163.601 Y62.188 E0.04563
G1 X164.756 Y63.086 E0.04563
G1 X165.900 Y64.403 E0.05440
G1 X166.630 Y65.671 E0.04563
G1 X167.119 Y67.056 E0.04581
G1 X167.369 Y68.752 E0.05350
G1 X167.380 Y180.929 E3.49898
G1 X167.243 Y182.377 E0.04536
G1 X166.756 Y184.034 E0.05386
G1 X166.174 Y185.182 E0.04017
G1 X165.522 Y186.099 E0.03508
G1 X164.696 Y186.970 E0.03745
G1 X163.919 Y187.593 E0.03106
G1 X162.928 Y188.195 E0.03616
G1 X162.210 Y188.522 E0.02460
G1 X161.231 Y188.846 E0.03217
G1 X159.968 Y189.068 E0.03999
G1 X112.105 Y189.110 E1.49294
G1 X110.681 Y188.971 E0.04464
G1 X109.036 Y188.486 E0.05350
G1 X107.817 Y187.862 E0.04272
G1 X106.777 Y187.091 E0.04037
G1 X105.875 Y186.172 E0.04017
G1 X105.080 Y185.035 E0.04326
G1 X87.287 Y149.842 E1.23005
G1 X86.802 Y148.529 E0.04367
G1 X86.614 Y147.026 E0.04727
G1 X86.614 Y102.971 E1.37414
G1 X86.737 Y101.759 E0.03800
G1 X87.064 Y100.661 E0.03571
G1 X104.872 Y65.345 E1.23369
G1 X105.351 Y64.535 E0.02935
G1 X105.700 Y64.740 F18000.000
G1 F2400.000
G1 X106.427 Y63.818 E0.03663
G1 X107.211 Y63.076 E0.03366
G1 X108.251 Y62.356 E0.03945
G1 X109.052 Y61.947 E0.02806
G1 X110.047 Y61.591 E0.03297
G1 X111.048 Y61.378 E0.03192
G1 X112.063 Y61.298 E0.03175
G1 X159.175 Y61.297 E1.46951
G1 X160.564 Y61.425 E0.04349
G1 X162.157 Y61.894 E0.05182
G1 X163.389 Y62.536 E0.04331
G1 X164.480 Y63.385 E0.04313
G1 X165.572 Y64.644 E0.05200
G1 X166.263 Y65.849 E0.04331
G1 X166.726 Y67.163 E0.04348
G1 X166.964 Y68.796 E0.05147
G1 X166.973 Y180.928 E3.49758
G1 X166.844 Y182.300 E0.04297
G1 X166.376 Y183.888 E0.05165
G1 X165.820 Y184.980 E0.03823
G1 X165.197 Y185.855 E0.03349
G1 X164.409 Y186.681 E0.03561
G1 X163.671 Y187.270 E0.02945
G1 X162.624 Y187.895 E0.03805
G1 X161.715 Y188.272 E0.03068
G1 X161.008 Y188.479 E0.02298
G1 X159.921 Y188.663 E0.03439
G1 X112.113 Y188.703 E1.49121
G1 X110.759 Y188.572 E0.04244
G1 X109.181 Y188.106 E0.05130
G1 X108.027 Y187.513 E0.04050
G1 X107.042 Y186.782 E0.03824
G1 X106.188 Y185.911 E0.03805
G1 X105.431 Y184.828 E0.04120
G1 X87.651 Y149.659 E1.22921
G1 X87.195 Y148.423 E0.04109
G1 X87.021 Y147.019 E0.04414
G1 X87.021 Y102.972 E1.37390
G1 X87.138 Y101.832 E0.03573
G1 X87.446 Y100.803 E0.03352
G1 X105.228 Y65.544 E1.23171
G1 X105.670 Y64.792 E0.02721
; printing object mini12864_case_rear.stl id:0 copy 0
G1 E-0.08000 F3000.00000
G1 F14400.000
G1 X106.427 Y63.818 E-0.24422
G1 X107.211 Y63.076 E-0.21360
G1 X108.151 Y62.426 E-0.22618
G1 E-0.03600 F3000.00000
G1 Z0.600000 F18000.000
G1 X153.561 Y125.354
G1 Z0.200000
G1 E0.80000 F2100.00000
; custom gcode: feature_gcode
;Perimeter                        ;  Perimeter
M204 P1000 T5000
; custom gcode end: feature_gcode

;TYPE:Perimeter
G1 F2185.062
G1 X153.831 Y125.269 E0.00884
G1 X154.181 Y125.768 E0.01903
G1 X154.501 Y126.088 E0.01411
G1 X154.872 Y126.348 E0.01411
G1 X155.413 Y126.600 E0.01862
G1 X154.872 Y126.852 E0.01862
G1 X154.501 Y127.112 E0.01411
G1 X154.181 Y127.432 E0.01411
G1 X153.831 Y127.932 E0.01903
G1 X153.561 Y127.846 E0.00884
G1 X153.561 Y125.414 E0.07587
G1 E-0.08000 F3000.00000
G1 F14400.000
G1 X153.831 Y125.269 E-0.06076
G1 X154.181 Y125.768 E-0.12078
G1 X154.501 Y126.088 E-0.08954
G1 X154.872 Y126.348 E-0.08954
G1 X155.413 Y126.600 E-0.11813
G1 X154.872 Y126.852 E-0.11813
G1 X154.511 Y127.105 E-0.08712
G1 E-0.03600 F3000.00000
G1 X156.118 Y167.616 F18000.000
G1 E0.80000 F2100.00000
G1 F2400.000
G1 X155.719 Y167.641 E0.01247
G1 X155.224 Y167.729 E0.01569
G1 X154.739 Y167.880 E0.01584
G1 X154.278 Y168.092 E0.01584
G1 X153.841 Y168.365 E0.01607
G1 X153.376 Y168.763 E0.01908
G1 X153.104 Y169.053 E0.01240
G1 X152.806 Y169.462 E0.01581
G1 X152.561 Y169.907 E0.01582
G1 X152.415 Y170.276 E0.01239
G1 X152.252 Y170.865 E0.01907
G1 X152.191 Y171.374 E0.01600
G1 X152.191 Y171.773 E0.01242
G1 X152.262 Y172.382 E0.01913
G1 X152.394 Y172.874 E0.01590
G1 X152.541 Y173.246 E0.01246
G1 X152.835 Y173.780 E0.01901
G1 X153.069 Y174.103 E0.01246
G1 X153.413 Y174.479 E0.01589
G1 X153.890 Y174.866 E0.01914
G1 X154.226 Y175.079 E0.01243
G1 X154.688 Y175.301 E0.01599
G1 X155.273 Y175.479 E0.01908
G1 X155.664 Y175.553 E0.01239
G1 X156.169 Y175.586 E0.01581
G1 X156.675 Y175.553 E0.01581
G1 X157.066 Y175.479 E0.01239
G1 X157.651 Y175.301 E0.01908
G1 X158.113 Y175.079 E0.01599
G1 X158.449 Y174.866 E0.01243
G1 X158.925 Y174.479 E0.01914
G1 X159.273 Y174.100 E0.01603
G1 X159.562 Y173.689 E0.01568
G1 X159.752 Y173.343 E0.01230
G1 X159.946 Y172.873 E0.01587
G1 X160.094 Y172.277 E0.01915
G1 X160.144 Y171.882 E0.01243
G1 X160.149 Y171.370 E0.01596
G1 X160.062 Y170.764 E0.01909
G1 X159.963 Y170.379 E0.01240
G1 X159.778 Y169.907 E0.01580
G1 X159.534 Y169.463 E0.01582
G1 X159.300 Y169.142 E0.01238
G1 X158.891 Y168.688 E0.01906
G1 X158.494 Y168.363 E0.01601
G1 X158.158 Y168.150 E0.01242
G1 X157.606 Y167.882 E0.01912
G1 X157.119 Y167.730 E0.01591
G1 X156.727 Y167.655 E0.01245
G1 X156.178 Y167.620 E0.01714
G1 X156.152 Y168.028 F18000.000
; custom gcode: feature_gcode
;ExternalPerimeter                   ;  ExternalPerimeter
M204 P750 T5000
; custom gcode end: feature_gcode

;TYPE:External perimeter
G1 F1800.000
G1 X155.768 Y168.048 E0.01199
G1 X155.321 Y168.127 E0.01416
G1 X154.886 Y168.263 E0.01421
G1 X154.472 Y168.453 E0.01421
G1 X154.084 Y168.696 E0.01429
G1 X153.659 Y169.060 E0.01743
G1 X153.420 Y169.315 E0.01091
G1 X153.152 Y169.682 E0.01420
G1 X152.932 Y170.081 E0.01420
G1 X152.804 Y170.406 E0.01091
G1 X152.654 Y170.945 E0.01743
G1 X152.600 Y171.399 E0.01427
G1 X152.600 Y171.749 E0.01092
G1 X152.665 Y172.305 E0.01745
G1 X152.783 Y172.745 E0.01423
G1 X152.912 Y173.071 E0.01093
G1 X153.181 Y173.560 E0.01741
G1 X153.387 Y173.844 E0.01093
G1 X153.695 Y174.180 E0.01423
G1 X154.129 Y174.533 E0.01745
G1 X154.425 Y174.721 E0.01092
G1 X154.837 Y174.918 E0.01426
G1 X155.372 Y175.081 E0.01743
G1 X155.715 Y175.147 E0.01091
G1 X156.169 Y175.176 E0.01420
G1 X156.624 Y175.147 E0.01420
G1 X156.967 Y175.081 E0.01091
G1 X157.502 Y174.918 E0.01743
G1 X157.914 Y174.721 E0.01426
G1 X158.210 Y174.533 E0.01092
G1 X158.644 Y174.180 E0.01745
G1 X158.953 Y173.843 E0.01428
G1 X159.214 Y173.472 E0.01415
G1 X159.382 Y173.166 E0.01088
G1 X159.556 Y172.745 E0.01422
G1 X159.692 Y172.202 E0.01746
G1 X159.735 Y171.854 E0.01092
G1 X159.739 Y171.397 E0.01425
G1 X159.660 Y170.844 E0.01743
G1 X159.573 Y170.505 E0.01091
G1 X159.407 Y170.082 E0.01420
G1 X159.187 Y169.683 E0.01420
G1 X158.982 Y169.400 E0.01090
G1 X158.608 Y168.985 E0.01742
G1 X158.254 Y168.695 E0.01427
G1 X157.958 Y168.508 E0.01092
G1 X157.455 Y168.264 E0.01745
G1 X157.019 Y168.128 E0.01424
G1 X156.675 Y168.062 E0.01093
G1 X156.212 Y168.032 E0.01448
G1 X155.955 Y167.698 F18000.000
G1 E-0.08000 F3000.00000
G1 F14400.000
G1 X155.768 Y168.048 E-0.08785
G1 X155.321 Y168.127 E-0.08982
G1 X154.886 Y168.263 E-0.09017
G1 X154.472 Y168.453 E-0.09017
G1 X154.084 Y168.696 E-0.09068
G1 X153.659 Y169.060 E-0.11060
G1 X153.420 Y169.315 E-0.06922
G1 X153.255 Y169.541 E-0.05549
G1 E-0.03600 F3000.00000
G1 X119.149 Y171.370 F18000.000
G1 E0.80000 F2100.00000
; custom gcode: feature_gcode
;Perimeter                        ;  Perimeter
M204 P1000 T5000
; custom gcode end: feature_gcode

;TYPE:Perimeter
G1 F2400.000
G1 X119.062 Y170.764 E0.01909
G1 X118.963 Y170.379 E0.01240
G1 X118.778 Y169.907 E0.01580
G1 X118.534 Y169.463 E0.01582
G1 X118.300 Y169.142 E0.01238
G1 X117.891 Y168.688 E0.01906
G1 X117.494 Y168.363 E0.01601
G1 X117.158 Y168.150 E0.01242
G1 X116.606 Y167.882 E0.01912
G1 X116.119 Y167.730 E0.01591
G1 X115.727 Y167.655 E0.01245
G1 X115.118 Y167.616 E0.01901
G1 X114.719 Y167.641 E0.01247
G1 X114.224 Y167.729 E0.01569
G1 X113.739 Y167.880 E0.01584
G1 X113.278 Y168.092 E0.01584
G1 X112.841 Y168.365 E0.01607
G1 X112.376 Y168.763 E0.01908
G1 X112.104 Y169.053 E0.01240
G1 X111.806 Y169.462 E0.01581
G1 X111.561 Y169.907 E0.01582
G1 X111.415 Y170.276 E0.01239
G1 X111.252 Y170.865 E0.01907
G1 X111.191 Y171.374 E0.01600
G1 X111.191 Y171.773 E0.01242
G1 X111.262 Y172.382 E0.01913
G1 X111.394 Y172.874 E0.01590
G1 X111.541 Y173.246 E0.01246
G1 X111.835 Y173.780 E0.01901
G1 X112.069 Y174.103 E0.01246
G1 X112.413 Y174.479 E0.01589
G1 X112.890 Y174.866 E0.01914
G1 X113.226 Y175.079 E0.01243
G1 X113.688 Y175.301 E0.01599
G1 X114.273 Y175.479 E0.01908
G1 X114.664 Y175.553 E0.01239
G1 X115.169 Y175.586 E0.01581
G1 X115.675 Y175.553 E0.01581
G1 X116.066 Y175.479 E0.01239
G1 X116.651 Y175.301 E0.01908
G1 X117.113 Y175.079 E0.01599
G1 X117.449 Y174.866 E0.01243
G1 X117.925 Y174.479 E0.01914
G1 X118.273 Y174.100 E0.01603
G1 X118.562 Y173.689 E0.01568
G1 X118.752 Y173.343 E0.01230
G1 X118.946 Y172.873 E0.01587
G1 X119.094 Y172.277 E0.01915
G1 X119.144 Y171.882 E0.01243
G1 X119.148 Y171.430 E0.01409
G1 X118.739 Y171.427 F18000.000
; custom gcode: feature_gcode
;ExternalPerimeter                   ;  ExternalPerimeter
M204 P750 T5000
; custom gcode end: feature_gcode

;TYPE:External perimeter
G1 F1800.000
G1 X118.660 Y170.844 E0.01834
G1 X118.573 Y170.505 E0.01091
G1 X118.407 Y170.082 E0.01420
G1 X118.187 Y169.683 E0.01420
G1 X117.982 Y169.400 E0.01090
G1 X117.608 Y168.985 E0.01742
G1 X117.254 Y168.695 E0.01427
G1 X116.958 Y168.508 E0.01092
G1 X116.455 Y168.264 E0.01745
G1 X116.019 Y168.128 E0.01424
G1 X115.675 Y168.062 E0.01093
G1 X115.118 Y168.026 E0.01741
G1 X114.768 Y168.048 E0.01093
G1 X114.321 Y168.127 E0.01416
G1 X113.886 Y168.263 E0.01421
G1 X113.472 Y168.453 E0.01421
G1 X113.084 Y168.696 E0.01429
G1 X112.659 Y169.060 E0.01743
G1 X112.420 Y169.315 E0.01091
G1 X112.152 Y169.682 E0.01420
G1 X111.932 Y170.081 E0.01420
G1 X111.804 Y170.406 E0.01091
G1 X111.654 Y170.945 E0.01743
G1 X111.600 Y171.399 E0.01427
G1 X111.600 Y171.749 E0.01092
G1 X111.665 Y172.305 E0.01745
G1 X111.783 Y172.745 E0.01423
G1 X111.912 Y173.071 E0.01093
G1 X112.181 Y173.560 E0.01741
G1 X112.387 Y173.844 E0.01093
G1 X112.695 Y174.180 E0.01423
G1 X113.129 Y174.533 E0.01745
G1 X113.425 Y174.721 E0.01092
G1 X113.837 Y174.918 E0.01426
G1 X114.372 Y175.081 E0.01743
G1 X114.715 Y175.147 E0.01091
G1 X115.169 Y175.176 E0.01420
G1 X115.624 Y175.147 E0.01420
G1 X115.967 Y175.081 E0.01091
G1 X116.502 Y174.918 E0.01743
G1 X116.914 Y174.721 E0.01426
G1 X117.210 Y174.533 E0.01092
G1 X117.644 Y174.180 E0.01745
G1 X117.953 Y173.843 E0.01428
G1 X118.214 Y173.472 E0.01415
G1 X118.382 Y173.166 E0.01088
G1 X118.556 Y172.745 E0.01422
G1 X118.692 Y172.202 E0.01746
G1 X118.735 Y171.854 E0.01092
G1 X118.738 Y171.487 E0.01147
G1 X119.067 Y171.197 F18000.000
G1 E-0.08000 F3000.00000
G1 F14400.000
G1 X118.660 Y170.844 E-0.12811
G1 X118.573 Y170.505 E-0.06924
G1 X118.407 Y170.082 E-0.09009
G1 X118.187 Y169.683 E-0.09011
G1 X117.982 Y169.400 E-0.06919
G1 X117.608 Y168.985 E-0.11054
G1 X117.254 Y168.695 E-0.09055
G1 X117.099 Y168.597 E-0.03616
G1 E-0.03600 F3000.00000
G1 X115.169 Y82.386 F18000.000
G1 E0.80000 F2100.00000
; custom gcode: feature_gcode
;Perimeter                        ;  Perimeter
M204 P1000 T5000
; custom gcode end: feature_gcode

;TYPE:Perimeter
G1 F2400.000
G1 X115.675 Y82.353 E0.01581
G1 X116.066 Y82.279 E0.01239
G1 X116.651 Y82.101 E0.01908
G1 X117.113 Y81.879 E0.01599
G1 X117.449 Y81.666 E0.01243
G1 X117.925 Y81.279 E0.01914
G1 X118.273 Y80.900 E0.01603
G1 X118.562 Y80.489 E0.01568
G1 X118.752 Y80.143 E0.01230
G1 X118.946 Y79.673 E0.01587
G1 X119.094 Y79.077 E0.01915
G1 X119.144 Y78.682 E0.01243
G1 X119.149 Y78.170 E0.01596
G1 X119.062 Y77.564 E0.01909
G1 X118.963 Y77.179 E0.01240
G1 X118.778 Y76.707 E0.01580
G1 X118.534 Y76.263 E0.01582
G1 X118.300 Y75.942 E0.01238
G1 X117.891 Y75.488 E0.01906
G1 X117.494 Y75.163 E0.01601
G1 X117.158 Y74.950 E0.01242
G1 X116.606 Y74.682 E0.01913
G1 X116.119 Y74.530 E0.01591
G1 X115.727 Y74.455 E0.01245
G1 X115.118 Y74.416 E0.01901
G1 X114.719 Y74.441 E0.01247
G1 X114.224 Y74.529 E0.01569
G1 X113.739 Y74.680 E0.01584
G1 X113.278 Y74.892 E0.01584
G1 X112.841 Y75.165 E0.01607
G1 X112.376 Y75.563 E0.01908
G1 X112.104 Y75.853 E0.01240
G1 X111.806 Y76.262 E0.01581
G1 X111.561 Y76.707 E0.01582
G1 X111.415 Y77.076 E0.01239
G1 X111.252 Y77.665 E0.01907
G1 X111.191 Y78.174 E0.01600
G1 X111.191 Y78.573 E0.01242
G1 X111.262 Y79.182 E0.01913
G1 X111.394 Y79.674 E0.01590
G1 X111.541 Y80.046 E0.01246
G1 X111.835 Y80.580 E0.01901
G1 X112.069 Y80.903 E0.01246
G1 X112.413 Y81.279 E0.01589
G1 X112.890 Y81.666 E0.01914
G1 X113.226 Y81.879 E0.01243
G1 X113.688 Y82.101 E0.01599
G1 X114.273 Y82.279 E0.01908
G1 X114.664 Y82.353 E0.01239
G1 X115.110 Y82.382 E0.01394
G1 X115.136 Y81.973 F18000.000
; custom gcode: feature_gcode
;ExternalPerimeter                   ;  ExternalPerimeter
M204 P750 T5000
; custom gcode end: feature_gcode

;TYPE:External perimeter
G1 F1800.000
G1 X115.624 Y81.947 E0.01525
G1 X115.967 Y81.881 E0.01091
G1 X116.502 Y81.718 E0.01743
G1 X116.914 Y81.521 E0.01426
G1 X117.210 Y81.333 E0.01092
G1 X117.644 Y80.980 E0.01745
G1 X117.953 Y80.643 E0.01428
G1 X118.214 Y80.272 E0.01415
G1 X118.382 Y79.966 E0.01088
G1 X118.556 Y79.545 E0.01422
G1 X118.692 Y79.002 E0.01746
G1 X118.735 Y78.654 E0.01092
G1 X118.739 Y78.197 E0.01425
G1 X118.660 Y77.644 E0.01743
G1 X118.573 Y77.305 E0.01091
G1 X118.407 Y76.882 E0.01420
G1 X118.187 Y76.483 E0.01420
G1 X117.982 Y76.200 E0.01090
G1 X117.608 Y75.785 E0.01742
G1 X117.254 Y75.495 E0.01427
G1 X116.958 Y75.308 E0.01092
G1 X116.455 Y75.064 E0.01745
G1 X116.019 Y74.928 E0.01424
G1 X115.675 Y74.862 E0.01093
G1 X115.118 Y74.826 E0.01741
G1 X114.768 Y74.848 E0.01093
G1 X114.321 Y74.927 E0.01416
G1 X113.886 Y75.063 E0.01421
G1 X113.472 Y75.253 E0.01421
