G10 P0 R265 S265 ; sets the standby temperature
; generated by SuperSlicer 2.3.55 on 2024-02-24 at 07:28:15 UTC

; TODO: check the size of the extruder and the y-bar clearance. Optimize & test supports.

; external perimeters extrusion width = 0.39mm
; perimeters extrusion width = 0.60mm
; infill extrusion width = 0.60mm
; solid infill extrusion width = 0.60mm
; top infill extrusion width = 0.32mm
; support material extrusion width = 0.40mm
; first layer extrusion width = 0.45mm

; object:{"name":"Monitorstand v1","id":"Monitorstand v1.stl id:0 copy 0","object_center":[129.359788,125.000000,0.000000],"boundingbox_center":[129.359788,125.000000,3.596024],"boundingbox_size":[8.219578,40.000000,7.192047]}
; object:{"name":"Monitorstand v1","id":"Monitorstand v1.stl id:1 copy 0","object_center":[120.640212,125.000000,0.000000],"boundingbox_center":[120.640212,125.000000,3.596024],"boundingbox_size":[8.219578,40.000000,7.192047]}
; plater:{"center":[125.000000,125.000000,0.000000],"boundingbox_center":[125.000000,125.000000,3.596024],"boundingbox_size":[16.939154,40.000000,7.192047]}

;TYPE:Custom
; custom gcode: start_gcode
M106 P4 S255
M140 S105 ; set bed final temp
M104 S265 ; set extruder final temp
M190 S105 ; wait for bed final temp
M109 S265 ; wait for extruder final temp
;G29
G28
;M98 P"/macros/nozzle/brush.g"
;PRINT_START

G92 E0 ;Reset Extruder
;;G1 Z2.0 F3000 ;Move Z Axis up


G1 X100 Y4.6 Z0.3 F18000.0 ; Move to side a little

G1 X5 Y4.6 Z0.3 F1500.0 E10 ; Draw the second line

G1 X5 Y4.2 Z0.3 F1500.0 E10 ; Draw the third line

G1 X100 Y4.2 Z0.3 F1500.0 E10 ; Draw the third line


;G92 E0;		Reset extruder
;G1 X1 Y10 F6000;
;G1 Z1.7;
;G1 X1 Y60 E140 F50;
;G1 E-<DESTRING> F1500;
;G1 Z4
;G1 X<NEXTX> Y<NEXTY> F12000;
;G92 E0 ;Reset Extruder

;G1 Z2.0 F3000 ;Move Z Axis up
; custom gcode end: start_gcode
M107
G21 ; set units to millimeters
G90 ; use absolute coordinates
M83 ; use relative distances for extrusion
; custom gcode: start_filament_gcode
; Filament gcode
M572 D0 S0.05
; custom gcode end: start_filament_gcode
;LAYER_CHANGE
;Z:0.2
;HEIGHT:0.2
; custom gcode: before_layer_gcode
;BEFORE_LAYER_CHANGE
;0.2

; custom gcode end: before_layer_gcode

G1 Z0.200000 F18000.000
; custom gcode: layer_gcode
;AFTER_LAYER_CHANGE
;0.2
; custom gcode end: layer_gcode

G1 E-0.80000 F3000.00000
G1 Z1.000000 F18000.000
G1 X112.914 Y102.402
G1 Z0.200000
G1 E0.80000 F2100.00000
; custom gcode: feature_gcode
;Skirt
M204 P2000 T5000
; custom gcode end: feature_gcode

;TYPE:Skirt
G1 F2400.000
G1 X113.436 Y101.857 E0.02304
G1 X115.342 Y100.399 E0.07332
G1 X116.109 Y100.012 E0.02625
G1 X116.932 Y99.745 E0.02643
G1 X118.184 Y99.590 E0.03853
G1 X131.761 Y99.589 E0.41475
G1 X132.951 Y99.718 E0.03658
G1 X134.092 Y100.100 E0.03676
G1 X134.970 Y100.602 E0.03088
G1 X136.418 Y101.726 E0.05601
G1 X137.126 Y102.456 E0.03106
G1 X137.689 Y103.296 E0.03088
G1 X138.093 Y104.229 E0.03106
G1 X138.322 Y105.214 E0.03088
G1 X138.375 Y105.972 E0.02322
G1 X138.392 Y144.021 E1.16234
G1 X138.332 Y144.820 E0.02447
G1 X138.157 Y145.607 E0.02465
G1 X137.885 Y146.330 E0.02358
G1 X137.517 Y147.008 E0.02358
G1 X137.060 Y147.630 E0.02358
G1 X136.521 Y148.183 E0.02358
G1 X134.588 Y149.643 E0.07402
G1 X133.777 Y150.034 E0.02750
G1 X132.919 Y150.288 E0.02732
G1 X131.798 Y150.410 E0.03444
G1 X118.204 Y150.410 E0.41528
G1 X117.417 Y150.349 E0.02411
G1 X116.641 Y150.176 E0.02429
G1 X115.849 Y149.873 E0.02590
G1 X115.107 Y149.451 E0.02607
G1 X113.663 Y148.342 E0.05565
G1 X113.052 Y147.754 E0.02590
G1 X112.520 Y147.056 E0.02679
G1 X112.104 Y146.284 E0.02679
G1 X111.815 Y145.463 E0.02661
G1 X111.656 Y144.601 E0.02679
G1 X111.608 Y105.973 E1.18001
G1 X111.669 Y105.175 E0.02447
G1 X111.843 Y104.393 E0.02447
G1 X112.110 Y103.681 E0.02322
G1 X112.467 Y103.016 E0.02304
G1 X112.879 Y102.450 E0.02139
G1 X112.823 Y103.214 F18000.000
G1 F2400.000
G1 X113.733 Y102.137 E0.04308
G1 X115.568 Y100.738 E0.07048
G1 X116.298 Y100.374 E0.02494
G1 X117.077 Y100.129 E0.02494
G1 X118.200 Y99.997 E0.03454
G1 X131.761 Y99.996 E0.41426
G1 X132.884 Y100.121 E0.03454
G1 X133.950 Y100.482 E0.03436
G1 X134.753 Y100.947 E0.02837
G1 X136.158 Y102.040 E0.05436
G1 X136.816 Y102.719 E0.02888
G1 X137.340 Y103.506 E0.02888
G1 X137.714 Y104.380 E0.02905
G1 X137.923 Y105.302 E0.02888
G1 X137.985 Y144.020 E1.18278
G1 X137.928 Y144.767 E0.02288
G1 X137.763 Y145.503 E0.02305
G1 X137.161 Y146.809 E0.04393
G1 X136.229 Y147.897 E0.04376
G1 X134.374 Y149.296 E0.07098
G1 X133.607 Y149.663 E0.02597
G1 X132.796 Y149.898 E0.02580
G1 X131.795 Y150.003 E0.03077
G1 X118.206 Y150.003 E0.41513
G1 X117.465 Y149.945 E0.02271
G1 X116.745 Y149.783 E0.02253
G1 X116.005 Y149.496 E0.02425
G1 X115.321 Y149.104 E0.02408
G1 X113.924 Y148.029 E0.05385
G1 X113.352 Y147.479 E0.02425
G1 X112.855 Y146.824 E0.02511
G1 X112.470 Y146.104 E0.02494
G1 X112.202 Y145.333 E0.02494
G1 X112.058 Y144.530 E0.02494
G1 X112.015 Y105.974 E1.17782
G1 X112.073 Y105.228 E0.02288
G1 X112.237 Y104.497 E0.02288
G1 X112.799 Y103.269 E0.04125
; printing object Monitorstand v1.stl id:0 copy 0
G1 E-0.08000 F3000.00000
G1 F14400.000
G1 X113.733 Y102.137 E-0.29055
G1 X115.314 Y100.932 E-0.39345
G1 E-0.03600 F3000.00000
G1 Z0.600000 F18000.000
G1 X128.149 Y107.498
G1 Z0.200000
G1 E0.80000 F2100.00000
; custom gcode: feature_gcode
;Perimeter                        ;  Perimeter
M204 P1000 T5000
; custom gcode end: feature_gcode

;TYPE:Perimeter
G1 F2400.000
G1 X130.570 Y107.498 E0.07397
G1 X130.570 Y142.502 E1.06930
G1 X128.149 Y142.502 E0.07397
G1 X128.149 Y107.558 E1.06747
G1 X127.742 Y107.091 F18000.000
G1 F2400.000
G1 X130.978 Y107.091 E0.09884
G1 X130.978 Y142.909 E1.09417
G1 X127.742 Y142.909 E0.09884
G1 X127.742 Y107.151 E1.09234
G1 X127.335 Y106.684 F18000.000
G1 F2400.000
G1 X131.385 Y106.684 E0.12371
G1 X131.385 Y143.316 E1.11904
G1 X127.335 Y143.316 E0.12371
G1 X127.335 Y106.744 E1.11721
G1 X126.926 Y106.275 F18000.000
; custom gcode: feature_gcode
;ExternalPerimeter                   ;  ExternalPerimeter
M204 P750 T5000
; custom gcode end: feature_gcode

;TYPE:External perimeter
G1 F2400.000
G1 X131.794 Y106.275 E0.14871
G1 X131.794 Y143.725 E1.14404
G1 X126.926 Y143.725 E0.14871
G1 X126.926 Y106.335 E1.14221
G1 X127.272 Y106.475 F18000.000
G1 E-0.08000 F3000.00000
G1 F14400.000
G1 X130.381 Y106.292 E-0.68400
G1 E-0.03600 F3000.00000
G1 X130.432 Y142.020 F18000.000
G1 E0.80000 F2100.00000
; custom gcode: feature_gcode
;SolidInfill                      ;  SolidInfill
M204 P2000 T5000
; custom gcode end: feature_gcode

;TYPE:Solid infill
G1 F3600.000
G1 X128.471 Y141.985 E0.05992
G1 X128.471 Y141.578 E0.01244
G1 X130.249 Y141.609 E0.05433
G1 X130.249 Y141.202 E0.01244
G1 X128.471 Y141.171 E0.05433
G1 X128.471 Y140.764 E0.01244
G1 X130.249 Y140.795 E0.05433
G1 X130.249 Y140.388 E0.01244
G1 X128.471 Y140.357 E0.05433
G1 X128.471 Y139.950 E0.01244
G1 X130.249 Y139.981 E0.05433
G1 X130.249 Y139.573 E0.01244
G1 X128.471 Y139.542 E0.05433
G1 X128.471 Y139.135 E0.01244
G1 X130.249 Y139.166 E0.05433
G1 X130.249 Y138.759 E0.01244
G1 X128.471 Y138.728 E0.05433
G1 X128.471 Y138.321 E0.01244
G1 X130.249 Y138.352 E0.05433
G1 X130.249 Y137.945 E0.01244
G1 X128.471 Y137.914 E0.05433
G1 X128.471 Y137.507 E0.01244
G1 X130.249 Y137.538 E0.05433
G1 X130.249 Y137.131 E0.01244
G1 X128.471 Y137.100 E0.05433
G1 X128.471 Y136.692 E0.01244
G1 X130.249 Y136.724 E0.05433
G1 X130.249 Y136.316 E0.01244
G1 X128.471 Y136.285 E0.05433
G1 X128.471 Y135.878 E0.01244
G1 X130.249 Y135.909 E0.05433
G1 X130.249 Y135.502 E0.01244
G1 X128.471 Y135.471 E0.05433
G1 X128.471 Y135.064 E0.01244
G1 X130.249 Y135.095 E0.05433
G1 X130.249 Y134.688 E0.01244
G1 X128.471 Y134.657 E0.05433
G1 X128.471 Y134.250 E0.01244
G1 X130.249 Y134.281 E0.05433
G1 X130.249 Y133.874 E0.01244
G1 X128.471 Y133.842 E0.05433
G1 X128.471 Y133.435 E0.01244
G1 X130.249 Y133.466 E0.05433
G1 X130.249 Y133.059 E0.01244
G1 X128.471 Y133.028 E0.05433
G1 X128.471 Y132.621 E0.01244
G1 X130.249 Y132.652 E0.05433
G1 X130.249 Y132.245 E0.01244
G1 X128.471 Y132.214 E0.05433
G1 X128.471 Y131.807 E0.01244
G1 X130.249 Y131.838 E0.05433
G1 X130.249 Y131.431 E0.01244
G1 X128.471 Y131.400 E0.05433
G1 X128.471 Y130.992 E0.01244
G1 X130.249 Y131.024 E0.05433
G1 X130.249 Y130.616 E0.01244
G1 X128.471 Y130.585 E0.05433
G1 X128.471 Y130.178 E0.01244
G1 X130.249 Y130.209 E0.05433
G1 X130.249 Y129.802 E0.01244
G1 X128.471 Y129.771 E0.05433
G1 X128.471 Y129.364 E0.01244
G1 X130.249 Y129.395 E0.05433
G1 X130.249 Y128.988 E0.01244
G1 X128.471 Y128.957 E0.05433
G1 X128.471 Y128.550 E0.01244
G1 X130.249 Y128.581 E0.05433
G1 X130.249 Y128.174 E0.01244
G1 X128.471 Y128.143 E0.05433
G1 X128.471 Y127.735 E0.01244
G1 X130.249 Y127.766 E0.05433
G1 X130.249 Y127.359 E0.01244
G1 X128.471 Y127.328 E0.05433
G1 X128.471 Y126.921 E0.01244
G1 X130.249 Y126.952 E0.05433
G1 X130.249 Y126.545 E0.01244
G1 X128.471 Y126.514 E0.05433
G1 X128.471 Y126.107 E0.01244
G1 X130.249 Y126.138 E0.05433
G1 X130.249 Y125.731 E0.01244
G1 X128.471 Y125.700 E0.05433
G1 X128.471 Y125.293 E0.01244
G1 X130.249 Y125.324 E0.05433
G1 X130.249 Y124.916 E0.01244
G1 X128.471 Y124.885 E0.05433
G1 X128.471 Y124.478 E0.01244
G1 X130.249 Y124.509 E0.05433
G1 X130.249 Y124.102 E0.01244
G1 X128.471 Y124.071 E0.05433
G1 X128.471 Y123.664 E0.01244
G1 X130.249 Y123.695 E0.05433
G1 X130.249 Y123.288 E0.01244
G1 X128.471 Y123.257 E0.05433
G1 X128.471 Y122.850 E0.01244
G1 X130.249 Y122.881 E0.05433
G1 X130.249 Y122.474 E0.01244
G1 X128.471 Y122.443 E0.05433
G1 X128.471 Y122.035 E0.01244
G1 X130.249 Y122.066 E0.05433
G1 X130.249 Y121.659 E0.01244
G1 X128.471 Y121.628 E0.05433
G1 X128.471 Y121.221 E0.01244
G1 X130.249 Y121.252 E0.05433
G1 X130.249 Y120.845 E0.01244
G1 X128.471 Y120.814 E0.05433
G1 X128.471 Y120.407 E0.01244
G1 X130.249 Y120.438 E0.05433
G1 X130.249 Y120.031 E0.01244
G1 X128.471 Y120.000 E0.05433
G1 X128.471 Y119.593 E0.01244
G1 X130.249 Y119.624 E0.05433
G1 X130.249 Y119.216 E0.01244
G1 X128.471 Y119.185 E0.05433
G1 X128.471 Y118.778 E0.01244
G1 X130.249 Y118.809 E0.05433
G1 X130.249 Y118.402 E0.01244
G1 X128.471 Y118.371 E0.05433
G1 X128.471 Y117.964 E0.01244
G1 X130.249 Y117.995 E0.05433
G1 X130.249 Y117.588 E0.01244
G1 X128.471 Y117.557 E0.05433
G1 X128.471 Y117.150 E0.01244
G1 X130.249 Y117.181 E0.05433
G1 X130.249 Y116.774 E0.01244
G1 X128.471 Y116.743 E0.05433
G1 X128.471 Y116.335 E0.01244
G1 X130.249 Y116.366 E0.05433
G1 X130.249 Y115.959 E0.01244
G1 X128.471 Y115.928 E0.05433
G1 X128.471 Y115.521 E0.01244
G1 X130.249 Y115.552 E0.05433
G1 X130.249 Y115.145 E0.01244
G1 X128.471 Y115.114 E0.05433
G1 X128.471 Y114.707 E0.01244
G1 X130.249 Y114.738 E0.05433
G1 X130.249 Y114.331 E0.01244
G1 X128.471 Y114.300 E0.05433
G1 X128.471 Y113.893 E0.01244
G1 X130.249 Y113.924 E0.05433
G1 X130.249 Y113.516 E0.01244
G1 X128.471 Y113.485 E0.05433
G1 X128.471 Y113.078 E0.01244
G1 X130.249 Y113.109 E0.05433
G1 X130.249 Y112.702 E0.01244
G1 X128.471 Y112.671 E0.05433
G1 X128.471 Y112.264 E0.01244
G1 X130.249 Y112.295 E0.05433
G1 X130.249 Y111.888 E0.01244
G1 X128.471 Y111.857 E0.05433
G1 X128.471 Y111.450 E0.01244
G1 X130.249 Y111.481 E0.05433
G1 X130.249 Y111.074 E0.01244
G1 X128.471 Y111.043 E0.05433
G1 X128.471 Y110.635 E0.01244
G1 X130.249 Y110.666 E0.05433
G1 X130.249 Y110.259 E0.01244
G1 X128.471 Y110.228 E0.05433
G1 X128.471 Y109.821 E0.01244
G1 X130.249 Y109.852 E0.05433
G1 X130.249 Y109.445 E0.01244
G1 X128.471 Y109.414 E0.05433
G1 X128.471 Y109.007 E0.01244
G1 X130.249 Y109.038 E0.05433
G1 X130.249 Y108.631 E0.01244
G1 X128.471 Y108.600 E0.05433
G1 X128.471 Y108.193 E0.01244
G1 X130.432 Y108.227 E0.05992
G1 X130.367 Y107.861 F18000.000
; custom gcode: feature_gcode
;GapFill
M204 P2000 T5000
; custom gcode end: feature_gcode

;TYPE:Gap fill
G1 F2400.000
G1 X129.352 Y107.853 E0.02441
G1 X128.353 Y107.844 E0.02157
G1 E-0.08000 F3000.00000
G1 F14400.000
G1 X129.352 Y107.853 E-0.19785
G1 E-0.52215 F3000.00000
G1 X128.353 Y142.243 F18000.000
G1 E0.80000 F2100.00000
G1 F2400.000
G1 X129.274 Y142.250 E0.00770
; stop printing object Monitorstand v1.stl id:0 copy 0
; printing object Monitorstand v1.stl id:1 copy 0
G1 E-0.08000 F3000.00000
G1 F14400.000
G1 X128.353 Y142.243 E-0.18237
G1 E-0.53763 F3000.00000
G1 Z0.600000 F18000.000
G1 X121.851 Y142.502
G1 Z0.200000
G1 E0.80000 F2100.00000
; custom gcode: feature_gcode
;Perimeter                        ;  Perimeter
M204 P1000 T5000
; custom gcode end: feature_gcode

;TYPE:Perimeter
G1 F2400.000
G1 X119.430 Y142.502 E0.07397
G1 X119.430 Y107.498 E1.06930
G1 X121.851 Y107.498 E0.07397
G1 X121.851 Y142.442 E1.06747
G1 X122.258 Y142.909 F18000.000
G1 F2400.000
G1 X119.022 Y142.909 E0.09884
G1 X119.022 Y107.091 E1.09417
G1 X122.258 Y107.091 E0.09884
G1 X122.258 Y142.849 E1.09234
G1 X122.665 Y143.316 F18000.000
G1 F2400.000
G1 X118.615 Y143.316 E0.12371
G1 X118.615 Y106.684 E1.11904
G1 X122.665 Y106.684 E0.12371
G1 X122.665 Y143.256 E1.11721
G1 X123.074 Y143.725 F18000.000
; custom gcode: feature_gcode
;ExternalPerimeter                   ;  ExternalPerimeter
M204 P750 T5000
; custom gcode end: feature_gcode

;TYPE:External perimeter
G1 F2400.000
G1 X118.206 Y143.725 E0.14871
G1 X118.206 Y106.275 E1.14404
G1 X123.074 Y106.275 E0.14871
G1 X123.074 Y143.665 E1.14221
G1 X122.728 Y143.525 F18000.000
G1 E-0.08000 F3000.00000
G1 F14400.000
G1 X119.619 Y143.708 E-0.68400
G1 E-0.03600 F3000.00000
G1 X121.712 Y108.227 F18000.000
G1 E0.80000 F2100.00000
; custom gcode: feature_gcode
;SolidInfill                      ;  SolidInfill
M204 P2000 T5000
; custom gcode end: feature_gcode

;TYPE:Solid infill
G1 F3600.000
G1 X119.751 Y108.193 E0.05992
G1 X119.751 Y108.600 E0.01244
G1 X121.529 Y108.631 E0.05433
G1 X121.529 Y109.038 E0.01244
G1 X119.751 Y109.007 E0.05433
G1 X119.751 Y109.414 E0.01244
G1 X121.529 Y109.445 E0.05433
G1 X121.529 Y109.852 E0.01244
G1 X119.751 Y109.821 E0.05433
G1 X119.751 Y110.228 E0.01244
G1 X121.529 Y110.259 E0.05433
G1 X121.529 Y110.666 E0.01244
G1 X119.751 Y110.635 E0.05433
G1 X119.751 Y111.043 E0.01244
G1 X121.529 Y111.074 E0.05433
G1 X121.529 Y111.481 E0.01244
G1 X119.751 Y111.450 E0.05433
G1 X119.751 Y111.857 E0.01244
G1 X121.529 Y111.888 E0.05433
G1 X121.529 Y112.295 E0.01244
G1 X119.751 Y112.264 E0.05433
G1 X119.751 Y112.671 E0.01244
G1 X121.529 Y112.702 E0.05433
G1 X121.529 Y113.109 E0.01244
G1 X119.751 Y113.078 E0.05433
G1 X119.751 Y113.485 E0.01244
G1 X121.529 Y113.516 E0.05433
G1 X121.529 Y113.924 E0.01244
G1 X119.751 Y113.893 E0.05433
G1 X119.751 Y114.300 E0.01244
G1 X121.529 Y114.331 E0.05433
G1 X121.529 Y114.738 E0.01244
G1 X119.751 Y114.707 E0.05433
G1 X119.751 Y115.114 E0.01244
G1 X121.529 Y115.145 E0.05433
G1 X121.529 Y115.552 E0.01244
G1 X119.751 Y115.521 E0.05433
G1 X119.751 Y115.928 E0.01244
G1 X121.529 Y115.959 E0.05433
G1 X121.529 Y116.366 E0.01244
G1 X119.751 Y116.335 E0.05433
G1 X119.751 Y116.743 E0.01244
G1 X121.529 Y116.774 E0.05433
G1 X121.529 Y117.181 E0.01244
G1 X119.751 Y117.150 E0.05433
G1 X119.751 Y117.557 E0.01244
G1 X121.529 Y117.588 E0.05433
G1 X121.529 Y117.995 E0.01244
G1 X119.751 Y117.964 E0.05433
G1 X119.751 Y118.371 E0.01244
G1 X121.529 Y118.402 E0.05433
G1 X121.529 Y118.809 E0.01244
G1 X119.751 Y118.778 E0.05433
G1 X119.751 Y119.185 E0.01244
G1 X121.529 Y119.216 E0.05433
G1 X121.529 Y119.624 E0.01244
G1 X119.751 Y119.593 E0.05433
G1 X119.751 Y120.000 E0.01244
G1 X121.529 Y120.031 E0.05433
G1 X121.529 Y120.438 E0.01244
G1 X119.751 Y120.407 E0.05433
G1 X119.751 Y120.814 E0.01244
G1 X121.529 Y120.845 E0.05433
G1 X121.529 Y121.252 E0.01244
G1 X119.751 Y121.221 E0.05433
G1 X119.751 Y121.628 E0.01244
G1 X121.529 Y121.659 E0.05433
G1 X121.529 Y122.066 E0.01244
G1 X119.751 Y122.035 E0.05433
G1 X119.751 Y122.443 E0.01244
G1 X121.529 Y122.474 E0.05433
G1 X121.529 Y122.881 E0.01244
G1 X119.751 Y122.850 E0.05433
G1 X119.751 Y123.257 E0.01244
G1 X121.529 Y123.288 E0.05433
G1 X121.529 Y123.695 E0.01244
G1 X119.751 Y123.664 E0.05433
G1 X119.751 Y124.071 E0.01244
G1 X121.529 Y124.102 E0.05433
G1 X121.529 Y124.509 E0.01244
G1 X119.751 Y124.478 E0.05433
G1 X119.751 Y124.885 E0.01244
