G10 P0 R265 S265 ; sets the standby temperature
; generated by SuperSlicer 2.3.55 on 2024-02-25 at 07:38:35 UTC

; TODO: check the size of the extruder and the y-bar clearance. Optimize & test supports.

; external perimeters extrusion width = 0.39mm
; perimeters extrusion width = 0.60mm
; infill extrusion width = 0.60mm
; solid infill extrusion width = 0.60mm
; top infill extrusion width = 0.32mm
; support material extrusion width = 0.40mm
; first layer extrusion width = 0.45mm

; object:{"name":"Monitorstand v9","id":"Monitorstand v9.stl id:0 copy 0","object_center":[125.000000,125.000000,0.000000],"boundingbox_center":[125.000000,125.000000,12.000000],"boundingbox_size":[211.415821,211.415821,24.000000]}
; plater:{"center":[125.000000,125.000000,0.000000],"boundingbox_center":[125.000000,125.000000,12.000000],"boundingbox_size":[211.415821,211.415821,24.000000]}

;TYPE:Custom
; custom gcode: start_gcode
M106 P4 S255
M140 S106 ; set bed final temp
M104 S265 ; set extruder final temp
M190 S106 ; wait for bed final temp
M109 S265 ; wait for extruder final temp
;G29
G28
;M98 P"/macros/nozzle/brush.g"
;PRINT_START

G92 E0 ;Reset Extruder
;;G1 Z2.0 F3000 ;Move Z Axis up


G1 X100 Y4.6 Z0.3 F18000.0 ; Move to side a little

G1 X5 Y4.6 Z0.3 F1500.0 E10 ; Draw the second line

G1 X5 Y4.2 Z0.3 F1500.0 E10 ; Draw the third line

G1 X100 Y4.2 Z0.3 F1500.0 E10 ; Draw the third line


;G92 E0;		Reset extruder
;G1 X1 Y10 F6000;
;G1 Z1.7;
;G1 X1 Y60 E140 F50;
;G1 E-<DESTRING> F1500;
;G1 Z4
;G1 X<NEXTX> Y<NEXTY> F12000;
;G92 E0 ;Reset Extruder

;G1 Z2.0 F3000 ;Move Z Axis up
; custom gcode end: start_gcode
M107
G21 ; set units to millimeters
G90 ; use absolute coordinates
M83 ; use relative distances for extrusion
; custom gcode: start_filament_gcode
; Filament gcode
M572 D0 S0.05
; custom gcode end: start_filament_gcode
;LAYER_CHANGE
;Z:0.2
;HEIGHT:0.2
; custom gcode: before_layer_gcode
;BEFORE_LAYER_CHANGE
;0.2

; custom gcode end: before_layer_gcode

G1 Z0.200000 F18000.000
; custom gcode: layer_gcode
;AFTER_LAYER_CHANGE
;0.2
; custom gcode end: layer_gcode

G1 E-0.80000 F3000.00000
G1 Z1.000000 F18000.000
G1 X43.756 Y15.183
G1 Z0.200000
G1 E0.80000 F2100.00000
; custom gcode: feature_gcode
;Skirt
M204 P2000 T5000
; custom gcode end: feature_gcode

;TYPE:Skirt
G1 F2400.000
G1 X44.591 Y14.542 E0.03213
G1 X45.524 Y14.070 E0.03195
G1 X46.535 Y13.779 E0.03213
G1 X47.582 Y13.681 E0.03213
G1 X48.669 Y13.789 E0.03338
G1 X49.710 Y14.103 E0.03320
G1 X50.670 Y14.612 E0.03320
G1 X51.519 Y15.300 E0.03338
G1 X234.675 Y198.456 E7.91276
G1 X235.276 Y199.166 E0.02839
G1 X235.746 Y199.954 E0.02803
G1 X236.079 Y200.803 E0.02786
G1 X236.272 Y201.700 E0.02803
G1 X236.315 Y202.611 E0.02786
G1 X236.211 Y203.517 E0.02786
G1 X235.959 Y204.399 E0.02803
G1 X235.570 Y205.224 E0.02786
G1 X235.048 Y205.979 E0.02803
G1 X206.387 Y234.679 E1.23908
G1 X205.682 Y235.276 E0.02821
G1 X204.846 Y235.769 E0.02964
G1 X203.938 Y236.110 E0.02964
G1 X202.985 Y236.290 E0.02964
G1 X202.009 Y236.303 E0.02982
G1 X201.051 Y236.148 E0.02964
G1 X200.134 Y235.830 E0.02964
G1 X199.281 Y235.356 E0.02982
G1 X198.527 Y234.745 E0.02964
G1 X15.325 Y51.544 E7.91473
G1 X14.724 Y50.834 E0.02839
G1 X14.244 Y50.025 E0.02875
G1 X13.906 Y49.147 E0.02875
G1 X13.719 Y48.225 E0.02875
G1 X13.689 Y47.284 E0.02875
G1 X13.817 Y46.352 E0.02875
G1 X14.098 Y45.454 E0.02875
G1 X14.526 Y44.616 E0.02875
G1 X15.088 Y43.861 E0.02875
G1 X43.714 Y15.225 E1.23691
G1 X44.027 Y15.487 F18000.000
G1 F2400.000
G1 X44.802 Y14.890 E0.02991
G1 X45.671 Y14.450 E0.02974
G1 X46.612 Y14.179 E0.02991
G1 X47.581 Y14.089 E0.02974
G1 X48.589 Y14.188 E0.03094
G1 X49.553 Y14.479 E0.03077
G1 X50.448 Y14.953 E0.03094
G1 X51.234 Y15.591 E0.03094
G1 X234.387 Y198.744 E7.91261
G1 X234.941 Y199.397 E0.02614
G1 X235.379 Y200.131 E0.02614
G1 X235.692 Y200.928 E0.02614
G1 X235.869 Y201.759 E0.02597
G1 X235.908 Y202.614 E0.02614
G1 X235.808 Y203.458 E0.02597
G1 X235.569 Y204.280 E0.02614
G1 X235.199 Y205.052 E0.02614
G1 X234.711 Y205.748 E0.02597
G1 X206.099 Y234.391 E1.23679
G1 X205.450 Y234.941 E0.02597
G1 X204.670 Y235.402 E0.02768
G1 X203.827 Y235.719 E0.02751
G1 X202.937 Y235.886 E0.02768
G1 X202.036 Y235.897 E0.02751
G1 X201.142 Y235.751 E0.02768
G1 X200.291 Y235.455 E0.02751
G1 X199.505 Y235.016 E0.02751
G1 X198.802 Y234.444 E0.02768
G1 X15.613 Y51.256 E7.91416
G1 X15.059 Y50.603 E0.02614
G1 X14.611 Y49.848 E0.02682
G1 X14.297 Y49.034 E0.02665
G1 X14.123 Y48.173 E0.02682
G1 X14.096 Y47.301 E0.02665
G1 X14.215 Y46.437 E0.02665
G1 X14.479 Y45.600 E0.02682
G1 X14.880 Y44.818 E0.02682
G1 X15.406 Y44.116 E0.02682
G1 X43.984 Y15.530 E1.23480
G1 E-0.08000 F3000.00000
G1 F14400.000
G1 X44.802 Y14.890 E-0.20557
G1 X45.671 Y14.450 E-0.19268
G1 X46.612 Y14.179 E-0.19379
G1 X47.074 Y14.136 E-0.09196
G1 E-0.03600 F3000.00000
G1 Z0.600000 F18000.000
G1 X37.403 Y9.331
G1 Z0.200000
G1 E0.80000 F2100.00000
G1 F2400.000
G1 X40.383 Y7.044 E0.11474
G1 X43.853 Y5.607 E0.11474
G1 X47.576 Y5.117 E0.11474
G1 X51.300 Y5.607 E0.11474
G1 X54.770 Y7.044 E0.11474
G1 X57.750 Y9.331 E0.11474
G1 X60.036 Y12.310 E0.11474
G1 X61.474 Y15.780 E0.11474
G1 X61.964 Y19.504 E0.11474
G1 X61.474 Y23.228 E0.11474
G1 X60.036 Y26.698 E0.11474
G1 X57.875 Y29.515 E0.10847
G1 X47.576 Y19.216 E0.44492
G1 X37.278 Y29.515 E0.44492
G1 X35.116 Y26.698 E0.10847
G1 X33.679 Y23.228 E0.11474
G1 X33.189 Y19.504 E0.11474
G1 X33.679 Y15.780 E0.11474
G1 X35.116 Y12.310 E0.11474
G1 X37.366 Y9.378 E0.11291
G1 E-0.08000 F3000.00000
G1 F14400.000
G1 X40.099 Y7.263 E-0.68400
G1 E-0.03600 F3000.00000
G1 X47.209 Y19.555 F18000.000
G1 E0.80000 F2100.00000
G1 F2400.000
G1 X33.401 Y19.555 E0.42183
G1 X33.454 Y19.962 E0.01254
G1 X46.543 Y19.962 E0.39984
G1 X46.136 Y20.369 E0.01759
G1 X33.508 Y20.369 E0.38577
G1 X33.561 Y20.776 E0.01254
G1 X45.729 Y20.776 E0.37170
G1 X45.322 Y21.183 E0.01759
G1 X33.615 Y21.183 E0.35762
G1 X33.669 Y21.590 E0.01254
G1 X44.915 Y21.590 E0.34355
G1 X44.508 Y21.997 E0.01759
G1 X33.722 Y21.997 E0.32948
G1 X33.776 Y22.404 E0.01254
G1 X44.101 Y22.404 E0.31541
G1 X43.693 Y22.811 E0.01759
G1 X33.829 Y22.811 E0.30133
G1 X33.895 Y23.218 E0.01260
G1 X43.286 Y23.218 E0.28688
G1 X42.879 Y23.626 E0.01759
G1 X34.064 Y23.626 E0.26930
G1 X34.233 Y24.033 E0.01346
G1 X42.472 Y24.033 E0.25171
G1 X42.065 Y24.440 E0.01759
G1 X34.401 Y24.440 E0.23412
G1 X34.570 Y24.847 E0.01346
G1 X41.658 Y24.847 E0.21654
G1 X41.251 Y25.254 E0.01759
G1 X34.738 Y25.254 E0.19895
G1 X34.907 Y25.661 E0.01346
G1 X40.844 Y25.661 E0.18136
G1 X40.437 Y26.068 E0.01759
G1 X35.076 Y26.068 E0.16378
G1 X35.244 Y26.475 E0.01346
G1 X40.030 Y26.475 E0.14619
G1 X39.623 Y26.882 E0.01759
G1 X35.514 Y26.882 E0.12551
G1 X35.827 Y27.289 E0.01567
G1 X39.216 Y27.289 E0.10353
G1 X38.809 Y27.696 E0.01759
G1 X36.139 Y27.696 E0.08155
G1 X36.451 Y28.103 E0.01567
G1 X38.401 Y28.103 E0.05958
G1 X37.994 Y28.510 E0.01759
G1 X36.764 Y28.510 E0.03760
G1 X37.076 Y28.918 E0.01567
G1 X37.846 Y28.918 E0.02353
G1 E-0.08000 F3000.00000
G1 F14400.000
G1 X37.076 Y28.918 E-0.15248
G1 X36.764 Y28.510 E-0.10155
G1 X37.994 Y28.510 E-0.24359
G1 X38.401 Y28.103 E-0.11394
G1 X38.035 Y28.103 E-0.07244
G1 E-0.03600 F3000.00000
G1 X58.308 Y28.918 F18000.000
G1 E0.80000 F2100.00000
G1 F2400.000
G1 X57.565 Y28.918 E0.02267
G1 X57.158 Y28.510 E0.01759
G1 X58.389 Y28.510 E0.03760
G1 X58.701 Y28.103 E0.01567
G1 X56.751 Y28.103 E0.05958
G1 X56.344 Y27.696 E0.01759
G1 X59.014 Y27.696 E0.08155
G1 X59.326 Y27.289 E0.01567
G1 X55.937 Y27.289 E0.10353
G1 X55.530 Y26.882 E0.01759
G1 X59.639 Y26.882 E0.12551
G1 X59.908 Y26.475 E0.01492
G1 X55.123 Y26.475 E0.14619
G1 X54.716 Y26.068 E0.01759
G1 X60.077 Y26.068 E0.16378
G1 X60.246 Y25.661 E0.01346
G1 X54.309 Y25.661 E0.18136
G1 X53.902 Y25.254 E0.01759
G1 X60.414 Y25.254 E0.19895
G1 X60.583 Y24.847 E0.01346
G1 X53.495 Y24.847 E0.21654
G1 X53.088 Y24.440 E0.01759
G1 X60.752 Y24.440 E0.23412
G1 X60.920 Y24.033 E0.01346
G1 X52.680 Y24.033 E0.25171
G1 X52.273 Y23.626 E0.01759
G1 X61.089 Y23.626 E0.26930
G1 X61.257 Y23.218 E0.01346
G1 X51.866 Y23.218 E0.28688
G1 X51.459 Y22.811 E0.01759
G1 X61.323 Y22.811 E0.30133
G1 X61.377 Y22.404 E0.01254
G1 X51.052 Y22.404 E0.31541
G1 X50.645 Y21.997 E0.01759
G1 X61.430 Y21.997 E0.32948
G1 X61.484 Y21.590 E0.01254
G1 X50.238 Y21.590 E0.34355
G1 X49.831 Y21.183 E0.01759
G1 X61.538 Y21.183 E0.35762
G1 X61.591 Y20.776 E0.01254
G1 X49.424 Y20.776 E0.37170
G1 X49.017 Y20.369 E0.01759
G1 X61.645 Y20.369 E0.38577
G1 X61.698 Y19.962 E0.01254
G1 X48.610 Y19.962 E0.39984
G1 X48.203 Y19.555 E0.01759
G1 X61.752 Y19.555 E0.41392
G1 X61.712 Y19.148 E0.01250
G1 X33.441 Y19.148 E0.86363
G1 X33.495 Y18.741 E0.01254
G1 X61.658 Y18.741 E0.86036
G1 X61.605 Y18.334 E0.01254
G1 X33.548 Y18.334 E0.85708
G1 X33.602 Y17.926 E0.01254
G1 X61.551 Y17.926 E0.85381
G1 X61.497 Y17.519 E0.01254
G1 X33.655 Y17.519 E0.85053
G1 X33.709 Y17.112 E0.01254
G1 X61.444 Y17.112 E0.84726
G1 X61.390 Y16.705 E0.01254
G1 X33.763 Y16.705 E0.84398
G1 X33.816 Y16.298 E0.01254
G1 X61.337 Y16.298 E0.84071
G1 X61.283 Y15.891 E0.01254
G1 X33.870 Y15.891 E0.83744
G1 X34.022 Y15.484 E0.01328
G1 X61.131 Y15.484 E0.82813
G1 X60.962 Y15.077 E0.01346
G1 X34.191 Y15.077 E0.81782
G1 X34.359 Y14.670 E0.01346
G1 X60.793 Y14.670 E0.80752
G1 X60.625 Y14.263 E0.01346
G1 X34.528 Y14.263 E0.79722
G1 X34.697 Y13.856 E0.01346
G1 X60.456 Y13.856 E0.78692
G1 X60.288 Y13.449 E0.01346
G1 X34.865 Y13.449 E0.77662
G1 X35.034 Y13.041 E0.01346
G1 X60.119 Y13.041 E0.76631
G1 X59.950 Y12.634 E0.01346
G1 X35.202 Y12.634 E0.75601
G1 X35.437 Y12.227 E0.01435
G1 X59.716 Y12.227 E0.74170
G1 X59.404 Y11.820 E0.01567
G1 X35.749 Y11.820 E0.72262
G1 X36.061 Y11.413 E0.01567
G1 X59.091 Y11.413 E0.70353
G1 X58.779 Y11.006 E0.01567
G1 X36.374 Y11.006 E0.68445
G1 X36.686 Y10.599 E0.01567
G1 X58.467 Y10.599 E0.66537
G1 X58.154 Y10.192 E0.01567
G1 X36.998 Y10.192 E0.64628
G1 X37.311 Y9.785 E0.01567
G1 X57.842 Y9.785 E0.62720
G1 X57.477 Y9.378 E0.01670
G1 X37.676 Y9.378 E0.60490
G1 X38.206 Y8.971 E0.02043
G1 X56.947 Y8.971 E0.57249
G1 X56.416 Y8.564 E0.02043
G1 X38.737 Y8.564 E0.54008
G1 X39.267 Y8.157 E0.02043
G1 X55.885 Y8.157 E0.50766
G1 X55.355 Y7.749 E0.02043
G1 X39.798 Y7.749 E0.47525
G1 X40.328 Y7.342 E0.02043
G1 X54.824 Y7.342 E0.44284
G1 X54.668 Y7.222 E0.00604
G1 X53.975 Y6.935 E0.02288
G1 X41.177 Y6.935 E0.39097
G1 X42.160 Y6.528 E0.03250
G1 X52.993 Y6.528 E0.33092
G1 X52.010 Y6.121 E0.03250
G1 X43.143 Y6.121 E0.27088
G1 X43.906 Y5.805 E0.02523
G1 X44.598 Y5.714 E0.02132
G1 X51.506 Y5.714 E0.21104
G1 E-0.08000 F3000.00000
G1 F14400.000
G1 X48.050 Y5.714 E-0.68400
G1 E-0.03600 F3000.00000
G1 X12.310 Y35.116 F18000.000
G1 E0.80000 F2100.00000
G1 F2400.000
G1 X15.780 Y33.679 E0.11474
G1 X19.504 Y33.189 E0.11474
G1 X23.228 Y33.679 E0.11474
G1 X26.698 Y35.116 E0.11474
G1 X29.515 Y37.278 E0.10847
G1 X19.216 Y47.576 E0.44492
G1 X29.515 Y57.875 E0.44492
G1 X26.698 Y60.036 E0.10847
G1 X23.228 Y61.474 E0.11474
G1 X19.504 Y61.964 E0.11474
G1 X15.780 Y61.474 E0.11474
G1 X12.310 Y60.036 E0.11474
G1 X9.331 Y57.750 E0.11474
G1 X7.044 Y54.770 E0.11474
G1 X5.607 Y51.300 E0.11474
G1 X5.117 Y47.576 E0.11474
G1 X5.607 Y43.853 E0.11474
G1 X7.044 Y40.383 E0.11474
G1 X9.331 Y37.403 E0.11474
G1 X12.263 Y35.153 E0.11291
G1 E-0.08000 F3000.00000
G1 F14400.000
G1 X15.450 Y33.817 E-0.68400
G1 E-0.03600 F3000.00000
G1 X21.956 Y61.621 F18000.000
G1 E0.80000 F2100.00000
G1 F2400.000
G1 X18.456 Y61.621 E0.10694
G1 X15.834 Y61.275 E0.08079
G1 X15.684 Y61.214 E0.00494
G1 X23.324 Y61.214 E0.23339
G1 X24.307 Y60.806 E0.03250
G1 X14.701 Y60.806 E0.29344
G1 X13.719 Y60.399 E0.03250
G1 X25.290 Y60.399 E0.35348
G1 X26.273 Y59.992 E0.03250
G1 X12.736 Y59.992 E0.41353
G1 X12.413 Y59.859 E0.01067
G1 X12.057 Y59.585 E0.01372
G1 X26.952 Y59.585 E0.45502
G1 X27.482 Y59.178 E0.02043
G1 X11.526 Y59.178 E0.48743
G1 X10.996 Y58.771 E0.02043
G1 X28.013 Y58.771 E0.51984
G1 X28.543 Y58.364 E0.02043
G1 X10.465 Y58.364 E0.55226
G1 X9.935 Y57.957 E0.02043
G1 X29.074 Y57.957 E0.58467
G1 X29.207 Y57.855 E0.00513
G1 X28.902 Y57.550 E0.01317
G1 X9.434 Y57.550 E0.59473
G1 X9.121 Y57.143 E0.01567
G1 X28.495 Y57.143 E0.59184
G1 X28.088 Y56.736 E0.01759
G1 X8.809 Y56.736 E0.58894
G1 X8.497 Y56.329 E0.01567
G1 X27.681 Y56.329 E0.58605
G1 X27.274 Y55.922 E0.01759
G1 X8.184 Y55.922 E0.58316
G1 X7.872 Y55.514 E0.01567
G1 X26.867 Y55.514 E0.58026
G1 X26.460 Y55.107 E0.01759
G1 X7.559 Y55.107 E0.57737
G1 X7.247 Y54.700 E0.01567
G1 X26.052 Y54.700 E0.57448
G1 X25.645 Y54.293 E0.01759
G1 X7.067 Y54.293 E0.56754
G1 X6.898 Y53.886 E0.01346
G1 X25.238 Y53.886 E0.56026
G1 X24.831 Y53.479 E0.01759
G1 X6.730 Y53.479 E0.55298
G1 X6.561 Y53.072 E0.01346
G1 X24.424 Y53.072 E0.54569
G1 X24.017 Y52.665 E0.01759
G1 X6.392 Y52.665 E0.53841
G1 X6.224 Y52.258 E0.01346
G1 X23.610 Y52.258 E0.53112
G1 X23.203 Y51.851 E0.01759
G1 X6.055 Y51.851 E0.52384
G1 X5.887 Y51.444 E0.01346
G1 X22.796 Y51.444 E0.51655
G1 X22.389 Y51.037 E0.01759
G1 X5.777 Y51.037 E0.50745
G1 X5.724 Y50.630 E0.01254
G1 X21.982 Y50.630 E0.49665
G1 X21.575 Y50.222 E0.01759
G1 X5.670 Y50.222 E0.48585
G1 X5.617 Y49.815 E0.01254
G1 X21.167 Y49.815 E0.47506
G1 X20.760 Y49.408 E0.01759
G1 X5.563 Y49.408 E0.46426
G1 X5.509 Y49.001 E0.01254
G1 X20.353 Y49.001 E0.45346
G1 X19.946 Y48.594 E0.01759
G1 X5.456 Y48.594 E0.44266
G1 X5.402 Y48.187 E0.01254
G1 X19.539 Y48.187 E0.43186
G1 X19.132 Y47.780 E0.01759
G1 X5.349 Y47.780 E0.42106
G1 X5.322 Y47.576 E0.00627
G1 X5.349 Y47.373 E0.00627
G1 X19.132 Y47.373 E0.42106
G1 X19.539 Y46.966 E0.01759
G1 X5.402 Y46.966 E0.43186
G1 X5.456 Y46.559 E0.01254
G1 X19.946 Y46.559 E0.44266
G1 X20.353 Y46.152 E0.01759
G1 X5.509 Y46.152 E0.45346
G1 X5.563 Y45.745 E0.01254
G1 X20.760 Y45.745 E0.46425
G1 X21.167 Y45.337 E0.01759
G1 X5.617 Y45.337 E0.47505
G1 X5.670 Y44.930 E0.01254
G1 X21.574 Y44.930 E0.48585
G1 X21.982 Y44.523 E0.01759
G1 X5.724 Y44.523 E0.49665
G1 X5.777 Y44.116 E0.01254
G1 X22.389 Y44.116 E0.50745
G1 X22.796 Y43.709 E0.01759
G1 X5.887 Y43.709 E0.51655
G1 X6.055 Y43.302 E0.01346
G1 X23.203 Y43.302 E0.52383
G1 X23.610 Y42.895 E0.01759
G1 X6.224 Y42.895 E0.53112
G1 X6.392 Y42.488 E0.01346
G1 X24.017 Y42.488 E0.53840
G1 X24.424 Y42.081 E0.01759
G1 X6.561 Y42.081 E0.54569
G1 X6.730 Y41.674 E0.01346
G1 X24.831 Y41.674 E0.55297
G1 X25.238 Y41.267 E0.01759
G1 X6.898 Y41.267 E0.56026
G1 X7.067 Y40.860 E0.01346
G1 X25.645 Y40.860 E0.56754
G1 X26.052 Y40.453 E0.01759
G1 X7.247 Y40.453 E0.57448
G1 X7.559 Y40.045 E0.01567
G1 X26.459 Y40.045 E0.57737
G1 X26.867 Y39.638 E0.01759
G1 X7.872 Y39.638 E0.58026
G1 X8.184 Y39.231 E0.01567
G1 X27.274 Y39.231 E0.58316
G1 X27.681 Y38.824 E0.01759
G1 X8.496 Y38.824 E0.58605
G1 X8.809 Y38.417 E0.01567
G1 X28.088 Y38.417 E0.58894
G1 X28.495 Y38.010 E0.01759
G1 X9.121 Y38.010 E0.59184
G1 X9.434 Y37.603 E0.01567
G1 X28.902 Y37.603 E0.59473
G1 X29.207 Y37.298 E0.01318
G1 X29.074 Y37.196 E0.00512
G1 X9.935 Y37.196 E0.58468
G1 X10.465 Y36.789 E0.02043
G1 X28.543 Y36.789 E0.55226
G1 X28.013 Y36.382 E0.02043
G1 X10.996 Y36.382 E0.51985
G1 X11.526 Y35.975 E0.02043
G1 X27.482 Y35.975 E0.48744
G1 X26.952 Y35.568 E0.02043
G1 X12.057 Y35.568 E0.45502
G1 X12.413 Y35.294 E0.01372
G1 X12.736 Y35.160 E0.01067
G1 X26.273 Y35.160 E0.41354
G1 X25.290 Y34.753 E0.03250
G1 X13.718 Y34.753 E0.35350
G1 X14.701 Y34.346 E0.03250
G1 X24.307 Y34.346 E0.29345
G1 X23.325 Y33.939 E0.03250
G1 X15.684 Y33.939 E0.23341
G1 X15.834 Y33.877 E0.00495
G1 X18.455 Y33.532 E0.08077
G1 X21.957 Y33.532 E0.10699
G1 E-0.08000 F3000.00000
G1 F14400.000
G1 X18.501 Y33.532 E-0.68400
G1 E-0.03600 F3000.00000
G1 X220.485 Y192.125 F18000.000
G1 E0.80000 F2100.00000
G1 F2400.000
G1 X223.302 Y189.964 E0.10847
G1 X226.772 Y188.526 E0.11474
G1 X230.496 Y188.036 E0.11474
G1 X234.220 Y188.526 E0.11474
G1 X237.690 Y189.964 E0.11474
G1 X240.669 Y192.250 E0.11474
G1 X242.956 Y195.230 E0.11474
G1 X244.393 Y198.700 E0.11474
G1 X244.883 Y202.424 E0.11474
G1 X244.393 Y206.147 E0.11474
G1 X242.956 Y209.617 E0.11474
G1 X240.669 Y212.597 E0.11474
G1 X237.690 Y214.884 E0.11474
G1 X234.220 Y216.321 E0.11474
G1 X230.496 Y216.811 E0.11474
G1 X226.772 Y216.321 E0.11474
