G10 P0 R225 S225 ; sets the standby temperature
; generated by SuperSlicer 2.3.55 on 2023-05-21 at 11:01:11 UTC

; TODO: check the size of the extruder and the y-bar clearance. Optimize & test supports.

; external perimeters extrusion width = 0.39mm
; perimeters extrusion width = 0.60mm
; infill extrusion width = 0.60mm
; solid infill extrusion width = 0.60mm
; top infill extrusion width = 0.32mm
; support material extrusion width = 0.40mm
; first layer extrusion width = 0.45mm

; object:{"name":"nozzle_probe_ldo (2)","id":"nozzle_probe_ldo (2).stl id:0 copy 0","object_center":[125.000002,124.993444,0.000000],"boundingbox_center":[125.000002,124.993444,7.650000],"boundingbox_size":[35.009086,20.815296,15.299999]}
; plater:{"center":[125.000002,124.993444,0.000000],"boundingbox_center":[125.000002,124.993444,7.650000],"boundingbox_size":[35.009086,20.815296,15.299999]}

;TYPE:Custom
; custom gcode: start_gcode
M106 P4 S255
M140 S105 ; set bed final temp
M104 S235 ; set extruder final temp
M190 S105 ; wait for bed final temp
M109 S235 ; wait for extruder final temp
;G29
G28
;M98 P"/macros/nozzle/brush.g"
;PRINT_START

G92 E0 ;Reset Extruder
;;G1 Z2.0 F3000 ;Move Z Axis up


G1 X100 Y4.6 Z0.3 F18000.0 ; Move to side a little

G1 X5 Y4.6 Z0.3 F1500.0 E10 ; Draw the second line

G1 X5 Y4.2 Z0.3 F1500.0 E10 ; Draw the third line

G1 X100 Y4.2 Z0.3 F1500.0 E10 ; Draw the third line


;G92 E0;		Reset extruder
;G1 X1 Y10 F6000;
;G1 Z1.7;
;G1 X1 Y60 E140 F50;
;G1 E-<DESTRING> F1500;
;G1 Z4
;G1 X<NEXTX> Y<NEXTY> F12000;
;G92 E0 ;Reset Extruder

;G1 Z2.0 F3000 ;Move Z Axis up
; custom gcode end: start_gcode
M107
G21 ; set units to millimeters
G90 ; use absolute coordinates
M83 ; use relative distances for extrusion
; custom gcode: start_filament_gcode
; Filament gcode
M572 D0 S0.05
; custom gcode end: start_filament_gcode
;LAYER_CHANGE
;Z:0.2
;HEIGHT:0.2
; custom gcode: before_layer_gcode
;BEFORE_LAYER_CHANGE
;0.2

; custom gcode end: before_layer_gcode

G1 Z0.200000 F18000.000
; custom gcode: layer_gcode
;AFTER_LAYER_CHANGE
;0.2
; custom gcode end: layer_gcode

G1 E-0.80000 F3000.00000
G1 Z1.000000 F18000.000
G1 X104.928 Y111.564
G1 Z0.200000
G1 E0.80000 F2100.00000
; custom gcode: feature_gcode
;Skirt
M204 P2000 T5000
; custom gcode end: feature_gcode

;TYPE:Skirt
G1 F2400.000
G1 X105.941 Y110.871 E0.03787
G1 X107.347 Y110.228 E0.04774
G1 X108.613 Y109.898 E0.04039
G1 X109.723 Y109.783 E0.03446
G1 X140.007 Y109.789 E0.93485
G1 X141.297 Y109.894 E0.03996
G1 X142.656 Y110.240 E0.04328
G1 X144.139 Y110.926 E0.05045
G1 X145.275 Y111.737 E0.04309
G1 X146.201 Y112.670 E0.04058
G1 X146.999 Y113.802 E0.04274
G1 X147.680 Y115.293 E0.05063
G1 X148.008 Y116.596 E0.04148
G1 X148.114 Y117.895 E0.04022
G1 X148.107 Y132.927 E0.46404
G1 X148.035 Y133.980 E0.03258
G1 X147.696 Y135.442 E0.04634
G1 X146.982 Y137.015 E0.05332
G1 X146.129 Y138.208 E0.04526
G1 X145.072 Y139.223 E0.04526
G1 X144.059 Y139.915 E0.03787
G1 X142.653 Y140.559 E0.04774
G1 X141.381 Y140.890 E0.04057
G1 X140.276 Y141.004 E0.03428
G1 X109.823 Y140.995 E0.94009
G1 X108.870 Y140.919 E0.02951
G1 X107.982 Y140.741 E0.02797
G1 X106.478 Y140.194 E0.04940
G1 X105.626 Y139.719 E0.03013
G1 X104.865 Y139.165 E0.02905
G1 X103.673 Y137.962 E0.05227
G1 X103.080 Y137.122 E0.03175
G1 X102.532 Y136.057 E0.03698
G1 X102.164 Y134.991 E0.03481
G1 X101.932 Y133.726 E0.03968
G1 X101.899 Y117.620 E0.49720
G1 X101.977 Y116.720 E0.02788
G1 X102.159 Y115.833 E0.02797
G1 X102.712 Y114.337 E0.04921
G1 X103.177 Y113.506 E0.02941
G1 X103.732 Y112.746 E0.02905
G1 X104.885 Y111.606 E0.05005
G1 X105.210 Y111.860 F18000.000
G1 F2400.000
G1 X106.151 Y111.220 E0.03513
G1 X107.505 Y110.604 E0.04590
G1 X108.705 Y110.295 E0.03825
G1 X109.753 Y110.189 E0.03254
G1 X140.006 Y110.196 E0.93391
G1 X141.231 Y110.296 E0.03793
G1 X142.519 Y110.623 E0.04103
G1 X143.940 Y111.281 E0.04833
G1 X145.021 Y112.055 E0.04103
G1 X145.893 Y112.935 E0.03826
G1 X146.648 Y114.009 E0.04052
G1 X147.300 Y115.439 E0.04850
G1 X147.611 Y116.690 E0.03982
G1 X147.707 Y117.892 E0.03722
G1 X147.700 Y132.926 E0.46409
G1 X147.633 Y133.911 E0.03047
G1 X147.311 Y135.310 E0.04432
G1 X146.627 Y136.817 E0.05110
G1 X145.809 Y137.956 E0.04329
G1 X144.789 Y138.927 E0.04346
G1 X143.848 Y139.567 E0.03513
G1 X142.495 Y140.183 E0.04590
G1 X141.295 Y140.492 E0.03825
G1 X140.241 Y140.598 E0.03271
G1 X109.835 Y140.588 E0.93861
G1 X108.930 Y140.516 E0.02804
G1 X108.078 Y140.346 E0.02681
G1 X106.645 Y139.822 E0.04710
G1 X105.838 Y139.372 E0.02854
G1 X105.105 Y138.836 E0.02802
G1 X103.970 Y137.680 E0.05003
G1 X103.422 Y136.900 E0.02941
G1 X102.903 Y135.887 E0.03514
G1 X102.556 Y134.880 E0.03288
G1 X102.336 Y133.672 E0.03791
G1 X102.306 Y117.636 E0.49503
G1 X102.379 Y116.781 E0.02647
G1 X102.554 Y115.930 E0.02681
G1 X103.080 Y114.511 E0.04675
G1 X103.525 Y113.719 E0.02802
G1 X104.057 Y112.991 E0.02785
G1 X105.168 Y111.902 E0.04801
; printing object nozzle_probe_ldo (2).stl id:0 copy 0
G1 E-0.08000 F3000.00000
G1 F14400.000
G1 X106.151 Y111.220 E-0.23692
G1 X107.505 Y110.604 E-0.29429
G1 X108.252 Y110.411 E-0.15279
G1 E-0.03600 F3000.00000
G1 Z0.600000 F18000.000
G1 X134.566 Y123.645
G1 Z0.200000
G1 E0.80000 F2100.00000
; custom gcode: feature_gcode
;Perimeter                        ;  Perimeter
M204 P1000 T5000
; custom gcode end: feature_gcode

;TYPE:Perimeter
G1 F2400.000
G1 X134.473 Y123.478 E0.00589
G1 X134.412 Y123.238 E0.00763
G1 X134.178 Y122.582 E0.02153
G1 X134.153 Y122.377 E0.00636
G1 X133.872 Y121.791 E0.02006
G1 X133.637 Y121.375 E0.01474
G1 X133.503 Y121.250 E0.00567
G1 X133.183 Y120.772 E0.01776
G1 X132.950 Y120.485 E0.01141
G1 X132.866 Y120.304 E0.00615
G1 X132.173 Y119.599 E0.03052
G1 X131.949 Y119.477 E0.00787
G1 X131.622 Y119.211 E0.01303
G1 X131.149 Y118.894 E0.01758
G1 X131.001 Y118.736 E0.00669
G1 X130.039 Y118.245 E0.03334
G1 X129.818 Y118.219 E0.00686
G1 X129.162 Y117.984 E0.02150
G1 X128.876 Y117.910 E0.00914
G1 X128.656 Y117.806 E0.00751
G1 X127.773 Y117.666 E0.02760
G1 X127.521 Y117.699 E0.00784
G1 X126.983 Y117.675 E0.01664
G1 X126.482 Y117.698 E0.01549
G1 X126.230 Y117.666 E0.00784
G1 X125.347 Y117.806 E0.02760
G1 X125.129 Y117.909 E0.00743
G1 X124.844 Y117.982 E0.00909
G1 X124.142 Y118.232 E0.02299
G1 X123.879 Y118.282 E0.00826
G1 X123.083 Y118.688 E0.02760
G1 X122.895 Y118.865 E0.00798
G1 X122.378 Y119.211 E0.01921
G1 X122.054 Y119.474 E0.01288
G1 X121.835 Y119.594 E0.00772
G1 X121.202 Y120.227 E0.02763
G1 X121.083 Y120.444 E0.00764
G1 X120.821 Y120.767 E0.01283
G1 X120.500 Y121.245 E0.01779
G1 X120.364 Y121.372 E0.00573
G1 X120.130 Y121.788 E0.01474
G1 X119.849 Y122.373 E0.02005
G1 X119.824 Y122.576 E0.00631
G1 X119.589 Y123.232 E0.02150
G1 X119.528 Y123.472 E0.00767
G1 X119.431 Y123.646 E0.00615
G1 X119.262 Y124.713 E0.03334
G1 X119.302 Y124.918 E0.00644
G1 X119.280 Y125.377 E0.01419
G1 X119.304 Y125.911 E0.01649
G1 X119.271 Y126.171 E0.00810
G1 X119.433 Y127.144 E0.03045
G1 X119.526 Y127.311 E0.00589
G1 X119.587 Y127.550 E0.00764
G1 X119.822 Y128.207 E0.02153
G1 X119.847 Y128.412 E0.00636
G1 X120.128 Y128.997 E0.02006
G1 X120.363 Y129.413 E0.01474
G1 X120.497 Y129.538 E0.00567
G1 X120.817 Y130.016 E0.01776
G1 X121.050 Y130.303 E0.01141
G1 X121.137 Y130.490 E0.00636
G1 X121.901 Y131.255 E0.03337
G1 X122.087 Y131.341 E0.00633
G1 X122.378 Y131.577 E0.01158
G1 X122.851 Y131.894 E0.01757
G1 X122.977 Y132.030 E0.00572
G1 X123.393 Y132.264 E0.01475
G1 X123.979 Y132.545 E0.02005
G1 X124.182 Y132.570 E0.00631
G1 X124.837 Y132.805 E0.02150
G1 X125.078 Y132.867 E0.00767
G1 X125.252 Y132.963 E0.00615
G1 X126.319 Y133.132 E0.03334
G1 X126.524 Y133.092 E0.00644
G1 X126.983 Y133.114 E0.01419
G1 X127.516 Y133.090 E0.01649
G1 X127.777 Y133.124 E0.00810
G1 X128.749 Y132.961 E0.03045
G1 X128.916 Y132.868 E0.00589
G1 X129.156 Y132.807 E0.00764
G1 X129.813 Y132.572 E0.02153
G1 X130.017 Y132.547 E0.00636
G1 X130.603 Y132.266 E0.02006
G1 X131.019 Y132.032 E0.01474
G1 X131.144 Y131.897 E0.00567
G1 X131.622 Y131.577 E0.01776
G1 X131.909 Y131.344 E0.01141
G1 X132.096 Y131.257 E0.00636
G1 X132.860 Y130.493 E0.03337
G1 X132.946 Y130.308 E0.00631
G1 X133.179 Y130.022 E0.01138
G1 X133.500 Y129.543 E0.01779
G1 X133.635 Y129.417 E0.00573
G1 X133.870 Y129.001 E0.01474
G1 X134.151 Y128.415 E0.02005
G1 X134.175 Y128.212 E0.00631
G1 X134.410 Y127.557 E0.02150
G1 X134.472 Y127.316 E0.00767
G1 X134.569 Y127.142 E0.00615
G1 X134.738 Y126.075 E0.03335
G1 X134.697 Y125.869 E0.00649
G1 X134.720 Y125.384 E0.01499
G1 X134.696 Y124.876 E0.01569
G1 X134.729 Y124.618 E0.00805
G1 X134.576 Y123.704 E0.02860
G1 X134.176 Y123.781 F18000.000
G1 F2400.000
G1 X134.092 Y123.630 E0.00535
G1 X134.022 Y123.358 E0.00868
G1 X133.779 Y122.676 E0.02235
G1 X133.757 Y122.493 E0.00569
G1 X133.511 Y121.979 E0.01757
G1 X133.314 Y121.630 E0.01237
G1 X133.191 Y121.516 E0.00518
G1 X132.855 Y121.014 E0.01864
G1 X132.602 Y120.703 E0.01239
G1 X132.526 Y120.540 E0.00555
G1 X131.925 Y119.928 E0.02648
G1 X131.722 Y119.817 E0.00715
G1 X131.380 Y119.539 E0.01361
G1 X130.883 Y119.206 E0.01846
G1 X130.752 Y119.066 E0.00593
G1 X129.918 Y118.641 E0.02890
G1 X129.724 Y118.617 E0.00604
G1 X129.043 Y118.373 E0.02232
G1 X128.737 Y118.295 E0.00976
G1 X128.535 Y118.199 E0.00691
G1 X127.767 Y118.078 E0.02399
G1 X127.538 Y118.107 E0.00713
G1 X126.983 Y118.082 E0.01715
G1 X126.465 Y118.107 E0.01601
G1 X126.236 Y118.077 E0.00714
G1 X125.468 Y118.199 E0.02399
G1 X125.268 Y118.294 E0.00684
G1 X124.963 Y118.372 E0.00972
G1 X124.249 Y118.627 E0.02340
G1 X124.012 Y118.671 E0.00745
G1 X123.320 Y119.024 E0.02398
G1 X123.150 Y119.185 E0.00723
G1 X122.620 Y119.539 E0.01968
G1 X122.282 Y119.814 E0.01344
G1 X122.081 Y119.923 E0.00706
G1 X121.531 Y120.473 E0.02401
G1 X121.423 Y120.672 E0.00699
G1 X121.149 Y121.009 E0.01341
G1 X120.812 Y121.511 E0.01866
G1 X120.688 Y121.627 E0.00523
G1 X120.491 Y121.976 E0.01238
G1 X120.245 Y122.489 E0.01756
G1 X120.223 Y122.670 E0.00564
G1 X119.979 Y123.351 E0.02232
G1 X119.909 Y123.624 E0.00870
G1 X119.822 Y123.781 E0.00554
G1 X119.675 Y124.706 E0.02890
G1 X119.711 Y124.888 E0.00574
G1 X119.688 Y125.378 E0.01513
G1 X119.712 Y125.928 E0.01699
G1 X119.682 Y126.163 E0.00733
G1 X119.823 Y127.007 E0.02643
G1 X119.907 Y127.159 E0.00535
G1 X119.977 Y127.431 E0.00868
G1 X120.221 Y128.113 E0.02235
G1 X120.243 Y128.296 E0.00569
G1 X120.489 Y128.809 E0.01757
G1 X120.686 Y129.158 E0.01237
G1 X120.809 Y129.273 E0.00518
G1 X121.145 Y129.774 E0.01864
G1 X121.398 Y130.086 E0.01239
G1 X121.476 Y130.253 E0.00569
G1 X122.138 Y130.916 E0.02892
G1 X122.304 Y130.993 E0.00566
G1 X122.620 Y131.250 E0.01256
G1 X123.117 Y131.582 E0.01845
G1 X123.232 Y131.706 E0.00523
G1 X123.582 Y131.903 E0.01238
G1 X124.094 Y132.149 E0.01756
G1 X124.276 Y132.171 E0.00564
G1 X124.957 Y132.415 E0.02232
G1 X125.230 Y132.485 E0.00870
G1 X125.387 Y132.572 E0.00554
G1 X126.311 Y132.719 E0.02890
G1 X126.494 Y132.683 E0.00574
G1 X126.983 Y132.707 E0.01513
G1 X127.533 Y132.682 E0.01699
G1 X127.769 Y132.712 E0.00733
G1 X128.613 Y132.571 E0.02643
G1 X128.764 Y132.487 E0.00535
G1 X129.037 Y132.417 E0.00868
G1 X129.718 Y132.174 E0.02235
G1 X129.901 Y132.151 E0.00569
G1 X130.415 Y131.905 E0.01757
G1 X130.764 Y131.708 E0.01237
G1 X130.878 Y131.585 E0.00518
G1 X131.380 Y131.249 E0.01864
G1 X131.691 Y130.996 E0.01239
G1 X131.859 Y130.919 E0.00569
G1 X132.521 Y130.256 E0.02892
G1 X132.598 Y130.090 E0.00565
G1 X132.851 Y129.780 E0.01237
G1 X133.188 Y129.277 E0.01866
G1 X133.312 Y129.162 E0.00523
G1 X133.509 Y128.813 E0.01238
G1 X133.755 Y128.300 E0.01756
G1 X133.777 Y128.118 E0.00564
G1 X134.021 Y127.437 E0.02232
G1 X134.091 Y127.164 E0.00870
G1 X134.178 Y127.007 E0.00554
G1 X134.324 Y126.083 E0.02890
G1 X134.289 Y125.899 E0.00577
G1 X134.312 Y125.384 E0.01591
G1 X134.288 Y124.860 E0.01621
G1 X134.318 Y124.626 E0.00729
G1 X134.186 Y123.840 E0.02457
G1 X133.786 Y123.918 F18000.000
G1 F2400.000
G1 X133.711 Y123.782 E0.00480
G1 X133.633 Y123.477 E0.00972
G1 X133.380 Y122.770 E0.02316
G1 X133.361 Y122.608 E0.00502
G1 X133.149 Y122.168 E0.01509
G1 X132.990 Y121.885 E0.01001
G1 X132.879 Y121.782 E0.00470
G1 X132.527 Y121.256 E0.01952
G1 X132.254 Y120.920 E0.01337
G1 X132.187 Y120.775 E0.00494
G1 X131.677 Y120.256 E0.02244
G1 X131.494 Y120.157 E0.00644
G1 X131.137 Y119.867 E0.01418
G1 X130.617 Y119.518 E0.01933
G1 X130.503 Y119.396 E0.00517
G1 X129.797 Y119.036 E0.02445
G1 X129.629 Y119.016 E0.00522
G1 X128.923 Y118.763 E0.02315
G1 X128.598 Y118.679 E0.01038
G1 X128.413 Y118.592 E0.00631
G1 X127.761 Y118.489 E0.02037
G1 X127.555 Y118.515 E0.00641
G1 X126.984 Y118.490 E0.01767
G1 X126.449 Y118.515 E0.01653
G1 X126.242 Y118.488 E0.00644
G1 X125.590 Y118.591 E0.02037
G1 X125.407 Y118.678 E0.00624
G1 X125.082 Y118.761 E0.01036
G1 X124.356 Y119.021 E0.02380
G1 X124.145 Y119.060 E0.00663
G1 X123.557 Y119.360 E0.02037
G1 X123.404 Y119.504 E0.00648
G1 X122.862 Y119.867 E0.02015
G1 X122.509 Y120.153 E0.01401
G1 X122.327 Y120.253 E0.00640
G1 X121.860 Y120.719 E0.02039
G1 X121.762 Y120.900 E0.00634
G1 X121.476 Y121.251 E0.01399
G1 X121.124 Y121.777 E0.01954
G1 X121.012 Y121.882 E0.00474
G1 X120.852 Y122.164 E0.01001
G1 X120.641 Y122.605 E0.01508
G1 X120.621 Y122.765 E0.00498
G1 X120.369 Y123.471 E0.02315
G1 X120.290 Y123.776 E0.00974
G1 X120.213 Y123.916 E0.00493
G1 X120.089 Y124.698 E0.02445
G1 X120.120 Y124.858 E0.00503
G1 X120.095 Y125.378 E0.01607
G1 X120.120 Y125.945 E0.01750
G1 X120.093 Y126.155 E0.00655
G1 X120.213 Y126.871 E0.02240
G1 X120.289 Y127.007 E0.00480
G1 X120.367 Y127.312 E0.00972
G1 X120.619 Y128.019 E0.02316
G1 X120.639 Y128.180 E0.00502
G1 X120.850 Y128.621 E0.01509
G1 X121.010 Y128.903 E0.01001
G1 X121.121 Y129.007 E0.00470
G1 X121.473 Y129.532 E0.01952
G1 X121.746 Y129.869 E0.01337
G1 X121.814 Y130.016 E0.00503
G1 X122.375 Y130.577 E0.02447
G1 X122.522 Y130.645 E0.00500
G1 X122.862 Y130.922 E0.01355
G1 X123.383 Y131.270 E0.01933
G1 X123.487 Y131.383 E0.00474
G1 X123.770 Y131.542 E0.01002
G1 X124.210 Y131.753 E0.01508
G1 X124.370 Y131.773 E0.00498
G1 X125.076 Y132.026 E0.02315
G1 X125.382 Y132.104 E0.00974
G1 X125.522 Y132.182 E0.00493
G1 X126.304 Y132.306 E0.02446
G1 X126.464 Y132.274 E0.00503
G1 X126.984 Y132.299 E0.01607
G1 X127.550 Y132.274 E0.01750
G1 X127.761 Y132.301 E0.00655
G1 X128.476 Y132.181 E0.02240
G1 X128.612 Y132.105 E0.00480
G1 X128.917 Y132.027 E0.00972
G1 X129.624 Y131.775 E0.02316
G1 X129.786 Y131.755 E0.00502
G1 X130.226 Y131.544 E0.01509
G1 X130.509 Y131.385 E0.01001
G1 X130.612 Y131.273 E0.00470
G1 X131.138 Y130.922 E0.01952
G1 X131.474 Y130.649 E0.01337
G1 X131.622 Y130.580 E0.00503
G1 X132.182 Y130.019 E0.02447
G1 X132.250 Y129.873 E0.00499
G1 X132.523 Y129.537 E0.01335
G1 X132.876 Y129.012 E0.01954
G1 X132.988 Y128.907 E0.00474
G1 X133.147 Y128.624 E0.01001
G1 X133.359 Y128.184 E0.01508
G1 X133.378 Y128.024 E0.00498
G1 X133.631 Y127.318 E0.02315
G1 X133.709 Y127.012 E0.00974
G1 X133.787 Y126.873 E0.00493
G1 X133.911 Y126.090 E0.02446
G1 X133.880 Y125.930 E0.00505
G1 X133.905 Y125.385 E0.01684
G1 X133.879 Y124.843 E0.01673
G1 X133.906 Y124.633 E0.00654
G1 X133.796 Y123.977 E0.02055
G1 X133.394 Y124.055 F18000.000
; custom gcode: feature_gcode
;ExternalPerimeter                   ;  ExternalPerimeter
M204 P750 T5000
; custom gcode end: feature_gcode

;TYPE:External perimeter
G1 F1800.000
G1 X133.327 Y123.934 E0.00426
G1 X133.241 Y123.596 E0.01077
G1 X132.980 Y122.865 E0.02398
G1 X132.963 Y122.725 E0.00435
G1 X132.786 Y122.357 E0.01259
G1 X132.665 Y122.142 E0.00763
G1 X132.565 Y122.049 E0.00421
G1 X132.197 Y121.499 E0.02041
G1 X131.904 Y121.139 E0.01435
G1 X131.845 Y121.011 E0.00433
G1 X131.428 Y120.587 E0.01838
G1 X131.265 Y120.498 E0.00572
G1 X130.894 Y120.196 E0.01476
G1 X130.350 Y119.832 E0.02021
G1 X130.253 Y119.728 E0.00440
G1 X129.676 Y119.434 E0.01999
G1 X129.534 Y119.417 E0.00440
G1 X128.803 Y119.155 E0.02398
G1 X128.458 Y119.066 E0.01101
G1 X128.291 Y118.987 E0.00570
G1 X127.755 Y118.902 E0.01674
G1 X127.573 Y118.926 E0.00569
G1 X126.984 Y118.899 E0.01819
G1 X126.432 Y118.925 E0.01705
G1 X126.248 Y118.902 E0.00574
G1 X125.712 Y118.986 E0.01674
G1 X125.547 Y119.065 E0.00564
