G10 P0 R250 S250 ; sets the standby temperature
; generated by SuperSlicer 2.3.55 on 2024-03-16 at 09:30:40 UTC

; TODO: check the size of the extruder and the y-bar clearance. Optimize & test supports.

; external perimeters extrusion width = 0.39mm
; perimeters extrusion width = 0.60mm
; infill extrusion width = 0.60mm
; solid infill extrusion width = 0.60mm
; top infill extrusion width = 0.32mm
; support material extrusion width = 0.40mm
; first layer extrusion width = 0.45mm

; object:{"name":"O-Schieber","id":"O-Schieber.stl id:0 copy 0","object_center":[125.000000,125.000000,0.000000],"boundingbox_center":[125.000000,125.000000,17.217616],"boundingbox_size":[43.047424,24.000000,34.435232]}
; plater:{"center":[125.000000,125.000000,0.000000],"boundingbox_center":[125.000000,125.000000,17.217616],"boundingbox_size":[43.047424,24.000000,34.435232]}

;TYPE:Custom
; custom gcode: start_gcode
M106 P4 S255
M140 S100 ; set bed final temp
M104 S250 ; set extruder final temp
M190 S100 ; wait for bed final temp
M109 S250 ; wait for extruder final temp
;G29
G28
;M98 P"/macros/nozzle/brush.g"
;PRINT_START

G92 E0 ;Reset Extruder
;;G1 Z2.0 F3000 ;Move Z Axis up


G1 X100 Y4.6 Z0.3 F18000.0 ; Move to side a little

G1 X5 Y4.6 Z0.3 F1500.0 E10 ; Draw the second line

G1 X5 Y4.2 Z0.3 F1500.0 E10 ; Draw the third line

G1 X100 Y4.2 Z0.3 F1500.0 E10 ; Draw the third line


;G92 E0;		Reset extruder
;G1 X1 Y10 F6000;
;G1 Z1.7;
;G1 X1 Y60 E140 F50;
;G1 E-<DESTRING> F1500;
;G1 Z4
;G1 X<NEXTX> Y<NEXTY> F12000;
;G92 E0 ;Reset Extruder

;G1 Z2.0 F3000 ;Move Z Axis up
; custom gcode end: start_gcode
M107
G21 ; set units to millimeters
G90 ; use absolute coordinates
M83 ; use relative distances for extrusion
; custom gcode: start_filament_gcode
; Filament gcode
M572 D0 S0.05
; custom gcode end: start_filament_gcode
;LAYER_CHANGE
;Z:0.2
;HEIGHT:0.2
; custom gcode: before_layer_gcode
;BEFORE_LAYER_CHANGE
;0.2

; custom gcode end: before_layer_gcode

G1 Z0.200000 F18000.000
; custom gcode: layer_gcode
;AFTER_LAYER_CHANGE
;0.2
; custom gcode end: layer_gcode

G1 E-0.80000 F3000.00000
G1 Z1.000000 F18000.000
G1 X101.147 Y109.177
G1 Z0.200000
G1 E0.80000 F2100.00000
; custom gcode: feature_gcode
;Skirt
M204 P2000 T5000
; custom gcode end: feature_gcode

;TYPE:Skirt
G1 F2400.000
G1 X101.686 Y108.678 E0.02267
G1 X102.540 Y108.143 E0.03113
G1 X103.473 Y107.746 E0.03130
G1 X104.441 Y107.500 E0.03083
G1 X105.538 Y107.392 E0.03401
G1 X144.297 Y107.389 E1.19650
G1 X145.525 Y107.494 E0.03804
G1 X146.592 Y107.768 E0.03401
G1 X147.609 Y108.224 E0.03442
G1 X148.565 Y108.876 E0.03571
G1 X149.358 Y109.661 E0.03444
G1 X150.012 Y110.613 E0.03566
G1 X150.472 Y111.680 E0.03586
G1 X150.707 Y112.753 E0.03391
G1 X150.736 Y136.968 E0.74751
G1 X150.512 Y138.181 E0.03809
G1 X150.006 Y139.397 E0.04066
G1 X149.259 Y140.454 E0.03997
G1 X148.314 Y141.322 E0.03958
G1 X147.460 Y141.857 E0.03113
G1 X146.527 Y142.254 E0.03130
G1 X145.559 Y142.500 E0.03083
G1 X144.462 Y142.608 E0.03401
G1 X105.563 Y142.609 E1.20084
G1 X104.080 Y142.425 E0.04613
G1 X102.644 Y141.910 E0.04709
G1 X101.444 Y141.131 E0.04416
G1 X100.424 Y140.060 E0.04565
G1 X99.941 Y139.299 E0.02784
G1 X99.575 Y138.459 E0.02829
G1 X99.353 Y137.635 E0.02635
G1 X99.250 Y136.747 E0.02757
G1 X99.249 Y113.272 E0.72469
G1 X99.443 Y111.977 E0.04043
G1 X99.941 Y110.701 E0.04229
G1 X100.707 Y109.585 E0.04176
G1 X101.103 Y109.218 E0.01668
G1 X101.376 Y109.516 F18000.000
G1 F2400.000
G1 X101.955 Y108.985 E0.02426
G1 X102.756 Y108.490 E0.02907
G1 X103.629 Y108.123 E0.02923
G1 X104.526 Y107.899 E0.02855
G1 X105.564 Y107.798 E0.03217
G1 X144.297 Y107.796 E1.19569
G1 X145.456 Y107.896 E0.03592
G1 X146.458 Y108.153 E0.03192
G1 X147.409 Y108.578 E0.03216
G1 X148.304 Y109.189 E0.03346
G1 X149.047 Y109.924 E0.03224
G1 X149.662 Y110.823 E0.03364
G1 X150.090 Y111.823 E0.03359
G1 X150.306 Y112.832 E0.03185
G1 X150.332 Y136.917 E0.74349
G1 X150.125 Y138.054 E0.03569
G1 X149.647 Y139.204 E0.03845
G1 X148.940 Y140.201 E0.03773
G1 X148.045 Y141.015 E0.03735
G1 X147.244 Y141.510 E0.02907
G1 X146.371 Y141.877 E0.02923
G1 X145.474 Y142.101 E0.02855
G1 X144.436 Y142.202 E0.03218
G1 X105.574 Y142.202 E1.19969
G1 X104.174 Y142.029 E0.04354
G1 X102.815 Y141.540 E0.04457
G1 X101.691 Y140.807 E0.04142
G1 X100.730 Y139.789 E0.04325
G1 X100.287 Y139.083 E0.02572
G1 X99.951 Y138.300 E0.02630
G1 X99.749 Y137.538 E0.02433
G1 X99.656 Y136.710 E0.02571
G1 X99.655 Y113.292 E0.72294
G1 X99.836 Y112.082 E0.03777
G1 X100.307 Y110.880 E0.03984
G1 X101.031 Y109.833 E0.03928
G1 X101.332 Y109.557 E0.01263
; printing object O-Schieber.stl id:0 copy 0
G1 E-0.08000 F3000.00000
G1 F14400.000
G1 X101.955 Y108.985 E-0.16739
G1 X102.756 Y108.490 E-0.18640
G1 X103.629 Y108.123 E-0.18737
G1 X104.329 Y107.948 E-0.14284
G1 E-0.03600 F3000.00000
G1 Z0.600000 F18000.000
G1 X106.414 Y114.372
G1 Z0.200000
G1 E0.80000 F2100.00000
; custom gcode: feature_gcode
;Perimeter                        ;  Perimeter
M204 P1000 T5000
; custom gcode end: feature_gcode

;TYPE:Perimeter
G1 F2400.000
G1 X106.442 Y113.776 E0.01841
G1 X106.905 Y113.713 E0.01440
G1 X107.484 Y113.700 E0.01789
G1 X142.632 Y113.700 E1.08502
G1 X143.094 Y113.713 E0.01428
G1 X143.558 Y113.776 E0.01444
G1 X143.586 Y114.372 E0.01843
G1 X142.530 Y114.319 E0.03264
G1 X141.034 Y114.316 E0.04619
G1 X107.972 Y114.316 E1.02061
G1 X106.963 Y114.333 E0.03115
G1 X106.474 Y114.368 E0.01514
G1 X106.025 Y114.950 F18000.000
; custom gcode: feature_gcode
;ExternalPerimeter                   ;  ExternalPerimeter
M204 P750 T5000
; custom gcode end: feature_gcode

;TYPE:External perimeter
G1 F2400.000
G1 X105.998 Y114.982 E0.00130
G1 X105.998 Y114.505 E0.01472
G1 X106.048 Y113.525 E0.03030
G1 X106.087 Y113.483 E0.00178
G1 X106.331 Y113.381 E0.00815
G1 X106.540 Y113.339 E0.00659
G1 X106.879 Y113.305 E0.01051
G1 X107.479 Y113.290 E0.01853
G1 X142.637 Y113.291 E1.08534
G1 X143.121 Y113.305 E0.01492
G1 X143.460 Y113.339 E0.01052
G1 X143.669 Y113.381 E0.00659
G1 X143.942 Y113.510 E0.00932
G1 X144.002 Y114.505 E0.03080
G1 X144.002 Y114.985 E0.01480
G1 X144.042 Y115.069 F18000.000
; custom gcode: feature_gcode
;ThinWall
M204 P2000 T5000
; custom gcode end: feature_gcode

;TYPE:Thin wall
G1 F1800.000
G1 X144.046 Y115.089 E0.00004
G1 X144.048 Y115.099 E0.00006
G1 X144.050 Y115.109 E0.00009
G1 X144.052 Y115.119 E0.00012
G1 X144.054 Y115.129 E0.00015
G1 X144.056 Y115.139 E0.00019
G1 X144.058 Y115.149 E0.00022
G1 X144.110 Y115.413 E0.00657
G1 X144.113 Y134.500 E0.46516
G1 X144.059 Y134.848 E0.00859
G1 X144.057 Y134.858 E0.00022
G1 X144.055 Y134.868 E0.00019
G1 X144.053 Y134.878 E0.00015
G1 X144.051 Y134.888 E0.00012
G1 X144.050 Y134.898 E0.00009
G1 X144.048 Y134.909 E0.00006
G1 X144.044 Y134.929 E0.00006
G1 X144.048 Y134.909 E0.00001
G1 X144.050 Y134.898 E0.00001
G1 X144.051 Y134.888 E0.00001
G1 X144.053 Y134.878 E0.00001
G1 X144.055 Y134.868 E0.00002
G1 X144.057 Y134.858 E0.00002
G1 X144.059 Y134.848 E0.00002
G1 X144.113 Y134.500 E0.00095
G1 X144.110 Y115.413 E0.05168
G1 X144.058 Y115.149 E0.00073
G1 X144.056 Y115.139 E0.00002
G1 X144.054 Y115.129 E0.00002
G1 X144.052 Y115.119 E0.00002
G1 X144.050 Y115.109 E0.00001
G1 X144.048 Y115.099 E0.00001
G1 X144.046 Y115.089 E0.00001
G1 X144.042 Y115.069 E0.00000
G1 X144.002 Y114.985 F18000.000
; custom gcode: feature_gcode
;ExternalPerimeter                   ;  ExternalPerimeter
M204 P750 T5000
; custom gcode end: feature_gcode

;TYPE:External perimeter
G1 F2400.000
G1 X143.864 Y114.869 E0.00555
G1 X143.632 Y114.785 E0.00763
G1 X142.519 Y114.728 E0.03440
G1 X107.976 Y114.725 E1.06636
G1 X106.981 Y114.742 E0.03071
G1 X106.366 Y114.785 E0.01904
G1 X106.145 Y114.866 E0.00725
G1 X106.074 Y114.915 E0.00267
G1 X105.984 Y114.939 F18000.000
G1 E-0.08000 F3000.00000
G1 F14400.000
G1 X105.998 Y114.982 E-0.02007
G1 X105.998 Y114.505 E-0.09435
G1 X106.048 Y113.525 E-0.19425
G1 X106.087 Y113.483 E-0.01143
G1 X106.331 Y113.381 E-0.05225
G1 X106.540 Y113.339 E-0.04227
G1 X106.879 Y113.305 E-0.06737
G1 X107.479 Y113.290 E-0.11882
G1 X107.899 Y113.290 E-0.08320
G1 E-0.03600 F3000.00000
G1 X106.414 Y135.628 F18000.000
G1 E0.80000 F2100.00000
; custom gcode: feature_gcode
;Perimeter                        ;  Perimeter
M204 P1000 T5000
; custom gcode end: feature_gcode

;TYPE:Perimeter
G1 F2400.000
G1 X106.966 Y135.667 E0.01707
G1 X107.975 Y135.684 E0.03116
G1 X142.028 Y135.684 E1.05121
G1 X143.037 Y135.667 E0.03115
G1 X143.586 Y135.628 E0.01700
G1 X143.558 Y136.224 E0.01841
G1 X143.094 Y136.287 E0.01444
G1 X142.632 Y136.300 E0.01428
G1 X107.484 Y136.300 E1.08502
G1 X106.914 Y136.287 E0.01760
G1 X106.442 Y136.225 E0.01468
G1 X106.417 Y135.688 E0.01658
G1 E-0.08000 F3000.00000
G1 F14400.000
G1 X106.966 Y135.667 E-0.10868
G1 X107.975 Y135.684 E-0.19975
G1 X109.872 Y135.684 E-0.37557
G1 E-0.03600 F3000.00000
G1 X105.935 Y115.155 F18000.000
G1 E0.80000 F2100.00000
; custom gcode: feature_gcode
;ThinWall
M204 P2000 T5000
; custom gcode end: feature_gcode

;TYPE:Thin wall
G1 F1800.000
G1 X105.939 Y115.140 E0.00025
G1 X105.942 Y115.125 E0.00020
G1 X105.946 Y115.111 E0.00015
G1 X105.949 Y115.096 E0.00010
G1 X105.956 Y115.066 E0.00009
G1 X105.949 Y115.096 E0.00001
G1 X105.946 Y115.111 E0.00001
G1 X105.942 Y115.125 E0.00002
G1 X105.939 Y115.140 E0.00002
G1 X105.921 Y115.217 E0.00014
G1 X105.917 Y115.237 E0.00004
G1 X105.913 Y115.258 E0.00005
G1 X105.887 Y115.500 E0.00066
G1 X105.887 Y134.502 E0.05146
G1 X105.911 Y134.746 E0.00066
G1 X105.914 Y134.765 E0.00005
G1 X105.918 Y134.784 E0.00004
G1 X105.933 Y134.861 E0.00013
G1 X105.936 Y134.876 E0.00002
G1 X105.940 Y134.890 E0.00002
G1 X105.943 Y134.905 E0.00001
G1 X105.949 Y134.935 E0.00001
G1 X105.998 Y135.015 F18000.000
; custom gcode: feature_gcode
;ExternalPerimeter                   ;  ExternalPerimeter
M204 P750 T5000
; custom gcode end: feature_gcode

;TYPE:External perimeter
G1 F2400.000
G1 X106.136 Y135.131 E0.00555
G1 X106.366 Y135.215 E0.00756
G1 X106.984 Y135.258 E0.01912
G1 X107.978 Y135.275 E0.03071
G1 X142.024 Y135.275 E1.05100
G1 X143.019 Y135.258 E0.03071
G1 X143.634 Y135.215 E0.01904
G1 X143.864 Y135.131 E0.00756
G1 X144.002 Y135.015 E0.00555
G1 X144.002 Y135.495 E0.01480
G1 X143.942 Y136.490 E0.03080
G1 X143.669 Y136.619 E0.00932
G1 X143.460 Y136.661 E0.00659
G1 X143.121 Y136.695 E0.01052
G1 X142.637 Y136.709 E0.01492
G1 X107.479 Y136.710 E1.08534
G1 X106.882 Y136.695 E0.01843
G1 X106.374 Y136.629 E0.01583
G1 X106.123 Y136.538 E0.00823
G1 X106.054 Y136.484 E0.00271
G1 X105.998 Y135.495 E0.03060
G1 X105.998 Y135.015 E0.01480
G1 X105.949 Y134.935 F18000.000
; custom gcode: feature_gcode
;ThinWall
M204 P2000 T5000
; custom gcode end: feature_gcode

;TYPE:Thin wall
G1 F1800.000
G1 X105.943 Y134.905 E0.00006
G1 X105.940 Y134.890 E0.00009
G1 X105.936 Y134.876 E0.00014
G1 X105.933 Y134.861 E0.00019
G1 X105.918 Y134.784 E0.00120
G1 X105.914 Y134.765 E0.00036
G1 X105.911 Y134.746 E0.00042
G1 X105.887 Y134.502 E0.00596
G1 X105.887 Y115.500 E0.46310
G1 X105.913 Y115.258 E0.00594
G1 X105.917 Y115.237 E0.00045
G1 X105.921 Y115.217 E0.00039
G1 X105.922 Y115.214 E0.00005
G1 E-0.08000 F3000.00000
G1 F14400.000
G1 X105.939 Y115.140 E-0.01491
G1 E-0.70509 F3000.00000
G1 X106.619 Y114.052 F18000.000
G1 E0.80000 F2100.00000
; custom gcode: feature_gcode
;GapFill
M204 P2000 T5000
; custom gcode end: feature_gcode

;TYPE:Gap fill
G1 F2400.000
G1 X106.679 Y114.046 E0.00098
G1 X107.971 Y114.008 E0.02490
M106 S135.15
G1 X143.166 Y114.036 E0.67796
G1 X143.381 Y114.055 E0.00362
G1 E-0.08000 F3000.00000
G1 F14400.000
G1 X143.166 Y114.036 E-0.04277
G1 E-0.67723 F3000.00000
G1 X143.381 Y135.948 F18000.000
G1 E0.80000 F2100.00000
G1 F2400.000
G1 X143.168 Y135.968 E0.00352
G1 X107.973 Y135.992 E0.64837
G1 X106.677 Y135.949 E0.02390
G1 X106.619 Y135.942 E0.00090
; stop printing object O-Schieber.stl id:0 copy 0
M106 S135.15
;LAYER_CHANGE
;Z:0.4
;HEIGHT:0.2
; custom gcode: before_layer_gcode
;BEFORE_LAYER_CHANGE
;0.4

; custom gcode end: before_layer_gcode

G1 Z0.400000 F18000.000
; custom gcode: layer_gcode
;AFTER_LAYER_CHANGE
;0.4
; custom gcode end: layer_gcode

G1 E-0.80000 F3000.00000
G1 Z0.800000 F18000.000
G1 X106.619 Y142.609
G1 Z0.400000
G1 E0.80000 F2100.00000
; custom gcode: feature_gcode
;Skirt
M204 P2000 T5000
; custom gcode end: feature_gcode

;TYPE:Skirt
G1 F2400.000
G1 X105.563 Y142.609 E0.03432
G1 X104.080 Y142.425 E0.04856
G1 X102.644 Y141.910 E0.04957
G1 X101.444 Y141.131 E0.04648
G1 X100.424 Y140.060 E0.04806
G1 X99.941 Y139.299 E0.02930
G1 X99.575 Y138.459 E0.02978
G1 X99.353 Y137.635 E0.02774
G1 X99.250 Y136.747 E0.02903
G1 X99.249 Y113.272 E0.76283
G1 X99.443 Y111.977 E0.04256
G1 X99.941 Y110.701 E0.04451
G1 X100.707 Y109.585 E0.04396
G1 X101.686 Y108.678 E0.04337
G1 X102.540 Y108.143 E0.03277
G1 X103.473 Y107.746 E0.03295
G1 X104.441 Y107.500 E0.03245
G1 X105.538 Y107.392 E0.03580
G1 X144.297 Y107.389 E1.25948
G1 X145.525 Y107.494 E0.04004
G1 X146.592 Y107.768 E0.03580
G1 X147.609 Y108.224 E0.03623
G1 X148.565 Y108.876 E0.03759
G1 X149.358 Y109.661 E0.03625
G1 X150.012 Y110.613 E0.03754
G1 X150.472 Y111.680 E0.03775
G1 X150.707 Y112.753 E0.03569
G1 X150.736 Y136.968 E0.78685
G1 X150.512 Y138.181 E0.04010
G1 X150.006 Y139.397 E0.04280
G1 X149.259 Y140.454 E0.04207
G1 X148.314 Y141.322 E0.04167
G1 X147.460 Y141.857 E0.03277
G1 X146.527 Y142.254 E0.03295
G1 X145.559 Y142.500 E0.03245
G1 X144.462 Y142.608 E0.03580
G1 X106.679 Y142.609 E1.22777
G1 X106.679 Y142.202 F18000.000
G1 F2400.000
G1 X105.574 Y142.202 E0.03591
G1 X104.174 Y142.029 E0.04583
G1 X102.815 Y141.540 E0.04692
G1 X101.691 Y140.807 E0.04360
G1 X100.730 Y139.789 E0.04553
G1 X100.287 Y139.083 E0.02708
G1 X99.951 Y138.300 E0.02769
G1 X99.749 Y137.538 E0.02561
G1 X99.656 Y136.710 E0.02707
G1 X99.655 Y113.292 E0.76099
G1 X99.836 Y112.082 E0.03976
G1 X100.307 Y110.880 E0.04194
G1 X101.031 Y109.833 E0.04135
G1 X101.955 Y108.985 E0.04077
G1 X102.756 Y108.490 E0.03060
G1 X103.629 Y108.123 E0.03076
G1 X104.526 Y107.899 E0.03005
G1 X105.564 Y107.798 E0.03387
G1 X144.297 Y107.796 E1.25862
G1 X145.456 Y107.896 E0.03781
G1 X146.458 Y108.153 E0.03360
G1 X147.409 Y108.578 E0.03385
G1 X148.304 Y109.189 E0.03522
G1 X149.047 Y109.924 E0.03394
G1 X149.662 Y110.823 E0.03541
G1 X150.090 Y111.823 E0.03536
G1 X150.306 Y112.832 E0.03353
G1 X150.332 Y136.917 E0.78262
G1 X150.125 Y138.054 E0.03757
G1 X149.647 Y139.204 E0.04048
G1 X148.940 Y140.201 E0.03971
G1 X148.045 Y141.015 E0.03932
G1 X147.244 Y141.510 E0.03060
G1 X146.371 Y141.877 E0.03076
G1 X145.474 Y142.101 E0.03005
G1 X144.436 Y142.202 E0.03387
G1 X106.739 Y142.202 E1.22497
; printing object O-Schieber.stl id:0 copy 0
G1 E-0.08000 F3000.00000
G1 F14400.000
G1 X105.574 Y142.202 E-0.23060
G1 X104.174 Y142.029 E-0.27915
G1 X103.345 Y141.731 E-0.17425
G1 E-0.03600 F3000.00000
G1 Z0.800000 F18000.000
G1 X106.051 Y135.580
G1 Z0.400000
G1 E0.80000 F2100.00000
; custom gcode: feature_gcode
;Perimeter                        ;  Perimeter
M204 P1000 T5000
; custom gcode end: feature_gcode

;TYPE:Perimeter
G1 F7200.000
G1 X106.443 Y135.649 E0.01771
G1 X143.557 Y135.649 E1.65039
G1 X143.949 Y135.580 E0.01771
G1 X143.949 Y136.304 E0.03217
G1 X143.569 Y136.344 E0.01698
G1 X143.259 Y136.351 E0.01381
G1 X106.742 Y136.351 E1.62384
G1 X106.425 Y136.343 E0.01408
G1 X106.051 Y136.293 E0.01680
G1 X106.051 Y135.640 E0.02903
G1 E-0.08000 F3000.00000
G1 F14400.000
G1 X106.443 Y135.649 E-0.07763
G1 X109.507 Y135.649 E-0.60637
G1 E-0.03600 F3000.00000
G1 Z0.800000 F18000.000
G1 X106.051 Y114.420
G1 Z0.400000
G1 E0.80000 F2100.00000
G1 F7200.000
G1 X106.051 Y113.696 E0.03217
G1 X106.431 Y113.656 E0.01698
G1 X106.741 Y113.649 E0.01381
G1 X143.350 Y113.651 E1.62793
G1 X143.949 Y113.686 E0.02668
G1 X143.949 Y114.420 E0.03265
G1 X143.557 Y114.351 E0.01771
G1 X106.443 Y114.351 E1.65039
G1 X106.110 Y114.409 E0.01504
G1 X105.961 Y115.059 F18000.000
; custom gcode: feature_gcode
;ExternalPerimeter                   ;  ExternalPerimeter
M204 P750 T5000
; custom gcode end: feature_gcode

;TYPE:External perimeter
G1 F4800.000
G1 X105.888 Y115.185 E0.00403
; custom gcode: feature_gcode
