G10 P0 R260 S260 ; sets the standby temperature
; generated by SuperSlicer 2.3.55 on 2024-03-11 at 12:59:16 UTC

; TODO: check the size of the extruder and the y-bar clearance. Optimize & test supports.

; external perimeters extrusion width = 0.39mm
; perimeters extrusion width = 0.60mm
; infill extrusion width = 0.60mm
; solid infill extrusion width = 0.60mm
; top infill extrusion width = 0.32mm
; support material extrusion width = 0.40mm
; first layer extrusion width = 0.45mm

; object:{"name":"Power Brick Halter v0","id":"Power Brick Halter v0.stl id:0 copy 0","object_center":[125.000000,125.000000,0.000000],"boundingbox_center":[125.000000,125.000000,20.500000],"boundingbox_size":[105.000000,95.000755,41.000000]}
; plater:{"center":[125.000000,125.000000,0.000000],"boundingbox_center":[125.000000,125.000000,20.500000],"boundingbox_size":[105.000000,95.000755,41.000000]}

;TYPE:Custom
; custom gcode: start_gcode
M106 P4 S255
M140 S100 ; set bed final temp
M104 S260 ; set extruder final temp
M190 S100 ; wait for bed final temp
M109 S260 ; wait for extruder final temp
;G29
G28
;M98 P"/macros/nozzle/brush.g"
;PRINT_START

G92 E0 ;Reset Extruder
;;G1 Z2.0 F3000 ;Move Z Axis up


G1 X100 Y4.6 Z0.3 F18000.0 ; Move to side a little

G1 X5 Y4.6 Z0.3 F1500.0 E10 ; Draw the second line

G1 X5 Y4.2 Z0.3 F1500.0 E10 ; Draw the third line

G1 X100 Y4.2 Z0.3 F1500.0 E10 ; Draw the third line


;G92 E0;		Reset extruder
;G1 X1 Y10 F6000;
;G1 Z1.7;
;G1 X1 Y60 E140 F50;
;G1 E-<DESTRING> F1500;
;G1 Z4
;G1 X<NEXTX> Y<NEXTY> F12000;
;G92 E0 ;Reset Extruder

;G1 Z2.0 F3000 ;Move Z Axis up
; custom gcode end: start_gcode
M107
G21 ; set units to millimeters
G90 ; use absolute coordinates
M83 ; use relative distances for extrusion
; custom gcode: start_filament_gcode
; Filament gcode
M572 D0 S0.05
; custom gcode end: start_filament_gcode
;LAYER_CHANGE
;Z:0.2
;HEIGHT:0.2
; custom gcode: before_layer_gcode
;BEFORE_LAYER_CHANGE
;0.2

; custom gcode end: before_layer_gcode

G1 Z0.200000 F18000.000
; custom gcode: layer_gcode
;AFTER_LAYER_CHANGE
;0.2
; custom gcode end: layer_gcode

G1 E-0.80000 F3000.00000
G1 Z1.000000 F18000.000
G1 X73.871 Y77.044
G1 Z0.200000
G1 E0.80000 F2100.00000
; custom gcode: feature_gcode
;Skirt
M204 P2000 T5000
; custom gcode end: feature_gcode

;TYPE:Skirt
G1 F2400.000
G1 X75.287 Y75.902 E0.05616
G1 X77.140 Y74.686 E0.06842
G1 X79.011 Y73.720 E0.06499
G1 X81.060 Y72.922 E0.06789
G1 X83.167 Y72.351 E0.06738
G1 X85.408 Y71.997 E0.07004
G1 X87.493 Y71.890 E0.06445
G1 X162.500 Y71.890 E2.31548
G1 X164.615 Y71.999 E0.06539
G1 X166.205 Y72.239 E0.04962
G1 X168.984 Y72.937 E0.08848
G1 X170.928 Y73.693 E0.06438
G1 X172.401 Y74.433 E0.05087
G1 X174.926 Y76.064 E0.09281
G1 X176.422 Y77.307 E0.06005
G1 X177.699 Y78.585 E0.05575
G1 X179.043 Y80.212 E0.06517
G1 X180.145 Y81.860 E0.06120
G1 X181.496 Y84.526 E0.09226
G1 X182.083 Y86.077 E0.05121
G1 X182.606 Y87.979 E0.06088
G1 X183.008 Y90.467 E0.07779
G1 X189.019 Y169.661 E2.45177
G1 X188.988 Y170.683 E0.03157
G1 X188.772 Y171.683 E0.03157
G1 X188.378 Y172.627 E0.03157
G1 X187.820 Y173.484 E0.03157
G1 X178.266 Y183.069 E0.41779
G1 X177.563 Y183.583 E0.02689
G1 X176.783 Y183.984 E0.02707
G1 X175.950 Y184.260 E0.02707
G1 X175.091 Y184.401 E0.02689
G1 X77.935 Y184.421 E2.99921
G1 X77.016 Y184.335 E0.02851
G1 X76.128 Y184.100 E0.02833
G1 X75.286 Y183.722 E0.02851
G1 X74.522 Y183.214 E0.02833
G1 X64.897 Y173.613 E0.41965
G1 X64.357 Y172.850 E0.02887
G1 X63.954 Y172.013 E0.02869
G1 X63.694 Y171.120 E0.02869
G1 X63.585 Y170.191 E0.02887
G1 X66.993 Y90.449 E2.46390
G1 X67.398 Y87.965 E0.07771
G1 X67.911 Y86.094 E0.05989
G1 X68.473 Y84.603 E0.04918
G1 X69.691 Y82.129 E0.08512
G1 X71.041 Y80.102 E0.07520
G1 X72.338 Y78.544 E0.06258
G1 X73.829 Y77.086 E0.06434
G1 X74.113 Y77.377 F18000.000
G1 F2400.000
G1 X75.525 Y76.232 E0.05613
G1 X77.341 Y75.040 E0.06706
G1 X79.177 Y74.092 E0.06376
G1 X81.187 Y73.309 E0.06659
G1 X83.251 Y72.749 E0.06602
G1 X85.452 Y72.402 E0.06880
G1 X87.492 Y72.297 E0.06307
G1 X162.500 Y72.297 E2.31549
G1 X164.580 Y72.404 E0.06428
G1 X166.140 Y72.641 E0.04873
G1 X168.852 Y73.322 E0.08632
G1 X170.764 Y74.066 E0.06332
G1 X172.208 Y74.792 E0.04990
G1 X174.672 Y76.382 E0.09053
G1 X176.146 Y77.606 E0.05913
G1 X177.399 Y78.861 E0.05476
G1 X178.719 Y80.457 E0.06393
G1 X179.804 Y82.081 E0.06028
G1 X181.119 Y84.680 E0.08993
G1 X181.696 Y86.203 E0.05028
G1 X182.213 Y88.086 E0.06029
G1 X182.603 Y90.503 E0.07557
G1 X188.612 Y169.683 E2.45133
G1 X188.584 Y170.634 E0.02936
G1 X188.383 Y171.564 E0.02936
G1 X188.016 Y172.441 E0.02936
G1 X187.496 Y173.237 E0.02936
G1 X178.015 Y182.748 E0.41456
G1 X177.362 Y183.228 E0.02503
G1 X176.637 Y183.604 E0.02520
G1 X175.863 Y183.862 E0.02520
G1 X175.057 Y183.995 E0.02520
G1 X77.943 Y184.014 E2.99792
G1 X77.091 Y183.935 E0.02641
G1 X76.264 Y183.717 E0.02641
G1 X75.479 Y183.363 E0.02659
G1 X74.767 Y182.888 E0.02641
G1 X65.223 Y173.369 E0.41613
G1 X64.717 Y172.658 E0.02693
G1 X64.336 Y171.873 E0.02693
G1 X64.092 Y171.035 E0.02693
G1 X63.992 Y170.174 E0.02676
G1 X67.399 Y90.483 E2.46234
G1 X67.793 Y88.060 E0.07577
G1 X68.299 Y86.218 E0.05898
G1 X68.853 Y84.750 E0.04843
G1 X70.046 Y82.328 E0.08334
G1 X71.367 Y80.346 E0.07354
G1 X72.640 Y78.817 E0.06139
G1 X74.070 Y77.419 E0.06175
; printing object Power Brick Halter v0.stl id:0 copy 0
G1 E-0.08000 F3000.00000
G1 F14400.000
G1 X75.525 Y76.232 E-0.37168
G1 X76.844 Y75.366 E-0.31232
G1 E-0.03600 F3000.00000
G1 Z0.600000 F18000.000
G1 X170.695 Y177.506
G1 Z0.200000
G1 E0.80000 F2100.00000
; custom gcode: feature_gcode
;SupportMaterial
M204 P1000 T5000
; custom gcode end: feature_gcode

;TYPE:Support material
G1 F2400.000
G1 X169.389 Y178.811 E0.05700
G1 X163.884 Y173.306 E0.24034
G1 X164.436 Y172.754 E0.02410
G1 X177.459 Y172.754 E0.40201
G1 X177.754 Y172.459 E0.01288
G1 X177.754 Y170.004 E0.07578
G1 X183.419 Y170.004 E0.17488
G1 X174.612 Y178.811 E0.38449
G1 X173.306 Y177.506 E0.05700
G1 X172.000 Y178.811 E0.05700
G1 X170.737 Y177.548 E0.05514
G1 X182.853 Y170.540 F18000.000
G1 F2400.000
G1 X177.957 Y170.540 E0.15115
G1 X177.957 Y170.947 E0.01257
G1 X182.187 Y170.947 E0.13059
G1 X181.780 Y171.355 E0.01777
G1 X177.957 Y171.355 E0.11802
G1 X177.957 Y171.762 E0.01257
G1 X181.373 Y171.762 E0.10545
G1 X180.966 Y172.169 E0.01777
G1 X177.957 Y172.169 E0.09289
G1 X177.925 Y172.576 E0.01261
G1 X180.559 Y172.576 E0.08132
G1 X180.152 Y172.983 E0.01777
G1 X164.495 Y172.983 E0.48333
G1 X164.172 Y173.306 E0.01411
G1 X164.256 Y173.390 E0.00367
G1 X179.745 Y173.390 E0.47814
G1 X179.338 Y173.797 E0.01777
G1 X164.663 Y173.797 E0.45301
G1 X165.070 Y174.204 E0.01777
G1 X178.931 Y174.204 E0.42788
G1 X178.524 Y174.611 E0.01777
G1 X165.477 Y174.611 E0.40275
G1 X165.884 Y175.018 E0.01777
G1 X178.117 Y175.018 E0.37761
G1 X177.709 Y175.425 E0.01777
G1 X166.291 Y175.425 E0.35248
G1 X166.698 Y175.832 E0.01777
G1 X177.302 Y175.832 E0.32735
G1 X176.895 Y176.239 E0.01777
G1 X167.105 Y176.239 E0.30221
G1 X167.513 Y176.647 E0.01777
G1 X176.488 Y176.647 E0.27708
G1 X176.081 Y177.054 E0.01777
G1 X167.920 Y177.054 E0.25195
G1 X168.327 Y177.461 E0.01777
G1 X175.674 Y177.461 E0.22681
G1 X175.267 Y177.868 E0.01777
G1 X173.956 Y177.868 E0.04047
G1 X174.363 Y178.275 E0.01777
G1 X175.119 Y178.275 E0.02333
G1 E-0.08000 F3000.00000
G1 F14400.000
G1 X174.363 Y178.275 E-0.14959
G1 X173.956 Y177.868 E-0.11394
G1 X175.267 Y177.868 E-0.25945
G1 X175.674 Y177.461 E-0.11394
G1 X175.436 Y177.461 E-0.04708
G1 E-0.03600 F3000.00000
G1 X172.915 Y177.868 F18000.000
G1 E0.80000 F2100.00000
G1 F2400.000
G1 X171.345 Y177.868 E0.04847
G1 X171.752 Y178.275 E0.01777
G1 X172.508 Y178.275 E0.02333
G1 E-0.08000 F3000.00000
G1 F14400.000
G1 X171.752 Y178.275 E-0.14959
G1 X171.345 Y177.868 E-0.11394
G1 X172.915 Y177.868 E-0.31073
G1 E-0.14574 F3000.00000
G1 X170.304 Y177.868 F18000.000
G1 E0.80000 F2100.00000
G1 F2400.000
G1 X168.734 Y177.868 E0.04847
G1 X169.141 Y178.275 E0.01777
G1 X169.897 Y178.275 E0.02333
G1 E-0.08000 F3000.00000
G1 F14400.000
G1 X169.141 Y178.275 E-0.14959
G1 X168.734 Y177.868 E-0.11394
G1 X170.304 Y177.868 E-0.31073
G1 E-0.14574 F3000.00000
G1 X84.057 Y172.754 F18000.000
G1 E0.80000 F2100.00000
G1 F2400.000
G1 X78.000 Y178.811 E0.26444
G1 X69.193 Y170.004 E0.38449
G1 X72.246 Y170.004 E0.09427
G1 X72.246 Y172.459 E0.07578
G1 X72.541 Y172.754 E0.01288
G1 X83.997 Y172.754 E0.35363
G1 E-0.08000 F3000.00000
G1 F14400.000
G1 X81.565 Y175.210 E-0.68400
G1 E-0.03600 F3000.00000
G1 X72.226 Y170.540 F18000.000
G1 E0.80000 F2100.00000
G1 F2400.000
G1 X70.017 Y170.540 E0.06820
G1 X70.424 Y170.947 E0.01777
G1 X72.043 Y170.947 E0.04998
G1 X72.043 Y171.355 E0.01257
G1 X70.831 Y171.355 E0.03742
G1 X71.238 Y171.762 E0.01777
G1 X72.043 Y171.762 E0.02485
G1 X72.043 Y172.169 E0.01257
G1 X71.386 Y172.169 E0.02028
G1 E-0.08000 F3000.00000
G1 F14400.000
G1 X72.043 Y172.169 E-0.13002
G1 X72.043 Y171.762 E-0.08057
G1 X71.238 Y171.762 E-0.15931
G1 X70.831 Y171.355 E-0.11394
G1 X71.842 Y171.355 E-0.20017
G1 E-0.03600 F3000.00000
G1 X83.799 Y172.983 F18000.000
G1 E0.80000 F2100.00000
G1 F2400.000
G1 X72.459 Y172.983 E0.35006
G1 X72.866 Y173.390 E0.01777
G1 X83.133 Y173.390 E0.31693
G1 X82.726 Y173.797 E0.01777
G1 X73.273 Y173.797 E0.29180
G1 X73.680 Y174.204 E0.01777
G1 X82.319 Y174.204 E0.26667
G1 X81.912 Y174.611 E0.01777
G1 X74.088 Y174.611 E0.24153
G1 X74.495 Y175.018 E0.01777
G1 X81.505 Y175.018 E0.21640
G1 X81.098 Y175.425 E0.01777
G1 X74.902 Y175.425 E0.19127
G1 X75.309 Y175.832 E0.01777
G1 X80.690 Y175.832 E0.16613
G1 X80.283 Y176.239 E0.01777
G1 X75.716 Y176.239 E0.14100
G1 X76.123 Y176.647 E0.01777
G1 X79.876 Y176.647 E0.11587
G1 X79.469 Y177.054 E0.01777
G1 X76.530 Y177.054 E0.09073
G1 X76.937 Y177.461 E0.01777
G1 X79.062 Y177.461 E0.06560
G1 X78.655 Y177.868 E0.01777
G1 X77.344 Y177.868 E0.04047
G1 X77.751 Y178.275 E0.01777
G1 X78.507 Y178.275 E0.02333
G1 E-0.08000 F3000.00000
G1 F14400.000
G1 X77.751 Y178.275 E-0.14959
G1 X77.344 Y177.868 E-0.11394
G1 X78.655 Y177.868 E-0.25945
G1 X79.062 Y177.461 E-0.11394
G1 X78.824 Y177.461 E-0.04708
G1 E-0.03600 F3000.00000
G1 X149.802 Y156.699 F18000.000
G1 E0.80000 F2100.00000
; custom gcode: feature_gcode
;Perimeter                        ;  Perimeter
M204 P1000 T5000
; custom gcode end: feature_gcode

;TYPE:Perimeter
G1 F2400.000
G1 X170.198 Y156.699 E0.62965
G1 X170.198 Y93.302 E1.95707
G1 X149.802 Y93.302 E0.62965
G1 X149.802 Y156.639 E1.95521
G1 X150.209 Y156.292 F18000.000
G1 F2400.000
G1 X169.791 Y156.292 E0.60452
G1 X169.791 Y93.709 E1.93193
G1 X150.209 Y93.709 E0.60452
G1 X150.209 Y156.232 E1.93008
G1 X150.616 Y155.885 F18000.000
G1 F2400.000
G1 X169.384 Y155.885 E0.57938
G1 X169.384 Y94.116 E1.90680
G1 X150.616 Y94.116 E0.57938
G1 X150.616 Y155.825 E1.90495
G1 X151.025 Y155.475 F18000.000
; custom gcode: feature_gcode
;ExternalPerimeter                   ;  ExternalPerimeter
M204 P750 T5000
; custom gcode end: feature_gcode

;TYPE:External perimeter
G1 F2400.000
G1 X168.975 Y155.475 E0.55412
G1 X168.975 Y94.525 E1.88153
G1 X151.025 Y94.525 E0.55412
G1 X151.025 Y155.415 E1.87968
G1 X151.025 Y155.875 F18000.000
G1 E-0.08000 F3000.00000
G1 F14400.000
G1 X154.481 Y155.427 E-0.68400
G1 E-0.03600 F3000.00000
G1 X105.198 Y156.699 F18000.000
G1 E0.80000 F2100.00000
; custom gcode: feature_gcode
;Perimeter                        ;  Perimeter
M204 P1000 T5000
; custom gcode end: feature_gcode

;TYPE:Perimeter
G1 F2400.000
G1 X105.198 Y93.302 E1.95707
G1 X84.802 Y93.302 E0.62965
G1 X84.802 Y156.699 E1.95707
G1 X105.138 Y156.699 E0.62780
G1 X104.791 Y156.292 F18000.000
G1 F2400.000
G1 X104.791 Y93.709 E1.93193
G1 X85.209 Y93.709 E0.60452
G1 X85.209 Y156.292 E1.93193
G1 X104.731 Y156.292 E0.60267
G1 X104.384 Y155.885 F18000.000
G1 F2400.000
G1 X104.384 Y94.116 E1.90680
G1 X85.616 Y94.116 E0.57938
G1 X85.616 Y155.885 E1.90680
G1 X104.324 Y155.885 E0.57753
G1 X103.975 Y155.475 F18000.000
; custom gcode: feature_gcode
;ExternalPerimeter                   ;  ExternalPerimeter
M204 P750 T5000
; custom gcode end: feature_gcode

;TYPE:External perimeter
G1 F2400.000
G1 X103.975 Y94.525 E1.88153
G1 X86.025 Y94.525 E0.55412
G1 X86.025 Y155.475 E1.88153
G1 X103.915 Y155.475 E0.55227
G1 X104.375 Y155.475 F18000.000
G1 E-0.08000 F3000.00000
G1 F14400.000
G1 X103.918 Y152.019 E-0.68400
G1 E-0.03600 F3000.00000
G1 X74.198 Y170.802 F18000.000
G1 E0.80000 F2100.00000
; custom gcode: feature_gcode
;Perimeter                        ;  Perimeter
M204 P1000 T5000
; custom gcode end: feature_gcode

;TYPE:Perimeter
G1 F2400.000
G1 X74.198 Y92.545 E2.41579
G1 X74.276 Y91.092 E0.04493
G1 X74.499 Y89.701 E0.04350
G1 X74.869 Y88.341 E0.04351
G1 X75.380 Y87.027 E0.04351
G1 X76.028 Y85.776 E0.04351
G1 X76.805 Y84.600 E0.04351
G1 X77.706 Y83.507 E0.04374
G1 X78.506 Y82.707 E0.03493
G1 X79.599 Y81.805 E0.04374
G1 X80.775 Y81.028 E0.04351
G1 X82.027 Y80.380 E0.04351
G1 X83.340 Y79.869 E0.04351
G1 X84.700 Y79.499 E0.04351
G1 X86.092 Y79.276 E0.04352
G1 X87.545 Y79.199 E0.04490
G1 X162.455 Y79.199 E2.31248
G1 X163.908 Y79.276 E0.04493
G1 X165.300 Y79.499 E0.04350
G1 X166.660 Y79.869 E0.04351
G1 X167.977 Y80.382 E0.04365
G1 X169.208 Y81.017 E0.04276
G1 X170.401 Y81.805 E0.04412
G1 X171.494 Y82.707 E0.04374
G1 X172.459 Y83.689 E0.04252
G1 X173.192 Y84.594 E0.03595
G1 X173.972 Y85.776 E0.04371
G1 X174.620 Y87.027 E0.04351
G1 X175.131 Y88.341 E0.04351
G1 X175.503 Y89.707 E0.04372
G1 X175.539 Y89.919 E0.00664
G1 X175.724 Y91.091 E0.03664
G1 X175.802 Y92.545 E0.04495
G1 X175.802 Y170.802 E2.41579
G1 X74.258 Y170.802 E3.13465
G1 X73.791 Y171.209 F18000.000
G1 F2400.000
G1 X73.791 Y92.535 E2.42869
G1 X73.870 Y91.049 E0.04593
G1 X74.100 Y89.615 E0.04483
G1 X74.481 Y88.213 E0.04485
G1 X75.009 Y86.859 E0.04484
G1 X75.676 Y85.569 E0.04484
G1 X76.477 Y84.357 E0.04484
G1 X77.405 Y83.233 E0.04501
G1 X78.232 Y82.405 E0.03613
G1 X79.357 Y81.477 E0.04501
G1 X80.569 Y80.677 E0.04484
G1 X81.859 Y80.009 E0.04484
G1 X83.213 Y79.482 E0.04484
G1 X84.614 Y79.101 E0.04485
G1 X86.049 Y78.871 E0.04486
G1 X87.534 Y78.792 E0.04591
G1 X162.466 Y78.792 E2.31315
G1 X163.952 Y78.871 E0.04593
G1 X165.386 Y79.101 E0.04483
G1 X166.787 Y79.482 E0.04485
G1 X168.144 Y80.010 E0.04495
G1 X169.419 Y80.669 E0.04430
G1 X170.643 Y81.477 E0.04528
G1 X171.768 Y82.405 E0.04501
G1 X172.769 Y83.425 E0.04413
G1 X173.521 Y84.353 E0.03686
G1 X174.324 Y85.569 E0.04499
G1 X174.991 Y86.859 E0.04484
G1 X175.519 Y88.213 E0.04484
G1 X175.901 Y89.619 E0.04499
G1 X175.940 Y89.853 E0.00732
G1 X176.130 Y91.048 E0.03736
G1 X176.209 Y92.535 E0.04594
G1 X176.209 Y171.209 E2.42869
G1 X73.851 Y171.209 E3.15978
G1 X73.384 Y171.616 F18000.000
G1 F2400.000
G1 X73.384 Y92.524 E2.44159
G1 X73.465 Y91.006 E0.04693
G1 X73.702 Y89.529 E0.04617
G1 X74.094 Y88.085 E0.04618
G1 X74.637 Y86.691 E0.04618
G1 X75.325 Y85.363 E0.04618
G1 X76.149 Y84.115 E0.04618
G1 X77.103 Y82.958 E0.04628
G1 X77.958 Y82.103 E0.03733
G1 X79.114 Y81.149 E0.04628
G1 X80.363 Y80.325 E0.04618
G1 X81.691 Y79.638 E0.04618
G1 X83.085 Y79.095 E0.04618
G1 X84.529 Y78.702 E0.04618
G1 X86.006 Y78.465 E0.04619
G1 X87.523 Y78.385 E0.04691
G1 X162.477 Y78.385 E2.31381
G1 X163.995 Y78.465 E0.04693
G1 X165.471 Y78.702 E0.04617
G1 X166.915 Y79.095 E0.04618
G1 X168.311 Y79.638 E0.04624
G1 X169.630 Y80.320 E0.04585
G1 X170.886 Y81.149 E0.04644
G1 X172.042 Y82.103 E0.04628
G1 X173.079 Y83.161 E0.04574
G1 X173.849 Y84.112 E0.03778
G1 X174.675 Y85.363 E0.04627
G1 X175.363 Y86.691 E0.04618
G1 X175.906 Y88.085 E0.04618
G1 X176.299 Y89.532 E0.04627
G1 X176.342 Y89.787 E0.00800
G1 X176.535 Y91.006 E0.03809
G1 X176.616 Y92.524 E0.04693
G1 X176.616 Y171.616 E2.44159
G1 X73.444 Y171.616 E3.18492
G1 X72.975 Y172.025 F18000.000
; custom gcode: feature_gcode
;ExternalPerimeter                   ;  ExternalPerimeter
M204 P750 T5000
; custom gcode end: feature_gcode

;TYPE:External perimeter
G1 F2400.000
G1 X72.975 Y92.513 E2.45456
G1 X73.057 Y90.962 E0.04794
G1 X73.301 Y89.443 E0.04751
G1 X73.705 Y87.957 E0.04752
G1 X74.264 Y86.523 E0.04752
G1 X74.971 Y85.156 E0.04752
G1 X75.820 Y83.871 E0.04752
G1 X76.800 Y82.683 E0.04755
G1 X77.683 Y81.800 E0.03854
