G10 P0 R240 S240 ; sets the standby temperature
; generated by SuperSlicer 2.3.55 on 2023-09-26 at 13:26:19 UTC

; TODO: check the size of the extruder and the y-bar clearance. Optimize & test supports.

; external perimeters extrusion width = 0.39mm
; perimeters extrusion width = 0.40mm
; infill extrusion width = 0.60mm
; solid infill extrusion width = 0.60mm
; top infill extrusion width = 0.32mm
; first layer extrusion width = 0.45mm

; object:{"name":"RPi_or_BTT-Pico_Mount","id":"RPi_or_BTT-Pico_Mount.STL id:0 copy 0","object_center":[125.000000,125.000000,0.000000],"boundingbox_center":[125.000000,125.000000,3.500010],"boundingbox_size":[54.000000,63.000000,7.000019]}
; plater:{"center":[125.000000,125.000000,0.000000],"boundingbox_center":[125.000000,125.000000,3.500010],"boundingbox_size":[54.000000,63.000000,7.000019]}

;TYPE:Custom
; custom gcode: start_gcode
M106 P4 S255
M140 S95 ; set bed final temp
M104 S240 ; set extruder final temp
M190 S95 ; wait for bed final temp
M109 S240 ; wait for extruder final temp
;G29
G28
;M98 P"/macros/nozzle/brush.g"
;PRINT_START

G92 E0 ;Reset Extruder
;;G1 Z2.0 F3000 ;Move Z Axis up


G1 X100 Y4.6 Z0.3 F18000.0 ; Move to side a little

G1 X5 Y4.6 Z0.3 F1500.0 E10 ; Draw the second line

G1 X5 Y4.2 Z0.3 F1500.0 E10 ; Draw the third line

G1 X100 Y4.2 Z0.3 F1500.0 E10 ; Draw the third line


;G92 E0;		Reset extruder
;G1 X1 Y10 F6000;
;G1 Z1.7;
;G1 X1 Y60 E140 F50;
;G1 E-<DESTRING> F1500;
;G1 Z4
;G1 X<NEXTX> Y<NEXTY> F12000;
;G92 E0 ;Reset Extruder

;G1 Z2.0 F3000 ;Move Z Axis up
; custom gcode end: start_gcode
M107
G21 ; set units to millimeters
G90 ; use absolute coordinates
M83 ; use relative distances for extrusion
; custom gcode: start_filament_gcode
; Filament gcode
M572 D0 S0.07
; custom gcode end: start_filament_gcode
;LAYER_CHANGE
;Z:0.2
;HEIGHT:0.2
; custom gcode: before_layer_gcode
;BEFORE_LAYER_CHANGE
;0.2

; custom gcode end: before_layer_gcode

G1 Z0.200000 F18000.000
; custom gcode: layer_gcode
;AFTER_LAYER_CHANGE
;0.2
; custom gcode end: layer_gcode

G1 E-0.80000 F3000.00000
G1 Z1.000000 F18000.000
G1 X95.395 Y92.100
G1 Z0.200000
G1 E0.80000 F2100.00000
; custom gcode: feature_gcode
;Skirt
M204 P2000 T5000
; custom gcode end: feature_gcode

;TYPE:Skirt
G1 F2400.000
G1 X96.446 Y91.018 E0.04749
G1 X97.508 Y90.315 E0.04009
G1 X98.861 Y89.788 E0.04570
G1 X100.318 Y89.579 E0.04633
G1 X149.505 Y89.575 E1.54838
G1 X150.668 Y89.683 E0.03676
G1 X151.915 Y90.047 E0.04091
G1 X152.980 Y90.599 E0.03775
G1 X153.940 Y91.358 E0.03854
G1 X154.733 Y92.274 E0.03815
G1 X155.283 Y93.202 E0.03394
G1 X155.705 Y94.334 E0.03806
G1 X155.908 Y95.539 E0.03844
G1 X155.924 Y154.083 E1.84295
G1 X155.817 Y155.170 E0.03439
G1 X155.572 Y156.099 E0.03023
G1 X155.191 Y156.981 E0.03024
G1 X154.608 Y157.897 E0.03417
G1 X153.607 Y158.941 E0.04554
G1 X152.337 Y159.763 E0.04762
G1 X151.087 Y160.225 E0.04195
G1 X149.665 Y160.423 E0.04521
G1 X100.402 Y160.424 E1.55076
G1 X99.470 Y160.340 E0.02945
G1 X98.318 Y160.042 E0.03747
G1 X97.420 Y159.638 E0.03100
G1 X96.601 Y159.106 E0.03075
G1 X95.541 Y158.084 E0.04633
G1 X94.824 Y157.003 E0.04084
G1 X94.286 Y155.632 E0.04635
G1 X94.076 Y154.072 E0.04958
G1 X94.076 Y95.917 E1.83067
G1 X94.164 Y94.951 E0.03053
G1 X94.480 Y93.763 E0.03871
G1 X94.895 Y92.860 E0.03127
G1 X95.362 Y92.150 E0.02675
G1 X95.701 Y92.374 F18000.000
G1 F2400.000
G1 X96.714 Y91.325 E0.04590
G1 X97.705 Y90.672 E0.03736
G1 X98.971 Y90.180 E0.04275
G1 X100.347 Y89.986 E0.04374
G1 X149.505 Y89.982 E1.54746
G1 X150.594 Y90.083 E0.03442
G1 X151.770 Y90.427 E0.03858
G1 X152.763 Y90.944 E0.03525
G1 X153.667 Y91.660 E0.03629
G1 X154.407 Y92.517 E0.03566
G1 X154.917 Y93.381 E0.03157
G1 X155.314 Y94.447 E0.03580
G1 X155.503 Y95.583 E0.03627
G1 X155.517 Y154.070 E1.84111
G1 X155.415 Y155.102 E0.03266
G1 X155.187 Y155.969 E0.02821
G1 X154.831 Y156.791 E0.02822
G1 X154.279 Y157.657 E0.03233
G1 X153.343 Y158.630 E0.04249
G1 X152.151 Y159.401 E0.04470
G1 X150.987 Y159.831 E0.03906
G1 X149.653 Y160.016 E0.04238
G1 X100.417 Y160.017 E1.54994
G1 X99.545 Y159.940 E0.02756
G1 X98.448 Y159.656 E0.03567
G1 X97.610 Y159.278 E0.02893
G1 X96.839 Y158.776 E0.02896
G1 X95.849 Y157.817 E0.04338
G1 X95.187 Y156.820 E0.03770
G1 X94.680 Y155.530 E0.04362
G1 X94.483 Y154.059 E0.04671
G1 X94.483 Y95.930 E1.82985
G1 X94.564 Y95.025 E0.02861
G1 X94.866 Y93.894 E0.03685
G1 X95.256 Y93.049 E0.02931
G1 X95.668 Y92.424 E0.02358
G1 X96.007 Y92.648 F18000.000
G1 F2400.000
G1 X96.053 Y92.579 E0.00260
G1 X96.978 Y91.635 E0.04162
G1 X97.893 Y91.033 E0.03448
G1 X99.076 Y90.573 E0.03996
G1 X100.374 Y90.392 E0.04127
G1 X149.504 Y90.389 E1.54658
G1 X150.515 Y90.483 E0.03196
G1 X151.616 Y90.804 E0.03611
G1 X152.543 Y91.286 E0.03289
G1 X153.390 Y91.958 E0.03403
G1 X154.080 Y92.761 E0.03331
G1 X154.552 Y93.560 E0.02922
G1 X154.921 Y94.554 E0.03339
G1 X155.098 Y95.627 E0.03421
G1 X155.110 Y154.057 E1.83935
G1 X155.015 Y155.029 E0.03077
G1 X154.802 Y155.834 E0.02620
G1 X154.470 Y156.602 E0.02634
G1 X153.950 Y157.417 E0.03045
G1 X153.083 Y158.317 E0.03932
G1 X151.960 Y159.041 E0.04206
G1 X150.886 Y159.436 E0.03603
G1 X149.637 Y159.609 E0.03969
G1 X100.430 Y159.610 E1.54900
G1 X99.618 Y159.539 E0.02567
G1 X98.582 Y159.272 E0.03369
G1 X97.803 Y158.920 E0.02688
G1 X97.082 Y158.449 E0.02713
G1 X96.107 Y157.490 E0.04303
G1 X95.414 Y156.363 E0.04164
G1 X95.050 Y155.328 E0.03455
G1 X94.890 Y154.047 E0.04065
G1 X94.890 Y95.939 E1.82920
G1 X94.964 Y95.099 E0.02656
G1 X95.251 Y94.026 E0.03493
G1 X95.614 Y93.242 E0.02720
G1 X95.974 Y92.698 E0.02054
G1 X96.313 Y92.923 F18000.000
G1 F2400.000
G1 X96.380 Y92.821 E0.00384
G1 X97.242 Y91.945 E0.03869
G1 X98.081 Y91.394 E0.03160
G1 X99.182 Y90.966 E0.03718
G1 X100.397 Y90.798 E0.03861
G1 X149.504 Y90.796 E1.54587
G1 X150.437 Y90.882 E0.02951
G1 X151.467 Y91.183 E0.03376
G1 X152.323 Y91.629 E0.03039
G1 X153.116 Y92.259 E0.03190
G1 X153.751 Y93.000 E0.03070
G1 X154.184 Y93.736 E0.02688
G1 X154.528 Y94.662 E0.03111
G1 X154.693 Y95.664 E0.03197
G1 X154.703 Y154.049 E1.83791
G1 X154.614 Y154.957 E0.02874
G1 X154.417 Y155.704 E0.02432
G1 X154.109 Y156.414 E0.02434
G1 X153.621 Y157.177 E0.02851
G1 X152.820 Y158.007 E0.03632
G1 X151.774 Y158.679 E0.03912
G1 X150.789 Y159.041 E0.03303
G1 X149.627 Y159.202 E0.03694
G1 X100.443 Y159.203 E1.54828
G1 X99.690 Y159.139 E0.02379
G1 X98.715 Y158.887 E0.03170
G1 X97.997 Y158.562 E0.02483
G1 X97.322 Y158.120 E0.02540
G1 X96.421 Y157.231 E0.03983
G1 X95.777 Y156.178 E0.03887
G1 X95.446 Y155.234 E0.03150
G1 X95.297 Y154.039 E0.03791
G1 X95.297 Y95.951 E1.82855
G1 X95.365 Y95.171 E0.02467
G1 X95.636 Y94.159 E0.03296
G1 X95.972 Y93.436 E0.02511
G1 X96.280 Y92.973 E0.01749
; printing object RPi_or_BTT-Pico_Mount.STL id:0 copy 0
G1 E-0.08000 F3000.00000
G1 F14400.000
G1 X96.380 Y92.821 E-0.03601
G1 X97.242 Y91.945 E-0.24327
G1 X98.081 Y91.394 E-0.19868
G1 X99.051 Y91.017 E-0.20605
G1 E-0.03600 F3000.00000
G1 Z0.600000 F18000.000
G1 X122.381 Y97.652
G1 Z0.200000
G1 E0.80000 F2100.00000
; custom gcode: feature_gcode
;Perimeter                        ;  Perimeter
M204 P1000 T5000
; custom gcode end: feature_gcode

;TYPE:Perimeter
G1 F2400.000
G1 X122.339 Y97.974 E0.01022
G1 X122.339 Y98.334 E0.01132
G1 X122.394 Y98.714 E0.01211
G1 X122.482 Y99.027 E0.01022
G1 X122.622 Y99.358 E0.01132
G1 X122.821 Y99.687 E0.01211
G1 X123.023 Y99.940 E0.01020
G1 X123.280 Y100.189 E0.01126
G1 X123.596 Y100.416 E0.01224
G1 X123.877 Y100.569 E0.01006
G1 X124.213 Y100.699 E0.01133
G1 X124.592 Y100.785 E0.01225
G1 X124.911 Y100.815 E0.01008
G1 X125.273 Y100.803 E0.01140
G1 X125.653 Y100.735 E0.01217
G1 X125.958 Y100.639 E0.01006
G1 X126.285 Y100.488 E0.01133
G1 X126.610 Y100.275 E0.01224
G1 X126.854 Y100.067 E0.01008
G1 X127.097 Y99.798 E0.01140
G1 X127.312 Y99.477 E0.01217
G1 X127.455 Y99.192 E0.01006
G1 X127.574 Y98.852 E0.01133
G1 X127.653 Y98.437 E0.01329
G1 X127.653 Y97.860 E0.01815
G1 X127.573 Y97.445 E0.01332
G1 X127.440 Y97.076 E0.01234
G1 X127.295 Y96.791 E0.01006
G1 X127.092 Y96.495 E0.01132
G1 X126.829 Y96.210 E0.01219
G1 X126.580 Y96.002 E0.01021
G1 X126.284 Y95.812 E0.01107
G1 X125.959 Y95.661 E0.01130
G1 X125.621 Y95.556 E0.01114
G1 X125.295 Y95.500 E0.01039
G1 X124.882 Y95.486 E0.01300
G1 X124.555 Y95.521 E0.01038
G1 X124.212 Y95.602 E0.01107
G1 X123.872 Y95.733 E0.01148
G1 X123.535 Y95.923 E0.01216
G1 X123.278 Y96.113 E0.01008
G1 X123.018 Y96.365 E0.01140
G1 X122.782 Y96.671 E0.01217
G1 X122.620 Y96.947 E0.01006
G1 X122.479 Y97.278 E0.01132
G1 X122.396 Y97.594 E0.01030
G1 X122.790 Y97.698 F18000.000
G1 F2400.000
G1 X122.746 Y98.001 E0.00963
G1 X122.746 Y98.304 E0.00956
G1 X122.793 Y98.630 E0.01036
G1 X122.867 Y98.892 E0.00857
G1 X122.985 Y99.172 E0.00956
G1 X123.156 Y99.453 E0.01036
G1 X123.325 Y99.666 E0.00856
G1 X123.542 Y99.876 E0.00950
G1 X123.813 Y100.071 E0.01049
G1 X124.048 Y100.199 E0.00843
G1 X124.332 Y100.308 E0.00957
G1 X124.657 Y100.382 E0.01050
G1 X124.924 Y100.408 E0.00844
G1 X125.230 Y100.398 E0.00964
G1 X125.556 Y100.339 E0.01042
G1 X125.811 Y100.258 E0.00842
G1 X126.087 Y100.131 E0.00957
G1 X126.366 Y99.948 E0.01049
G1 X126.570 Y99.774 E0.00844
G1 X126.775 Y99.547 E0.00964
G1 X126.959 Y99.272 E0.01042
G1 X127.079 Y99.033 E0.00842
G1 X127.179 Y98.746 E0.00957
G1 X127.246 Y98.398 E0.01114
G1 X127.246 Y97.899 E0.01572
G1 X127.179 Y97.553 E0.01110
G1 X127.066 Y97.238 E0.01053
G1 X126.944 Y97.000 E0.00843
G1 X126.772 Y96.749 E0.00956
G1 X126.548 Y96.506 E0.01044
G1 X126.339 Y96.331 E0.00857
G1 X126.088 Y96.170 E0.00939
G1 X125.812 Y96.042 E0.00957
G1 X125.525 Y95.953 E0.00946
G1 X125.253 Y95.906 E0.00868
G1 X124.897 Y95.894 E0.01122
G1 X124.623 Y95.923 E0.00867
G1 X124.333 Y95.992 E0.00939
G1 X124.046 Y96.102 E0.00969
G1 X123.757 Y96.265 E0.01042
G1 X123.542 Y96.424 E0.00844
G1 X123.322 Y96.637 E0.00964
G1 X123.120 Y96.899 E0.01042
G1 X122.984 Y97.130 E0.00843
G1 X122.865 Y97.410 E0.00956
G1 X122.805 Y97.640 E0.00748
G1 X123.204 Y97.744 F18000.000
; custom gcode: feature_gcode
;ExternalPerimeter                   ;  ExternalPerimeter
M204 P750 T5000
; custom gcode end: feature_gcode

;TYPE:External perimeter
G1 F1919.686
G1 X123.159 Y98.027 E0.00902
G1 X123.159 Y98.275 E0.00778
G1 X123.198 Y98.545 E0.00859
G1 X123.257 Y98.756 E0.00690
G1 X123.353 Y98.984 E0.00778
G1 X123.495 Y99.217 E0.00859
G1 X123.632 Y99.388 E0.00690
G1 X123.808 Y99.559 E0.00772
G1 X124.033 Y99.721 E0.00872
G1 X124.222 Y99.823 E0.00677
G1 X124.452 Y99.913 E0.00779
G1 X124.723 Y99.974 E0.00872
G1 X124.937 Y99.995 E0.00677
G1 X125.186 Y99.986 E0.00785
G1 X125.457 Y99.937 E0.00866
G1 X125.662 Y99.873 E0.00677
G1 X125.886 Y99.769 E0.00779
G1 X126.118 Y99.617 E0.00872
G1 X126.282 Y99.478 E0.00677
G1 X126.449 Y99.293 E0.00785
G1 X126.602 Y99.064 E0.00866
G1 X126.698 Y98.872 E0.00677
G1 X126.780 Y98.639 E0.00779
G1 X126.833 Y98.359 E0.00895
G1 X126.833 Y97.939 E0.01325
G1 X126.780 Y97.662 E0.00885
G1 X126.687 Y97.402 E0.00869
G1 X126.589 Y97.211 E0.00677
G1 X126.449 Y97.007 E0.00778
G1 X126.262 Y96.805 E0.00866
G1 X126.094 Y96.664 E0.00690
G1 X125.889 Y96.533 E0.00768
G1 X125.663 Y96.428 E0.00783
G1 X125.428 Y96.355 E0.00775
G1 X125.211 Y96.317 E0.00694
G1 X124.912 Y96.307 E0.00943
G1 X124.693 Y96.330 E0.00694
G1 X124.455 Y96.387 E0.00768
G1 X124.222 Y96.476 E0.00787
G1 X123.982 Y96.611 E0.00866
G1 X123.810 Y96.740 E0.00677
G1 X123.630 Y96.913 E0.00785
G1 X123.462 Y97.131 E0.00866
G1 X123.354 Y97.316 E0.00677
G1 X123.257 Y97.544 E0.00778
G1 X123.219 Y97.686 E0.00465
G1 X122.933 Y97.838 F18000.000
G1 E-0.08000 F3000.00000
G1 F14400.000
G1 X123.159 Y98.027 E-0.06851
G1 X123.159 Y98.275 E-0.04893
G1 X123.198 Y98.545 E-0.05403
G1 X123.257 Y98.756 E-0.04340
G1 X123.353 Y98.984 E-0.04894
G1 X123.495 Y99.217 E-0.05403
G1 X123.632 Y99.388 E-0.04338
G1 X123.808 Y99.559 E-0.04855
G1 X124.033 Y99.721 E-0.05483
G1 X124.222 Y99.823 E-0.04257
G1 X124.452 Y99.913 E-0.04895
G1 X124.723 Y99.974 E-0.05484
G1 X124.937 Y99.995 E-0.04259
G1 X125.090 Y99.989 E-0.03045
G1 E-0.03600 F3000.00000
G1 X124.815 Y126.578 F18000.000
G1 E0.80000 F2100.00000
; custom gcode: feature_gcode
;Perimeter                        ;  Perimeter
M204 P1000 T5000
; custom gcode end: feature_gcode

;TYPE:Perimeter
G1 F2400.000
G1 X124.168 Y126.687 E0.02064
G1 X123.707 Y126.859 E0.01548
G1 X123.313 Y127.080 E0.01423
G1 X123.014 Y127.302 E0.01172
G1 X122.714 Y127.593 E0.01315
G1 X122.445 Y127.941 E0.01386
G1 X122.255 Y128.266 E0.01184
G1 X122.093 Y128.646 E0.01302
G1 X121.980 Y129.076 E0.01399
G1 X121.932 Y129.445 E0.01172
G1 X121.932 Y129.864 E0.01316
G1 X121.996 Y130.301 E0.01391
G1 X122.096 Y130.659 E0.01172
G1 X122.259 Y131.044 E0.01315
G1 X122.487 Y131.420 E0.01386
G1 X122.722 Y131.715 E0.01186
G1 X123.021 Y132.004 E0.01309
G1 X123.379 Y132.262 E0.01390
G1 X123.706 Y132.439 E0.01171
G1 X124.097 Y132.590 E0.01317
G1 X124.528 Y132.687 E0.01391
G1 X124.898 Y132.723 E0.01171
G1 X125.307 Y132.710 E0.01288
G1 X125.707 Y132.642 E0.01276
G1 X126.070 Y132.532 E0.01195
G1 X126.471 Y132.351 E0.01386
G1 X126.821 Y132.127 E0.01307
G1 X127.110 Y131.885 E0.01186
G1 X127.414 Y131.556 E0.01410
G1 X127.664 Y131.184 E0.01410
G1 X127.832 Y130.847 E0.01186
G1 X127.968 Y130.455 E0.01307
G1 X128.051 Y130.023 E0.01385
G1 X128.075 Y129.647 E0.01184
G1 X128.047 Y129.235 E0.01302
G1 X127.954 Y128.800 E0.01399
G1 X127.831 Y128.449 E0.01172
G1 X127.642 Y128.076 E0.01317
G1 X127.388 Y127.714 E0.01391
G1 X127.138 Y127.440 E0.01169
G1 X126.820 Y127.171 E0.01310
G1 X126.443 Y126.936 E0.01399
G1 X126.105 Y126.781 E0.01170
G1 X125.716 Y126.659 E0.01283
G1 X125.300 Y126.589 E0.01327
G1 X124.875 Y126.580 E0.01340
G1 X124.865 Y126.987 F18000.000
G1 F2400.000
G1 X124.274 Y127.082 E0.01886
G1 X123.879 Y127.229 E0.01326
G1 X123.535 Y127.422 E0.01242
G1 X123.278 Y127.613 E0.01008
G1 X123.018 Y127.865 E0.01139
G1 X122.783 Y128.169 E0.01211
G1 X122.619 Y128.449 E0.01020
G1 X122.479 Y128.778 E0.01126
G1 X122.381 Y129.154 E0.01224
G1 X122.339 Y129.472 E0.01008
G1 X122.339 Y129.834 E0.01140
G1 X122.395 Y130.216 E0.01217
G1 X122.481 Y130.525 E0.01007
G1 X122.622 Y130.858 E0.01139
G1 X122.821 Y131.187 E0.01211
G1 X123.024 Y131.441 E0.01022
G1 X123.283 Y131.691 E0.01133
G1 X123.596 Y131.916 E0.01216
G1 X123.877 Y132.069 E0.01007
G1 X124.215 Y132.199 E0.01140
G1 X124.592 Y132.285 E0.01217
G1 X124.911 Y132.315 E0.01007
G1 X125.266 Y132.304 E0.01120
G1 X125.613 Y132.245 E0.01108
G1 X125.926 Y132.150 E0.01030
G1 X126.277 Y131.992 E0.01211
G1 X126.580 Y131.798 E0.01132
G1 X126.829 Y131.590 E0.01022
G1 X127.094 Y131.303 E0.01229
G1 X127.311 Y130.979 E0.01229
G1 X127.456 Y130.689 E0.01022
G1 X127.574 Y130.349 E0.01132
G1 X127.647 Y129.972 E0.01211
G1 X127.667 Y129.648 E0.01020
G1 X127.643 Y129.291 E0.01126
G1 X127.562 Y128.911 E0.01224
G1 X127.455 Y128.609 E0.01008
G1 X127.292 Y128.286 E0.01140
G1 X127.070 Y127.970 E0.01216
G1 X126.854 Y127.733 E0.01006
G1 X126.580 Y127.501 E0.01133
G1 X126.250 Y127.295 E0.01224
G1 X125.959 Y127.162 E0.01007
G1 X125.621 Y127.056 E0.01114
G1 X125.262 Y126.996 E0.01148
G1 X124.925 Y126.988 E0.01059
G1 X124.916 Y127.395 F18000.000
G1 F2400.000
G1 X124.380 Y127.477 E0.01709
G1 X124.051 Y127.599 E0.01104
G1 X123.757 Y127.765 E0.01060
G1 X123.542 Y127.924 E0.00844
G1 X123.322 Y128.137 E0.00963
G1 X123.121 Y128.398 E0.01037
G1 X122.983 Y128.632 E0.00856
G1 X122.865 Y128.910 E0.00950
G1 X122.781 Y129.233 E0.01049
G1 X122.746 Y129.498 E0.00844
G1 X122.746 Y129.804 E0.00964
G1 X122.794 Y130.132 E0.01042
G1 X122.866 Y130.390 E0.00843
G1 X122.985 Y130.672 E0.00963
G1 X123.156 Y130.953 E0.01037
G1 X123.326 Y131.166 E0.00857
G1 X123.544 Y131.378 E0.00957
G1 X123.813 Y131.571 E0.01042
G1 X124.048 Y131.699 E0.00843
G1 X124.334 Y131.809 E0.00964
G1 X124.657 Y131.882 E0.01042
G1 X124.924 Y131.908 E0.00843
G1 X125.226 Y131.898 E0.00951
G1 X125.520 Y131.848 E0.00939
G1 X125.783 Y131.768 E0.00864
G1 X126.083 Y131.633 E0.01037
G1 X126.339 Y131.469 E0.00956
G1 X126.547 Y131.295 E0.00857
G1 X126.773 Y131.050 E0.01047
G1 X126.959 Y130.774 E0.01047
G1 X127.080 Y130.530 E0.00857
G1 X127.180 Y130.244 E0.00956
G1 X127.242 Y129.920 E0.01036
G1 X127.259 Y129.649 E0.00856
