G10 P0 R230 S230 ; sets the standby temperature
; generated by SuperSlicer 2.3.55 on 2024-02-23 at 22:03:48 UTC

; TODO: check the size of the extruder and the y-bar clearance. Optimize & test supports.

; external perimeters extrusion width = 0.39mm
; perimeters extrusion width = 0.60mm
; infill extrusion width = 0.60mm
; solid infill extrusion width = 0.60mm
; top infill extrusion width = 0.32mm
; support material extrusion width = 0.40mm
; first layer extrusion width = 0.45mm

; object:{"name":"Shape-Box","id":"Shape-Box id:0 copy 0","object_center":[125.000000,125.000000,0.000000],"boundingbox_center":[125.000000,125.000000,7.210631],"boundingbox_size":[25.000000,25.000000,14.421261]}
; plater:{"center":[125.000000,125.000000,0.000000],"boundingbox_center":[125.000000,125.000000,7.210631],"boundingbox_size":[25.000000,25.000000,14.421261]}

;TYPE:Custom
; custom gcode: start_gcode
M106 P4 S255
M140 S100 ; set bed final temp
M104 S235 ; set extruder final temp
M190 S100 ; wait for bed final temp
M109 S235 ; wait for extruder final temp
;G29
G28
;M98 P"/macros/nozzle/brush.g"
;PRINT_START

G92 E0 ;Reset Extruder
;;G1 Z2.0 F3000 ;Move Z Axis up


G1 X100 Y4.6 Z0.3 F18000.0 ; Move to side a little

G1 X5 Y4.6 Z0.3 F1500.0 E10 ; Draw the second line

G1 X5 Y4.2 Z0.3 F1500.0 E10 ; Draw the third line

G1 X100 Y4.2 Z0.3 F1500.0 E10 ; Draw the third line


;G92 E0;		Reset extruder
;G1 X1 Y10 F6000;
;G1 Z1.7;
;G1 X1 Y60 E140 F50;
;G1 E-<DESTRING> F1500;
;G1 Z4
;G1 X<NEXTX> Y<NEXTY> F12000;
;G92 E0 ;Reset Extruder

;G1 Z2.0 F3000 ;Move Z Axis up
; custom gcode end: start_gcode
M107
G21 ; set units to millimeters
G90 ; use absolute coordinates
M83 ; use relative distances for extrusion
; custom gcode: start_filament_gcode
; Filament gcode
M572 D0 S0.05
; custom gcode end: start_filament_gcode
;LAYER_CHANGE
;Z:0.2
;HEIGHT:0.2
; custom gcode: before_layer_gcode
;BEFORE_LAYER_CHANGE
;0.2

; custom gcode end: before_layer_gcode

G1 Z0.200000 F18000.000
; custom gcode: layer_gcode
;AFTER_LAYER_CHANGE
;0.2
; custom gcode end: layer_gcode

G1 E-0.80000 F3000.00000
G1 Z1.000000 F18000.000
G1 X108.963 Y108.145
G1 Z0.200000
G1 E0.80000 F2100.00000
; custom gcode: feature_gcode
;Skirt
M204 P2000 T5000
; custom gcode end: feature_gcode

;TYPE:Skirt
G1 F2400.000
G1 X109.920 Y107.518 E0.03461
G1 X110.986 Y107.098 E0.03461
G1 X112.108 Y106.903 E0.03443
G1 X137.506 Y106.889 E0.76770
G1 X138.513 Y106.982 E0.03056
G1 X139.487 Y107.253 E0.03056
G1 X140.396 Y107.695 E0.03056
G1 X141.211 Y108.292 E0.03056
G1 X141.906 Y109.027 E0.03056
G1 X142.458 Y109.874 E0.03056
G1 X142.849 Y110.806 E0.03056
G1 X143.066 Y111.794 E0.03056
G1 X143.106 Y137.734 E0.78410
G1 X142.996 Y138.628 E0.02721
G1 X142.745 Y139.492 E0.02721
G1 X142.356 Y140.310 E0.02739
G1 X141.844 Y141.051 E0.02721
G1 X140.987 Y141.895 E0.03637
G1 X139.965 Y142.540 E0.03654
G1 X138.833 Y142.950 E0.03637
G1 X137.635 Y143.109 E0.03654
G1 X112.254 Y143.105 E0.76718
G1 X111.361 Y142.994 E0.02721
G1 X110.497 Y142.741 E0.02721
G1 X109.685 Y142.353 E0.02721
G1 X108.949 Y141.844 E0.02703
G1 X108.105 Y140.987 E0.03637
G1 X107.460 Y139.965 E0.03654
G1 X107.050 Y138.833 E0.03637
G1 X106.891 Y137.635 E0.03654
G1 X106.895 Y112.254 E0.76718
G1 X107.006 Y111.361 E0.02721
G1 X107.259 Y110.497 E0.02721
G1 X107.647 Y109.685 E0.02721
G1 X108.156 Y108.949 E0.02703
G1 X108.920 Y108.187 E0.03262
G1 X109.243 Y108.442 F18000.000
G1 F2400.000
G1 X110.131 Y107.867 E0.03197
G1 X111.117 Y107.484 E0.03197
G1 X112.160 Y107.308 E0.03197
G1 X137.506 Y107.296 E0.76612
G1 X138.442 Y107.382 E0.02841
G1 X139.352 Y107.637 E0.02858
G1 X140.197 Y108.050 E0.02841
G1 X140.957 Y108.611 E0.02858
G1 X141.600 Y109.296 E0.02841
G1 X142.112 Y110.091 E0.02858
G1 X142.471 Y110.960 E0.02841
G1 X142.667 Y111.885 E0.02858
G1 X142.699 Y137.708 E0.78056
G1 X142.596 Y138.552 E0.02569
G1 X142.359 Y139.363 E0.02552
G1 X141.994 Y140.124 E0.02552
G1 X141.510 Y140.816 E0.02552
G1 X140.708 Y141.597 E0.03383
G1 X139.763 Y142.186 E0.03366
G1 X138.714 Y142.560 E0.03366
G1 X137.609 Y142.702 E0.03366
G1 X112.280 Y142.699 E0.76562
G1 X111.442 Y142.595 E0.02552
G1 X110.632 Y142.357 E0.02552
G1 X109.876 Y141.994 E0.02535
G1 X109.184 Y141.510 E0.02552
G1 X108.403 Y140.708 E0.03383
G1 X107.814 Y139.763 E0.03366
G1 X107.440 Y138.714 E0.03366
G1 X107.298 Y137.609 E0.03366
G1 X107.301 Y112.280 E0.76562
G1 X107.405 Y111.442 E0.02552
G1 X107.643 Y110.632 E0.02552
G1 X108.006 Y109.876 E0.02535
G1 X108.490 Y109.184 E0.02552
G1 X109.201 Y108.484 E0.03016
; printing object Shape-Box id:0 copy 0
G1 E-0.08000 F3000.00000
G1 F14400.000
G1 X110.131 Y107.867 E-0.22097
G1 X111.117 Y107.484 E-0.20933
G1 X112.160 Y107.308 E-0.20933
G1 X112.384 Y107.307 E-0.04437
G1 E-0.03600 F3000.00000
G1 Z0.600000 F18000.000
G1 X135.595 Y114.405
G1 Z0.200000
G1 E0.80000 F2100.00000
; custom gcode: feature_gcode
;Perimeter                        ;  Perimeter
M204 P1000 T5000
; custom gcode end: feature_gcode

;TYPE:Perimeter
G1 F2400.000
G1 X135.595 Y135.595 E0.64048
G1 X114.405 Y135.595 E0.64048
G1 X114.405 Y114.405 E0.64048
G1 X135.535 Y114.405 E0.63867
G1 X136.002 Y113.998 F18000.000
G1 F2400.000
G1 X136.002 Y136.002 E0.66509
G1 X113.998 Y136.002 E0.66509
G1 X113.998 Y113.998 E0.66509
G1 X135.942 Y113.998 E0.66328
G1 X136.409 Y113.591 F18000.000
G1 F2400.000
G1 X136.409 Y136.409 E0.68970
G1 X113.591 Y136.409 E0.68970
G1 X113.591 Y113.591 E0.68970
G1 X136.349 Y113.591 E0.68789
G1 X136.816 Y113.184 F18000.000
G1 F2400.000
G1 X136.816 Y136.816 E0.71431
G1 X113.184 Y136.816 E0.71431
G1 X113.184 Y113.184 E0.71431
G1 X136.756 Y113.184 E0.71250
G1 X137.225 Y112.775 F18000.000
; custom gcode: feature_gcode
;ExternalPerimeter                   ;  ExternalPerimeter
M204 P750 T5000
; custom gcode end: feature_gcode

;TYPE:External perimeter
G1 F2400.000
G1 X137.225 Y137.225 E0.73905
G1 X112.775 Y137.225 E0.73905
G1 X112.775 Y112.775 E0.73905
G1 X137.165 Y112.775 E0.73724
G1 X137.025 Y113.121 F18000.000
G1 E-0.08000 F3000.00000
G1 F14400.000
G1 X137.173 Y116.231 E-0.68400
G1 E-0.03600 F3000.00000
G1 X133.461 Y135.456 F18000.000
G1 E0.80000 F2100.00000
; custom gcode: feature_gcode
;SolidInfill                      ;  SolidInfill
M204 P2000 T5000
; custom gcode end: feature_gcode

;TYPE:Solid infill
G1 F3600.000
G1 X114.727 Y135.129 E0.56637
G1 X114.727 Y134.722 E0.01231
G1 X135.273 Y135.081 E0.62114
G1 X135.273 Y134.673 E0.01231
G1 X114.727 Y134.315 E0.62114
G1 X114.727 Y133.908 E0.01231
G1 X135.273 Y134.266 E0.62114
G1 X135.273 Y133.859 E0.01231
G1 X114.727 Y133.501 E0.62114
G1 X114.727 Y133.093 E0.01231
G1 X135.273 Y133.452 E0.62114
G1 X135.273 Y133.045 E0.01231
G1 X114.727 Y132.686 E0.62114
G1 X114.727 Y132.279 E0.01231
G1 X135.273 Y132.638 E0.62114
G1 X135.273 Y132.231 E0.01231
G1 X114.727 Y131.872 E0.62114
G1 X114.727 Y131.465 E0.01231
G1 X135.273 Y131.823 E0.62114
G1 X135.273 Y131.416 E0.01231
G1 X114.727 Y131.058 E0.62114
G1 X114.727 Y130.651 E0.01231
G1 X135.273 Y131.009 E0.62114
G1 X135.273 Y130.602 E0.01231
G1 X114.727 Y130.243 E0.62114
G1 X114.727 Y129.836 E0.01231
G1 X135.273 Y130.195 E0.62114
G1 X135.273 Y129.788 E0.01231
G1 X114.727 Y129.429 E0.62114
G1 X114.727 Y129.022 E0.01231
G1 X135.273 Y129.381 E0.62114
G1 X135.273 Y128.974 E0.01231
G1 X114.727 Y128.615 E0.62114
G1 X114.727 Y128.208 E0.01231
G1 X135.273 Y128.566 E0.62114
G1 X135.273 Y128.159 E0.01231
G1 X114.727 Y127.801 E0.62114
G1 X114.727 Y127.393 E0.01231
G1 X135.273 Y127.752 E0.62114
G1 X135.273 Y127.345 E0.01231
G1 X114.727 Y126.986 E0.62114
G1 X114.727 Y126.579 E0.01231
G1 X135.273 Y126.938 E0.62114
G1 X135.273 Y126.531 E0.01231
G1 X114.727 Y126.172 E0.62114
G1 X114.727 Y125.765 E0.01231
G1 X135.273 Y126.124 E0.62114
G1 X135.273 Y125.716 E0.01231
G1 X114.727 Y125.358 E0.62114
G1 X114.727 Y124.951 E0.01231
G1 X135.273 Y125.309 E0.62114
G1 X135.273 Y124.902 E0.01231
G1 X114.727 Y124.543 E0.62114
G1 X114.727 Y124.136 E0.01231
G1 X135.273 Y124.495 E0.62114
G1 X135.273 Y124.088 E0.01231
G1 X114.727 Y123.729 E0.62114
G1 X114.727 Y123.322 E0.01231
G1 X135.273 Y123.681 E0.62114
G1 X135.273 Y123.274 E0.01231
G1 X114.727 Y122.915 E0.62114
G1 X114.727 Y122.508 E0.01231
G1 X135.273 Y122.866 E0.62114
G1 X135.273 Y122.459 E0.01231
G1 X114.727 Y122.101 E0.62114
G1 X114.727 Y121.693 E0.01231
G1 X135.273 Y122.052 E0.62114
G1 X135.273 Y121.645 E0.01231
G1 X114.727 Y121.286 E0.62114
G1 X114.727 Y120.879 E0.01231
G1 X135.273 Y121.238 E0.62114
G1 X135.273 Y120.831 E0.01231
G1 X114.727 Y120.472 E0.62114
G1 X114.727 Y120.065 E0.01231
G1 X135.273 Y120.424 E0.62114
G1 X135.273 Y120.016 E0.01231
G1 X114.727 Y119.658 E0.62114
G1 X114.727 Y119.251 E0.01231
G1 X135.273 Y119.609 E0.62114
G1 X135.273 Y119.202 E0.01231
G1 X114.727 Y118.843 E0.62114
G1 X114.727 Y118.436 E0.01231
G1 X135.273 Y118.795 E0.62114
G1 X135.273 Y118.388 E0.01231
G1 X114.727 Y118.029 E0.62114
G1 X114.727 Y117.622 E0.01231
G1 X135.273 Y117.981 E0.62114
G1 X135.273 Y117.574 E0.01231
G1 X114.727 Y117.215 E0.62114
G1 X114.727 Y116.808 E0.01231
G1 X135.273 Y117.166 E0.62114
G1 X135.273 Y116.759 E0.01231
G1 X114.727 Y116.401 E0.62114
G1 X114.727 Y115.994 E0.01231
G1 X135.273 Y116.352 E0.62114
G1 X135.273 Y115.945 E0.01231
G1 X114.727 Y115.586 E0.62114
G1 X114.727 Y115.179 E0.01231
M106 S142.8
G1 X135.273 Y115.538 E0.62114
G1 X135.273 Y115.131 E0.01231
G1 X114.544 Y114.769 E0.62667
G1 E-0.08000 F3000.00000
G1 F14400.000
G1 X117.999 Y114.829 E-0.68400
G1 E-0.03600 F3000.00000
G1 X122.499 Y114.657 F18000.000
G1 E0.80000 F2100.00000
; custom gcode: feature_gcode
;GapFill
M204 P2000 T5000
; custom gcode end: feature_gcode

;TYPE:Gap fill
G1 F2400.000
G1 X124.662 Y114.675 E0.01541
G1 X126.776 Y114.694 E0.02202
G1 X128.890 Y114.712 E0.02897
G1 X131.004 Y114.731 E0.03592
G1 X133.118 Y114.749 E0.04288
G1 X135.391 Y114.768 E0.05410
G1 E-0.08000 F3000.00000
G1 F14400.000
G1 X133.118 Y114.749 E-0.44985
G1 E-0.27015 F3000.00000
G1 X135.391 Y135.339 F18000.000
G1 E0.80000 F2100.00000
G1 F2400.000
G1 X134.435 Y135.330 E0.00750
G1 X133.464 Y135.321 E0.00999
; stop printing object Shape-Box id:0 copy 0
M106 S142.8
;LAYER_CHANGE
;Z:0.4
;HEIGHT:0.2
; custom gcode: before_layer_gcode
;BEFORE_LAYER_CHANGE
;0.4

; custom gcode end: before_layer_gcode

G1 Z0.400000 F18000.000
; custom gcode: layer_gcode
;AFTER_LAYER_CHANGE
;0.4
; custom gcode end: layer_gcode

G10 P0 S230 ; set temperature
G1 E-0.80000 F3000.00000
G1 Z0.800000 F18000.000
G1 X108.963 Y108.145
G1 Z0.400000
G1 E0.80000 F2100.00000
; custom gcode: feature_gcode
;Skirt
M204 P2000 T5000
; custom gcode end: feature_gcode

;TYPE:Skirt
G1 F2400.000
G1 X109.920 Y107.518 E0.03643
G1 X110.986 Y107.098 E0.03643
G1 X112.108 Y106.903 E0.03625
G1 X137.506 Y106.889 E0.80810
G1 X138.513 Y106.982 E0.03217
G1 X139.487 Y107.253 E0.03217
G1 X140.396 Y107.695 E0.03217
G1 X141.211 Y108.292 E0.03217
G1 X141.906 Y109.027 E0.03217
G1 X142.458 Y109.874 E0.03217
G1 X142.849 Y110.806 E0.03217
G1 X143.066 Y111.794 E0.03217
G1 X143.106 Y137.734 E0.82537
G1 X142.996 Y138.628 E0.02864
G1 X142.745 Y139.492 E0.02864
G1 X142.356 Y140.310 E0.02883
G1 X141.844 Y141.051 E0.02864
G1 X140.987 Y141.895 E0.03828
G1 X139.965 Y142.540 E0.03847
G1 X138.833 Y142.950 E0.03828
G1 X137.635 Y143.109 E0.03847
G1 X112.254 Y143.105 E0.80755
G1 X111.361 Y142.994 E0.02864
G1 X110.497 Y142.741 E0.02864
G1 X109.685 Y142.353 E0.02864
G1 X108.949 Y141.844 E0.02846
G1 X108.105 Y140.987 E0.03828
G1 X107.460 Y139.965 E0.03847
G1 X107.050 Y138.833 E0.03828
G1 X106.891 Y137.635 E0.03847
G1 X106.895 Y112.254 E0.80755
G1 X107.006 Y111.361 E0.02864
G1 X107.259 Y110.497 E0.02864
G1 X107.647 Y109.685 E0.02864
G1 X108.156 Y108.949 E0.02846
G1 X108.920 Y108.187 E0.03434
G1 X109.243 Y108.442 F18000.000
G1 F2400.000
G1 X110.131 Y107.867 E0.03365
G1 X111.117 Y107.484 E0.03365
G1 X112.160 Y107.308 E0.03365
G1 X137.506 Y107.296 E0.80644
G1 X138.442 Y107.382 E0.02990
G1 X139.352 Y107.637 E0.03008
G1 X140.197 Y108.050 E0.02990
G1 X140.957 Y108.611 E0.03008
G1 X141.600 Y109.296 E0.02990
G1 X142.112 Y110.091 E0.03008
G1 X142.471 Y110.960 E0.02990
G1 X142.667 Y111.885 E0.03008
G1 X142.699 Y137.708 E0.82165
G1 X142.596 Y138.552 E0.02705
G1 X142.359 Y139.363 E0.02687
G1 X141.994 Y140.124 E0.02687
G1 X141.510 Y140.816 E0.02687
G1 X140.708 Y141.597 E0.03561
G1 X139.763 Y142.186 E0.03544
G1 X138.714 Y142.560 E0.03544
G1 X137.609 Y142.702 E0.03544
G1 X112.280 Y142.699 E0.80591
G1 X111.442 Y142.595 E0.02687
G1 X110.632 Y142.357 E0.02687
G1 X109.876 Y141.994 E0.02669
G1 X109.184 Y141.510 E0.02687
G1 X108.403 Y140.708 E0.03561
G1 X107.814 Y139.763 E0.03544
G1 X107.440 Y138.714 E0.03544
G1 X107.298 Y137.609 E0.03544
G1 X107.301 Y112.280 E0.80591
G1 X107.405 Y111.442 E0.02687
G1 X107.643 Y110.632 E0.02687
G1 X108.006 Y109.876 E0.02669
G1 X108.490 Y109.184 E0.02687
G1 X109.201 Y108.484 E0.03174
; printing object Shape-Box id:0 copy 0
G1 E-0.08000 F3000.00000
G1 F14400.000
G1 X110.131 Y107.867 E-0.22097
G1 X111.117 Y107.484 E-0.20933
G1 X112.160 Y107.308 E-0.20933
G1 X112.384 Y107.307 E-0.04437
G1 E-0.03600 F3000.00000
G1 Z0.800000 F18000.000
G1 X135.180 Y114.820
G1 Z0.400000
G1 E0.80000 F2100.00000
; custom gcode: feature_gcode
;Perimeter                        ;  Perimeter
M204 P1000 T5000
; custom gcode end: feature_gcode

;TYPE:Perimeter
G1 F6000.000
G1 X135.180 Y135.180 E0.88648
G1 X114.820 Y135.180 E0.88648
G1 X114.820 Y114.820 E0.88648
G1 X135.120 Y114.820 E0.88386
G1 X135.737 Y114.263 F18000.000
G1 F6000.000
G1 X135.737 Y135.737 E0.93499
G1 X114.263 Y135.737 E0.93499
G1 X114.263 Y114.263 E0.93499
G1 X135.677 Y114.263 E0.93238
G1 X136.294 Y113.706 F18000.000
G1 F6000.000
G1 X136.294 Y136.294 E0.98350
G1 X113.706 Y136.294 E0.98350
G1 X113.706 Y113.706 E0.98350
G1 X136.234 Y113.706 E0.98089
G1 X136.851 Y113.149 F18000.000
G1 F6000.000
G1 X136.851 Y136.851 E1.03201
G1 X113.149 Y136.851 E1.03201
G1 X113.149 Y113.149 E1.03201
G1 X136.791 Y113.149 E1.02940
G1 X137.305 Y112.695 F18000.000
; custom gcode: feature_gcode
;ExternalPerimeter                   ;  ExternalPerimeter
M204 P750 T5000
; custom gcode end: feature_gcode

;TYPE:External perimeter
G1 F3000.000
G1 X137.305 Y137.305 E0.66763
G1 X112.695 Y137.305 E0.66763
G1 X112.695 Y112.695 E0.66763
G1 X137.245 Y112.695 E0.66600
G1 X137.105 Y113.041 F18000.000
G1 X134.531 Y115.010
; custom gcode: feature_gcode
;SolidInfill                      ;  SolidInfill
M204 P2000 T5000
; custom gcode end: feature_gcode

;TYPE:Solid infill
G1 F6000.000
G1 X134.187 Y134.739 E0.85920
G1 X133.630 Y134.739 E0.02426
G1 X133.970 Y115.261 E0.84828
G1 X133.413 Y115.261 E0.02426
G1 X133.073 Y134.739 E0.84828
G1 X132.516 Y134.739 E0.02426
G1 X132.856 Y115.261 E0.84828
G1 X132.298 Y115.261 E0.02426
G1 X131.958 Y134.739 E0.84828
G1 X131.401 Y134.739 E0.02426
G1 X131.741 Y115.261 E0.84828
G1 X131.184 Y115.261 E0.02426
G1 X130.844 Y134.739 E0.84828
G1 X130.287 Y134.739 E0.02426
G1 X130.627 Y115.261 E0.84828
G1 X130.070 Y115.261 E0.02426
G1 X129.730 Y134.739 E0.84828
G1 X129.173 Y134.739 E0.02426
G1 X129.513 Y115.261 E0.84828
G1 X128.955 Y115.261 E0.02426
G1 X128.615 Y134.739 E0.84828
G1 X128.058 Y134.739 E0.02426
G1 X128.398 Y115.261 E0.84828
G1 X127.841 Y115.261 E0.02426
G1 X127.501 Y134.739 E0.84828
G1 X126.944 Y134.739 E0.02426
G1 X127.284 Y115.261 E0.84828
G1 X126.727 Y115.261 E0.02426
G1 X126.387 Y134.739 E0.84828
G1 X125.830 Y134.739 E0.02426
G1 X126.170 Y115.261 E0.84828
G1 X125.612 Y115.261 E0.02426
G1 X125.272 Y134.739 E0.84828
G1 X124.715 Y134.739 E0.02426
G1 X125.055 Y115.261 E0.84828
G1 X124.498 Y115.261 E0.02426
G1 X124.158 Y134.739 E0.84828
G1 X123.601 Y134.739 E0.02426
G1 X123.941 Y115.261 E0.84828
G1 X123.384 Y115.261 E0.02426
G1 X123.044 Y134.739 E0.84828
G1 X122.487 Y134.739 E0.02426
G1 X122.827 Y115.261 E0.84828
G1 X122.269 Y115.261 E0.02426
G1 X121.929 Y134.739 E0.84828
G1 X121.372 Y134.739 E0.02426
G1 X121.712 Y115.261 E0.84828
G1 X121.155 Y115.261 E0.02426
G1 X120.815 Y134.739 E0.84828
G1 X120.258 Y134.739 E0.02426
G1 X120.598 Y115.261 E0.84828
G1 X120.041 Y115.261 E0.02426
G1 X119.701 Y134.739 E0.84828
G1 X119.144 Y134.739 E0.02426
G1 X119.484 Y115.261 E0.84828
