G10 P0 R240 S240 ; sets the standby temperature
; generated by SuperSlicer 2.3.55 on 2023-10-04 at 16:52:56 UTC

; TODO: check the size of the extruder and the y-bar clearance. Optimize & test supports.

; external perimeters extrusion width = 0.39mm
; perimeters extrusion width = 0.40mm
; infill extrusion width = 0.60mm
; solid infill extrusion width = 0.60mm
; top infill extrusion width = 0.32mm
; first layer extrusion width = 0.45mm

; object:{"name":"Side_Skirt_Mirror_x2","id":"Side_Skirt_Mirror_x2.stl id:0 copy 0","object_center":[125.000000,125.000000,0.000000],"boundingbox_center":[125.000000,125.000000,6.000006],"boundingbox_size":[95.465000,42.100006,12.000011]}
; plater:{"center":[125.000000,125.000000,0.000000],"boundingbox_center":[125.000000,125.000000,6.000006],"boundingbox_size":[95.465000,42.100006,12.000011]}

;TYPE:Custom
; custom gcode: start_gcode
M106 P4 S255
M140 S95 ; set bed final temp
M104 S240 ; set extruder final temp
M190 S95 ; wait for bed final temp
M109 S240 ; wait for extruder final temp
;G29
G28
;M98 P"/macros/nozzle/brush.g"
;PRINT_START

G92 E0 ;Reset Extruder
;;G1 Z2.0 F3000 ;Move Z Axis up


G1 X100 Y4.6 Z0.3 F18000.0 ; Move to side a little

G1 X5 Y4.6 Z0.3 F1500.0 E10 ; Draw the second line

G1 X5 Y4.2 Z0.3 F1500.0 E10 ; Draw the third line

G1 X100 Y4.2 Z0.3 F1500.0 E10 ; Draw the third line


;G92 E0;		Reset extruder
;G1 X1 Y10 F6000;
;G1 Z1.7;
;G1 X1 Y60 E140 F50;
;G1 E-<DESTRING> F1500;
;G1 Z4
;G1 X<NEXTX> Y<NEXTY> F12000;
;G92 E0 ;Reset Extruder

;G1 Z2.0 F3000 ;Move Z Axis up
; custom gcode end: start_gcode
M107
G21 ; set units to millimeters
G90 ; use absolute coordinates
M83 ; use relative distances for extrusion
; custom gcode: start_filament_gcode
; Filament gcode
M572 D0 S0.07
; custom gcode end: start_filament_gcode
;LAYER_CHANGE
;Z:0.2
;HEIGHT:0.2
; custom gcode: before_layer_gcode
;BEFORE_LAYER_CHANGE
;0.2

; custom gcode end: before_layer_gcode

G1 Z0.200000 F18000.000
; custom gcode: layer_gcode
;AFTER_LAYER_CHANGE
;0.2
; custom gcode end: layer_gcode

G1 E-0.80000 F3000.00000
G1 Z1.000000 F18000.000
G1 X82.099 Y101.906
G1 Z0.200000
G1 E0.80000 F2100.00000
; custom gcode: feature_gcode
;Skirt
M204 P2000 T5000
; custom gcode end: feature_gcode

;TYPE:Skirt
G1 F2400.000
G1 X82.700 Y101.427 E0.02418
G1 X83.419 Y101.030 E0.02587
G1 X84.202 Y100.763 E0.02603
G1 X85.328 Y100.625 E0.03570
G1 X171.937 Y100.625 E2.72642
G1 X172.804 Y100.707 E0.02739
G1 X173.588 Y100.947 E0.02584
G1 X174.420 Y101.395 E0.02973
G1 X175.169 Y101.999 E0.03031
G1 X175.808 Y102.747 E0.03096
G1 X176.282 Y103.573 E0.02999
G1 X176.554 Y104.378 E0.02674
G1 X176.656 Y105.258 E0.02787
G1 X176.639 Y143.365 E1.19961
G1 X176.528 Y144.045 E0.02169
G1 X176.293 Y144.770 E0.02398
G1 X175.970 Y145.403 E0.02237
G1 X175.532 Y146.010 E0.02358
G1 X174.992 Y146.551 E0.02405
G1 X174.397 Y146.981 E0.02310
G1 X173.748 Y147.312 E0.02292
G1 X173.065 Y147.536 E0.02263
G1 X171.932 Y147.675 E0.03593
G1 X85.327 Y147.675 E2.72630
G1 X84.332 Y147.568 E0.03148
G1 X83.336 Y147.232 E0.03310
G1 X82.417 Y146.667 E0.03396
G1 X81.672 Y145.938 E0.03280
G1 X81.106 Y145.061 E0.03286
G1 X73.768 Y126.423 E0.63054
G1 X73.502 Y125.599 E0.02726
G1 X73.343 Y124.330 E0.04027
G1 X73.344 Y116.671 E0.24112
G1 X73.472 Y115.575 E0.03471
G1 X73.818 Y114.501 E0.03553
G1 X74.212 Y113.755 E0.02654
G1 X81.556 Y102.511 E0.42278
G1 X82.059 Y101.950 E0.02371
G1 X82.361 Y102.220 F18000.000
G1 F2400.000
G1 X82.925 Y101.767 E0.02277
G1 X83.590 Y101.400 E0.02391
G1 X84.313 Y101.155 E0.02405
G1 X85.329 Y101.032 E0.03220
G1 X171.937 Y101.032 E2.72637
G1 X172.730 Y101.107 E0.02507
G1 X173.437 Y101.325 E0.02329
G1 X174.195 Y101.735 E0.02711
G1 X174.885 Y102.290 E0.02789
G1 X175.474 Y102.979 E0.02853
G1 X175.910 Y103.737 E0.02753
G1 X176.157 Y104.468 E0.02430
G1 X176.249 Y105.272 E0.02546
G1 X176.235 Y143.310 E1.19741
G1 X176.135 Y143.938 E0.02004
G1 X175.920 Y144.605 E0.02205
G1 X175.626 Y145.186 E0.02048
G1 X175.222 Y145.746 E0.02176
G1 X174.723 Y146.245 E0.02220
G1 X174.178 Y146.637 E0.02113
G1 X173.585 Y146.939 E0.02094
G1 X172.949 Y147.146 E0.02106
G1 X171.932 Y147.268 E0.03223
G1 X85.327 Y147.268 E2.72629
G1 X84.425 Y147.171 E0.02855
G1 X83.503 Y146.861 E0.03062
G1 X82.644 Y146.328 E0.03182
G1 X81.961 Y145.648 E0.03034
G1 X81.437 Y144.811 E0.03110
G1 X74.147 Y126.275 E0.62699
G1 X73.894 Y125.488 E0.02603
G1 X73.750 Y124.321 E0.03701
G1 X73.751 Y116.686 E0.24034
G1 X73.869 Y115.665 E0.03236
G1 X74.190 Y114.667 E0.03297
G1 X74.552 Y113.979 E0.02450
G1 X81.872 Y102.768 E0.42148
G1 X82.321 Y102.265 E0.02122
G1 X82.624 Y102.534 F18000.000
G1 F2400.000
G1 X83.147 Y102.108 E0.02121
G1 X83.756 Y101.771 E0.02191
G1 X84.428 Y101.546 E0.02232
G1 X85.327 Y101.439 E0.02849
G1 X171.937 Y101.439 E2.72644
G1 X172.652 Y101.507 E0.02262
G1 X173.284 Y101.702 E0.02081
G1 X173.987 Y102.085 E0.02520
G1 X174.604 Y102.585 E0.02499
G1 X175.142 Y103.215 E0.02609
G1 X175.539 Y103.906 E0.02508
G1 X175.761 Y104.560 E0.02175
G1 X175.843 Y105.290 E0.02311
G1 X175.831 Y143.257 E1.19518
G1 X175.547 Y144.442 E0.03837
G1 X174.915 Y145.479 E0.03823
G1 X174.458 Y145.935 E0.02032
G1 X173.960 Y146.293 E0.01930
G1 X172.838 Y146.754 E0.03820
G1 X171.932 Y146.861 E0.02870
G1 X85.327 Y146.861 E2.72628
G1 X84.517 Y146.774 E0.02566
G1 X83.675 Y146.492 E0.02796
G1 X82.891 Y146.005 E0.02905
G1 X82.273 Y145.385 E0.02756
G1 X81.795 Y144.617 E0.02847
G1 X74.286 Y125.377 E0.65014
G1 X74.157 Y124.307 E0.03394
G1 X74.158 Y116.700 E0.23945
G1 X74.267 Y115.753 E0.03003
G1 X74.562 Y114.833 E0.03041
G1 X74.896 Y114.197 E0.02260
G1 X82.187 Y103.026 E0.41994
G1 X82.584 Y102.578 E0.01884
G1 X82.888 Y102.847 F18000.000
G1 F2400.000
G1 X83.373 Y102.446 E0.01980
G1 X83.926 Y102.141 E0.01987
G1 X84.533 Y101.939 E0.02012
G1 X85.329 Y101.846 E0.02524
G1 X171.937 Y101.846 E2.72635
G1 X172.571 Y101.906 E0.02006
G1 X173.129 Y102.079 E0.01838
G1 X173.761 Y102.424 E0.02270
G1 X174.320 Y102.877 E0.02262
G1 X174.808 Y103.447 E0.02364
G1 X175.169 Y104.074 E0.02277
G1 X175.365 Y104.654 E0.01925
G1 X175.436 Y105.303 E0.02055
G1 X175.426 Y143.211 E1.19333
G1 X175.173 Y144.282 E0.03463
G1 X174.604 Y145.216 E0.03442
G1 X173.743 Y145.949 E0.03561
G1 X172.731 Y146.361 E0.03440
G1 X171.932 Y146.454 E0.02530
G1 X85.328 Y146.454 E2.72627
G1 X84.607 Y146.377 E0.02281
G1 X83.850 Y146.124 E0.02512
G1 X83.142 Y145.684 E0.02624
G1 X82.587 Y145.126 E0.02478
G1 X82.155 Y144.425 E0.02593
G1 X74.678 Y125.269 E0.64733
G1 X74.564 Y124.298 E0.03077
G1 X74.565 Y116.718 E0.23860
G1 X74.663 Y115.844 E0.02769
G1 X74.933 Y115.001 E0.02786
G1 X75.237 Y114.418 E0.02070
G1 X82.507 Y103.279 E0.41872
G1 X82.849 Y102.892 E0.01625
; printing object Side_Skirt_Mirror_x2.stl id:0 copy 0
G1 E-0.08000 F3000.00000
G1 F14400.000
G1 X83.373 Y102.446 E-0.13626
G1 X83.926 Y102.141 E-0.12494
G1 X84.533 Y101.939 E-0.12653
G1 X85.329 Y101.846 E-0.15871
G1 X86.024 Y101.846 E-0.13757
G1 E-0.03600 F3000.00000
G1 Z0.600000 F18000.000
G1 X121.002 Y125.239
G1 Z0.200000
G1 E0.80000 F2100.00000
; custom gcode: feature_gcode
;Perimeter                        ;  Perimeter
M204 P1000 T5000
; custom gcode end: feature_gcode

;TYPE:Perimeter
G1 F1800.000
G1 X121.472 Y124.642 E0.02392
G1 X121.909 Y123.794 E0.03004
G1 X122.139 Y124.388 E0.02008
G1 X122.293 Y124.654 E0.00966
G1 X122.711 Y125.189 E0.02137
G1 X121.892 Y125.103 E0.02592
G1 X121.560 Y125.120 E0.01047
G1 X121.061 Y125.226 E0.01606
G1 E-0.08000 F3000.00000
G1 F14400.000
G1 X121.472 Y124.642 E-0.14144
G1 X121.909 Y123.794 E-0.18885
G1 X122.139 Y124.388 E-0.12624
G1 X122.293 Y124.654 E-0.06073
G1 X122.711 Y125.189 E-0.13436
G1 X122.548 Y125.172 E-0.03237
G1 E-0.03600 F3000.00000
G1 X115.423 Y128.443 F18000.000
G1 E0.80000 F2100.00000
G1 F1800.000
G1 X114.943 Y129.104 E0.02571
G1 X114.600 Y129.875 E0.02656
G1 X114.339 Y129.224 E0.02207
G1 X113.840 Y128.448 E0.02904
G1 X114.611 Y128.529 E0.02438
G1 X115.363 Y128.449 E0.02382
G1 E-0.08000 F3000.00000
G1 F14400.000
G1 X114.943 Y129.104 E-0.15395
G1 X114.600 Y129.875 E-0.16697
G1 X114.339 Y129.224 E-0.13876
G1 X113.840 Y128.448 E-0.18260
G1 X114.050 Y128.470 E-0.04172
G1 E-0.03600 F3000.00000
G1 X108.158 Y125.187 F18000.000
G1 E0.80000 F2100.00000
G1 F1800.000
G1 X107.358 Y125.103 E0.02532
G1 X107.026 Y125.120 E0.01047
G1 X106.865 Y125.155 E0.00517
G1 X106.725 Y124.911 E0.00884
G1 X106.838 Y124.786 E0.00532
G1 X107.029 Y124.486 E0.01121
G1 X107.345 Y123.779 E0.02437
G1 X107.678 Y124.526 E0.02575
G1 X108.123 Y125.139 E0.02384
G1 E-0.08000 F3000.00000
G1 F14400.000
G1 X107.358 Y125.103 E-0.15149
G1 X107.026 Y125.120 E-0.06585
G1 X106.865 Y125.155 E-0.03248
G1 X106.725 Y124.911 E-0.05558
G1 X106.838 Y124.786 E-0.03346
G1 X107.029 Y124.486 E-0.07046
G1 X107.345 Y123.779 E-0.15321
G1 X107.595 Y124.339 E-0.12147
G1 E-0.03600 F3000.00000
G1 X100.889 Y128.443 F18000.000
G1 E0.80000 F2100.00000
G1 F1800.000
G1 X100.409 Y129.104 E0.02571
G1 X100.066 Y129.875 E0.02656
G1 X99.811 Y129.238 E0.02159
G1 X99.659 Y128.976 E0.00952
G1 X99.238 Y128.440 E0.02145
G1 X100.076 Y128.529 E0.02653
G1 X100.829 Y128.449 E0.02382
G1 E-0.08000 F3000.00000
G1 F14400.000
G1 X100.409 Y129.104 E-0.15396
G1 X100.066 Y129.875 E-0.16697
G1 X99.811 Y129.238 E-0.13574
G1 X99.659 Y128.976 E-0.05986
G1 X99.238 Y128.440 E-0.13484
G1 X99.402 Y128.458 E-0.03264
G1 E-0.03600 F3000.00000
G1 X93.663 Y125.212 F18000.000
G1 E0.80000 F2100.00000
G1 F1800.000
G1 X93.106 Y125.119 E0.01776
G1 X92.760 Y125.104 E0.01092
G1 X91.969 Y125.187 E0.02503
G1 X92.394 Y124.654 E0.02146
G1 X92.546 Y124.392 E0.00955
G1 X92.825 Y123.703 E0.02339
G1 X92.990 Y124.211 E0.01683
G1 X93.129 Y124.494 E0.00991
G1 X93.307 Y124.773 E0.01044
G1 X93.625 Y125.166 E0.01590
G1 E-0.08000 F3000.00000
G1 F14400.000
G1 X93.106 Y125.119 E-0.10309
G1 X92.760 Y125.104 E-0.06865
G1 X91.969 Y125.187 E-0.15736
G1 X92.394 Y124.654 E-0.13492
G1 X92.546 Y124.392 E-0.06002
G1 X92.825 Y123.703 E-0.14708
G1 X92.845 Y123.765 E-0.01288
G1 E-0.03600 F3000.00000
G1 X92.805 Y117.316 F18000.000
G1 E0.80000 F2100.00000
G1 F1800.000
G1 X92.546 Y116.655 E0.02235
G1 X92.394 Y116.393 E0.00955
G1 X91.957 Y115.831 E0.02240
G1 X92.446 Y115.920 E0.01565
G1 X92.918 Y115.943 E0.01486
G1 X93.665 Y115.840 E0.02375
G1 X93.225 Y116.392 E0.02222
G1 X93.073 Y116.655 E0.00955
G1 X92.828 Y117.260 E0.02057
G1 E-0.08000 F3000.00000
G1 F14400.000
G1 X92.546 Y116.655 E-0.13215
G1 X92.394 Y116.393 E-0.06002
G1 X91.957 Y115.831 E-0.14082
G1 X92.446 Y115.920 E-0.09840
G1 X92.918 Y115.943 E-0.09345
G1 X93.665 Y115.840 E-0.14931
G1 X93.634 Y115.879 E-0.00985
G1 E-0.03600 F3000.00000
G1 X99.232 Y112.617 F18000.000
G1 E0.80000 F2100.00000
G1 F1800.000
G1 X99.672 Y112.057 E0.02241
G1 X100.098 Y111.231 E0.02926
G1 X100.390 Y111.896 E0.02287
G1 X100.577 Y112.190 E0.01096
G1 X100.935 Y112.625 E0.01774
G1 X100.359 Y112.534 E0.01835
G1 X99.858 Y112.530 E0.01579
G1 X99.292 Y112.609 E0.01798
G1 E-0.08000 F3000.00000
G1 F14400.000
G1 X99.672 Y112.057 E-0.13261
G1 X100.098 Y111.231 E-0.18396
G1 X100.390 Y111.896 E-0.14377
G1 X100.577 Y112.190 E-0.06891
G1 X100.935 Y112.625 E-0.11153
G1 X100.719 Y112.591 E-0.04322
G1 E-0.03600 F3000.00000
G1 X106.539 Y115.897 F18000.000
G1 E0.80000 F2100.00000
G1 F1800.000
G1 X107.479 Y115.942 E0.02965
G1 X108.204 Y115.838 E0.02305
G1 X107.760 Y116.391 E0.02233
G1 X107.607 Y116.655 E0.00961
G1 X107.342 Y117.311 E0.02226
G1 X107.080 Y116.655 E0.02225
G1 X106.928 Y116.393 E0.00952
G1 X106.576 Y115.944 E0.01796
G1 E-0.08000 F3000.00000
G1 F14400.000
G1 X107.479 Y115.942 E-0.17885
G1 X108.204 Y115.838 E-0.14491
G1 X107.760 Y116.391 E-0.14038
G1 X107.607 Y116.655 E-0.06043
G1 X107.342 Y117.311 E-0.13993
G1 X107.306 Y117.219 E-0.01949
G1 E-0.03600 F3000.00000
G1 X113.835 Y112.608 F18000.000
G1 E0.80000 F2100.00000
G1 F1800.000
G1 X114.318 Y111.863 E0.02794
G1 X114.623 Y111.210 E0.02269
G1 X114.924 Y111.896 E0.02358
G1 X115.111 Y112.190 E0.01096
G1 X115.469 Y112.625 E0.01774
G1 X114.893 Y112.534 E0.01835
G1 X114.392 Y112.530 E0.01579
G1 X113.894 Y112.599 E0.01581
G1 E-0.08000 F3000.00000
G1 F14400.000
G1 X114.318 Y111.863 E-0.16814
G1 X114.623 Y111.210 E-0.14267
G1 X114.924 Y111.896 E-0.14826
G1 X115.111 Y112.190 E-0.06894
G1 X115.469 Y112.625 E-0.11154
G1 X115.247 Y112.590 E-0.04445
G1 E-0.03600 F3000.00000
G1 X121.073 Y115.897 F18000.000
G1 E0.80000 F2100.00000
G1 F1800.000
G1 X122.013 Y115.942 E0.02965
G1 X122.727 Y115.840 E0.02271
G1 X122.293 Y116.393 E0.02215
G1 X122.141 Y116.655 E0.00952
G1 X121.878 Y117.314 E0.02235
G1 X121.614 Y116.655 E0.02235
G1 X121.462 Y116.393 E0.00952
G1 X121.110 Y115.944 E0.01796
G1 E-0.08000 F3000.00000
G1 F14400.000
G1 X122.013 Y115.942 E-0.17885
G1 X122.727 Y115.840 E-0.14276
G1 X122.293 Y116.393 E-0.13924
G1 X122.141 Y116.655 E-0.05986
G1 X121.878 Y117.314 E-0.14049
G1 X121.835 Y117.207 E-0.02279
G1 E-0.03600 F3000.00000
G1 X128.369 Y112.608 F18000.000
G1 E0.80000 F2100.00000
G1 F1800.000
G1 X128.852 Y111.863 E0.02794
G1 X129.163 Y111.196 E0.02316
G1 X129.414 Y111.823 E0.02124
G1 X129.915 Y112.611 E0.02939
G1 X129.427 Y112.534 E0.01555
G1 X128.926 Y112.530 E0.01579
G1 X128.428 Y112.599 E0.01581
G1 E-0.08000 F3000.00000
G1 F14400.000
G1 X128.852 Y111.863 E-0.16815
G1 X129.163 Y111.196 E-0.14559
G1 X129.414 Y111.823 E-0.13357
G1 X129.915 Y112.611 E-0.18481
G1 X129.656 Y112.570 E-0.05189
G1 E-0.03600 F3000.00000
G1 X135.607 Y115.897 F18000.000
G1 E0.80000 F2100.00000
G1 F1800.000
G1 X136.548 Y115.942 E0.02965
G1 X137.301 Y115.833 E0.02396
G1 X136.909 Y116.269 E0.01847
G1 X136.610 Y116.787 E0.01883
G1 X136.427 Y117.351 E0.01866
G1 X136.148 Y116.655 E0.02362
G1 X135.996 Y116.393 E0.00952
G1 X135.644 Y115.945 E0.01794
G1 E-0.08000 F3000.00000
G1 F14400.000
G1 X136.548 Y115.942 E-0.17887
G1 X137.301 Y115.833 E-0.15066
G1 X136.909 Y116.269 E-0.11610
G1 X136.610 Y116.787 E-0.11838
G1 X136.427 Y117.351 E-0.11732
G1 X136.422 Y117.339 E-0.00267
G1 E-0.03600 F3000.00000
G1 X142.797 Y112.622 F18000.000
G1 E0.80000 F2100.00000
G1 F1800.000
G1 X143.174 Y112.199 E0.01784
G1 X143.366 Y111.896 E0.01131
G1 X143.688 Y111.174 E0.02489
G1 X143.947 Y111.821 E0.02197
G1 X144.447 Y112.609 E0.02936
G1 X143.930 Y112.532 E0.01646
G1 X143.458 Y112.531 E0.01487
G1 X142.856 Y112.614 E0.01913
G1 E-0.08000 F3000.00000
G1 F14400.000
G1 X143.174 Y112.199 E-0.10344
G1 X143.366 Y111.896 E-0.07108
G1 X143.688 Y111.174 E-0.15647
G1 X143.947 Y111.821 E-0.13812
G1 X144.447 Y112.609 E-0.18462
G1 X144.296 Y112.586 E-0.03028
G1 E-0.03600 F3000.00000
G1 X150.200 Y115.900 F18000.000
G1 E0.80000 F2100.00000
G1 F1800.000
G1 X151.082 Y115.942 E0.02778
G1 X151.835 Y115.833 E0.02396
G1 X151.454 Y116.257 E0.01794
G1 X151.273 Y116.536 E0.01047
G1 X150.937 Y117.291 E0.02603
G1 X150.676 Y116.640 E0.02207
G1 X150.233 Y115.951 E0.02581
G1 E-0.08000 F3000.00000
G1 F14400.000
G1 X151.082 Y115.942 E-0.16806
G1 X151.835 Y115.833 E-0.15066
G1 X151.454 Y116.257 E-0.11277
G1 X151.273 Y116.536 E-0.06585
G1 X150.937 Y117.291 E-0.16363
G1 X150.893 Y117.183 E-0.02303
G1 E-0.03600 F3000.00000
G1 X157.359 Y112.618 F18000.000
G1 E0.80000 F2100.00000
G1 F1800.000
G1 X157.712 Y112.190 E0.01745
G1 X157.884 Y111.924 E0.00998
G1 X158.194 Y111.237 E0.02374
G1 X158.619 Y112.060 E0.02917
G1 X159.060 Y112.621 E0.02248
G1 X158.494 Y112.534 E0.01804
G1 X157.994 Y112.530 E0.01576
G1 X157.418 Y112.610 E0.01828
G1 E-0.08000 F3000.00000
G1 F14400.000
G1 X157.712 Y112.190 E-0.10131
G1 X157.884 Y111.924 E-0.06274
G1 X158.194 Y111.237 E-0.14928
G1 X158.619 Y112.060 E-0.18338
G1 X159.060 Y112.621 E-0.14135
G1 X158.831 Y112.586 E-0.04596
G1 E-0.03600 F3000.00000
G1 X129.941 Y106.301 F18000.000
G1 E0.80000 F2100.00000
G1 F1800.000
G1 X129.785 Y106.391 E0.00567
G1 X129.392 Y106.745 E0.01663
G1 X129.145 Y107.051 E0.01239
G1 X128.896 Y106.744 E0.01241
G1 X128.523 Y106.408 E0.01582
G1 X128.343 Y106.291 E0.00675
G1 X128.425 Y106.015 E0.00909
G1 X129.864 Y106.015 E0.04528
G1 X129.925 Y106.243 E0.00744
G1 E-0.08000 F3000.00000
G1 F14400.000
G1 X129.785 Y106.391 E-0.04040
G1 X129.392 Y106.745 E-0.10453
G1 X129.145 Y107.051 E-0.07792
G1 X128.896 Y106.744 E-0.07804
G1 X128.523 Y106.408 E-0.09943
G1 X128.343 Y106.291 E-0.04245
