G10 P0 R210 S210 ; sets the standby temperature
; generated by SuperSlicer 2.3.55 on 2023-12-10 at 19:43:25 UTC

; TODO: check the size of the extruder and the y-bar clearance. Optimize & test supports.

; external perimeters extrusion width = 0.60mm
; perimeters extrusion width = 0.60mm
; infill extrusion width = 0.80mm
; solid infill extrusion width = 0.50mm
; top infill extrusion width = 0.30mm
; first layer extrusion width = 0.60mm

; object:{"name":"small-box","id":"small-box.stl id:0 copy 0","object_center":[125.015565,124.986738,0.000000],"boundingbox_center":[125.015565,124.986738,23.500000],"boundingbox_size":[85.056605,170.028295,47.000000]}
; plater:{"center":[125.015565,124.986738,0.000000],"boundingbox_center":[125.015565,124.986738,23.500000],"boundingbox_size":[85.056605,170.028295,47.000000]}

;TYPE:Custom
; custom gcode: start_gcode
M106 P4 S255
M140 S60 ; set bed final temp
M104 S210 ; set extruder final temp
M190 S60 ; wait for bed final temp
M109 S210 ; wait for extruder final temp
;G29
G28
;M98 P"/macros/nozzle/brush.g"
;PRINT_START

G92 E0 ;Reset Extruder
;;G1 Z2.0 F3000 ;Move Z Axis up


G1 X100 Y4.6 Z0.3 F18000.0 ; Move to side a little

G1 X5 Y4.6 Z0.3 F1500.0 E10 ; Draw the second line

G1 X5 Y4.2 Z0.3 F1500.0 E10 ; Draw the third line

G1 X100 Y4.2 Z0.3 F1500.0 E10 ; Draw the third line


;G92 E0;		Reset extruder
;G1 X1 Y10 F6000;
;G1 Z1.7;
;G1 X1 Y60 E140 F50;
;G1 E-<DESTRING> F1500;
;G1 Z4
;G1 X<NEXTX> Y<NEXTY> F12000;
;G92 E0 ;Reset Extruder

;G1 Z2.0 F3000 ;Move Z Axis up
; custom gcode end: start_gcode
M107
G21 ; set units to millimeters
G90 ; use absolute coordinates
M83 ; use relative distances for extrusion
; custom gcode: start_filament_gcode
; Filament gcode
M572 D0 S0.025
; custom gcode end: start_filament_gcode
;LAYER_CHANGE
;Z:0.2
;HEIGHT:0.2
; custom gcode: before_layer_gcode
;BEFORE_LAYER_CHANGE
;0.2

; custom gcode end: before_layer_gcode

G1 Z0.200000 F21000.000
; custom gcode: layer_gcode
;AFTER_LAYER_CHANGE
;0.2
; custom gcode end: layer_gcode

G1 E-0.80000 F3000.00000
G1 Z1.000000 F21000.000
G1 X80.818 Y34.390
G1 Z0.200000
G1 E0.80000 F2100.00000
; custom gcode: feature_gcode
;Skirt
M204 P2000 T5000
; custom gcode end: feature_gcode

;TYPE:Skirt
G1 F2400.000
M204 P1200
G1 X81.600 Y34.196 E0.03543
G1 X82.450 Y34.102 E0.03764
G1 X167.298 Y34.069 E3.73377
G1 X168.493 Y34.190 E0.05284
G1 X169.599 Y34.526 E0.05087
G1 X170.654 Y35.082 E0.05249
G1 X171.605 Y35.861 E0.05410
G1 X172.365 Y36.792 E0.05290
G1 X172.909 Y37.805 E0.05060
G1 X173.265 Y38.945 E0.05252
G1 X173.391 Y40.161 E0.05382
G1 X168.444 Y209.953 E7.47492
G1 X168.286 Y211.162 E0.05367
G1 X167.892 Y212.312 E0.05347
G1 X167.494 Y213.045 E0.03674
G1 X166.975 Y213.747 E0.03841
G1 X166.402 Y214.330 E0.03595
G1 X165.720 Y214.858 E0.03794
G1 X165.011 Y215.263 E0.03595
G1 X164.201 Y215.589 E0.03842
G1 X163.413 Y215.783 E0.03569
G1 X162.563 Y215.874 E0.03762
G1 X87.697 Y215.902 E3.29449
G1 X86.404 Y215.754 E0.05728
G1 X85.202 Y215.346 E0.05585
G1 X84.453 Y214.939 E0.03752
G1 X83.763 Y214.422 E0.03794
G1 X83.180 Y213.850 E0.03595
G1 X82.669 Y213.185 E0.03690
G1 X82.259 Y212.471 E0.03621
G1 X81.937 Y211.673 E0.03786
G1 X81.741 Y210.893 E0.03543
G1 X81.646 Y210.055 E0.03708
G1 X76.586 Y41.525 E7.41958
G1 X76.651 Y39.311 E0.09745
G1 X76.832 Y38.484 E0.03726
G1 X77.139 Y37.663 E0.03857
G1 X77.534 Y36.935 E0.03647
G1 X78.053 Y36.232 E0.03843
G1 X78.620 Y35.653 E0.03569
G1 X79.301 Y35.124 E0.03792
G1 X80.010 Y34.718 E0.03595
G1 X80.763 Y34.413 E0.03575
G1 X81.005 Y34.916 F21000.000
G1 F2400.000
G1 X81.715 Y34.741 E0.03220
G1 X82.493 Y34.658 E0.03443
G1 X167.298 Y34.626 E3.73186
G1 X168.383 Y34.736 E0.04800
G1 X169.386 Y35.041 E0.04613
G1 X170.347 Y35.548 E0.04781
G1 X171.215 Y36.259 E0.04940
G1 X171.909 Y37.111 E0.04834
G1 X172.400 Y38.031 E0.04588
G1 X172.720 Y39.063 E0.04757
G1 X172.834 Y40.178 E0.04932
G1 X167.887 Y209.936 E7.47342
G1 X167.742 Y211.041 E0.04905
G1 X167.384 Y212.084 E0.04852
G1 X167.023 Y212.747 E0.03319
G1 X166.548 Y213.389 E0.03514
G1 X166.027 Y213.918 E0.03269
G1 X165.405 Y214.399 E0.03461
G1 X164.759 Y214.766 E0.03269
G1 X164.021 Y215.061 E0.03498
G1 X163.304 Y215.236 E0.03244
G1 X162.527 Y215.318 E0.03441
G1 X87.705 Y215.345 E3.29255
G1 X86.520 Y215.209 E0.05247
G1 X85.423 Y214.835 E0.05101
G1 X84.746 Y214.465 E0.03394
G1 X84.119 Y213.994 E0.03452
G1 X83.590 Y213.472 E0.03269
G1 X83.125 Y212.865 E0.03363
G1 X82.754 Y212.215 E0.03294
G1 X82.464 Y211.490 E0.03437
G1 X82.202 Y210.026 E0.06547
G1 X77.143 Y41.515 E7.41870
G1 X77.199 Y39.414 E0.09250
G1 X77.364 Y38.649 E0.03444
G1 X77.648 Y37.891 E0.03559
G1 X78.008 Y37.228 E0.03319
G1 X78.483 Y36.586 E0.03515
G1 X79.000 Y36.061 E0.03244
G1 X79.622 Y35.580 E0.03460
G1 X80.267 Y35.212 E0.03269
G1 X80.949 Y34.938 E0.03232
; printing object small-box.stl id:0 copy 0
G1 E-0.08000 F3000.00000
G1 F16800.000
G1 X81.715 Y34.741 E-0.13420
G1 X82.493 Y34.658 E-0.13271
G1 X84.952 Y34.657 E-0.41709
G1 E-0.03600 F3000.00000
G1 Z0.600000 F21000.000
G1 X160.293 Y42.183
G1 Z0.200000
G1 E0.80000 F2100.00000
; custom gcode: feature_gcode
;Perimeter                        ;  Perimeter
M204 P1000 T5000
; custom gcode end: feature_gcode

;TYPE:Perimeter
G1 F2400.000
G1 X160.340 Y207.766 E7.28653
G1 X89.746 Y207.790 E3.10650
G1 X89.683 Y42.207 E7.28653
G1 X160.233 Y42.183 E3.10462
G1 X160.850 Y41.696 F21000.000
G1 F2400.000
G1 X160.897 Y208.323 E7.33247
G1 X89.189 Y208.347 E3.15552
G1 X89.125 Y41.650 E7.33556
G1 X160.850 Y41.636 E3.15629
G1 X161.498 Y41.293 F21000.000
G1 F2400.000
G1 X161.442 Y41.436 E0.00678
G1 X161.407 Y41.701 E0.01177
G1 X161.454 Y208.880 E7.35677
G1 X88.633 Y208.905 E3.20455
G1 X88.568 Y41.725 E7.35677
G1 X88.534 Y41.460 E0.01177
G1 X88.385 Y41.083 E0.01784
G1 X161.591 Y41.059 E3.22145
G1 X161.520 Y41.237 E0.00843
G1 X162.016 Y41.497 F21000.000
; custom gcode: feature_gcode
;ExternalPerimeter                   ;  ExternalPerimeter
M204 P750 T5000
; custom gcode end: feature_gcode

;TYPE:External perimeter
G1 F2400.000
G1 X161.985 Y41.576 E0.00373
G1 X161.965 Y41.737 E0.00714
G1 X162.012 Y209.437 E7.37970
G1 X88.076 Y209.462 E3.25358
G1 X88.011 Y41.762 E7.37970
G1 X87.990 Y41.601 E0.00714
G1 X87.921 Y41.425 E0.00831
G1 X87.805 Y41.268 E0.00859
G1 X87.629 Y41.134 E0.00975
G1 X87.328 Y41.067 E0.01356
G1 X83.607 Y41.069 E0.16373
G1 X83.019 Y41.053 E0.02588
G1 X83.019 Y40.528 E0.02306
G1 X83.682 Y40.511 E0.02918
G1 X87.160 Y40.510 E0.15306
G1 X89.151 Y40.536 E0.08761
G1 X160.824 Y40.512 E3.15400
G1 X162.815 Y40.485 E0.08761
G1 X166.291 Y40.484 E0.15299
G1 X166.956 Y40.504 E0.02925
G1 X166.956 Y41.025 E0.02292
G1 X166.368 Y41.041 E0.02588
G1 X162.648 Y41.042 E0.16373
G1 X162.347 Y41.109 E0.01356
G1 X162.170 Y41.243 E0.00975
G1 X162.038 Y41.441 E0.01049
G1 X161.932 Y41.505 F21000.000
G1 E-0.08000 F3000.00000
G1 F16800.000
G1 X161.985 Y41.576 E-0.02454
G1 X161.965 Y41.737 E-0.02751
G1 X161.966 Y45.462 E-0.63195
G1 E-0.03600 F3000.00000
G1 X89.930 Y206.511 F21000.000
G1 E0.80000 F2100.00000
; custom gcode: feature_gcode
;SolidInfill                      ;  SolidInfill
M204 P2000 T5000
; custom gcode end: feature_gcode

;TYPE:Solid infill
G1 F6000.000
G1 X90.774 Y207.355 E0.05255
G1 X91.562 Y207.355 E0.03466
G1 X90.180 Y205.973 E0.08598
G1 X90.180 Y205.185 E0.03468
G1 X92.349 Y207.355 E0.13501
G1 X93.137 Y207.354 E0.03466
G1 X90.179 Y204.397 E0.18404
G1 X90.179 Y203.609 E0.03468
G1 X93.924 Y207.354 E0.23307
G1 X94.712 Y207.354 E0.03466
G1 X90.179 Y202.821 E0.28211
G1 X90.179 Y202.033 E0.03468
G1 X95.499 Y207.354 E0.33114
G1 X96.287 Y207.353 E0.03466
G1 X90.178 Y201.245 E0.38017
G1 X90.178 Y200.456 E0.03468
G1 X97.075 Y207.353 E0.42920
G1 X97.862 Y207.353 E0.03466
G1 X90.178 Y199.668 E0.47823
G1 X90.177 Y198.880 E0.03468
G1 X98.650 Y207.353 E0.52726
G1 X99.437 Y207.352 E0.03466
G1 X90.177 Y198.092 E0.57629
G1 X90.177 Y197.304 E0.03468
G1 X100.225 Y207.352 E0.62533
G1 X101.012 Y207.352 E0.03466
G1 X90.176 Y196.516 E0.67436
G1 X90.176 Y195.728 E0.03468
G1 X101.800 Y207.351 E0.72339
G1 X102.588 Y207.351 E0.03466
G1 X90.176 Y194.939 E0.77242
G1 X90.176 Y194.151 E0.03468
G1 X103.375 Y207.351 E0.82145
G1 X104.163 Y207.351 E0.03466
G1 X90.175 Y193.363 E0.87048
G1 X90.175 Y192.575 E0.03468
G1 X104.950 Y207.350 E0.91951
G1 X105.738 Y207.350 E0.03466
G1 X90.175 Y191.787 E0.96854
G1 X90.174 Y190.999 E0.03468
G1 X106.525 Y207.350 E1.01758
G1 X107.313 Y207.350 E0.03466
G1 X90.174 Y190.211 E1.06661
G1 X90.174 Y189.423 E0.03468
G1 X108.101 Y207.349 E1.11564
G1 X108.888 Y207.349 E0.03466
G1 X90.173 Y188.634 E1.16467
G1 X90.173 Y187.846 E0.03468
G1 X109.676 Y207.349 E1.21370
G1 X110.463 Y207.349 E0.03466
G1 X90.173 Y187.058 E1.26273
G1 X90.172 Y186.270 E0.03468
G1 X111.251 Y207.348 E1.31176
G1 X112.038 Y207.348 E0.03466
G1 X90.172 Y185.482 E1.36080
G1 X90.172 Y184.694 E0.03468
G1 X112.826 Y207.348 E1.40983
G1 X113.614 Y207.348 E0.03466
G1 X90.172 Y183.906 E1.45886
G1 X90.171 Y183.117 E0.03468
G1 X114.401 Y207.347 E1.50789
G1 X115.189 Y207.347 E0.03466
G1 X90.171 Y182.329 E1.55692
G1 X90.171 Y181.541 E0.03468
G1 X115.976 Y207.347 E1.60595
G1 X116.764 Y207.346 E0.03466
G1 X90.170 Y180.753 E1.65498
G1 X90.170 Y179.965 E0.03468
G1 X117.551 Y207.346 E1.70402
G1 X118.339 Y207.346 E0.03466
G1 X90.170 Y179.177 E1.75305
G1 X90.169 Y178.389 E0.03468
G1 X119.126 Y207.346 E1.80208
G1 X119.914 Y207.345 E0.03466
G1 X90.169 Y177.601 E1.85111
G1 X90.169 Y176.812 E0.03468
G1 X120.702 Y207.345 E1.90014
G1 X121.489 Y207.345 E0.03466
G1 X90.169 Y176.024 E1.94917
G1 X90.168 Y175.236 E0.03468
G1 X122.277 Y207.345 E1.99820
G1 X123.064 Y207.344 E0.03466
G1 X90.168 Y174.448 E2.04724
G1 X90.168 Y173.660 E0.03468
G1 X123.852 Y207.344 E2.09627
G1 X124.639 Y207.344 E0.03466
G1 X90.167 Y172.872 E2.14530
G1 X90.167 Y172.084 E0.03468
G1 X125.427 Y207.344 E2.19433
G1 X126.215 Y207.343 E0.03466
G1 X90.167 Y171.295 E2.24336
G1 X90.166 Y170.507 E0.03468
G1 X127.002 Y207.343 E2.29239
G1 X127.790 Y207.343 E0.03466
G1 X90.166 Y169.719 E2.34142
G1 X90.166 Y168.931 E0.03468
G1 X128.577 Y207.343 E2.39046
G1 X129.365 Y207.342 E0.03466
G1 X90.166 Y168.143 E2.43949
G1 X90.165 Y167.355 E0.03468
G1 X130.152 Y207.342 E2.48852
G1 X130.940 Y207.342 E0.03466
G1 X90.165 Y166.567 E2.53755
G1 X90.165 Y165.779 E0.03468
G1 X131.728 Y207.341 E2.58658
G1 X132.515 Y207.341 E0.03466
G1 X90.164 Y164.990 E2.63561
G1 X90.164 Y164.202 E0.03468
G1 X133.303 Y207.341 E2.68464
G1 X134.090 Y207.341 E0.03466
G1 X90.164 Y163.414 E2.73368
G1 X90.163 Y162.626 E0.03468
G1 X134.878 Y207.340 E2.78271
G1 X135.665 Y207.340 E0.03466
G1 X90.163 Y161.838 E2.83174
G1 X90.163 Y161.050 E0.03468
G1 X136.453 Y207.340 E2.88077
G1 X137.241 Y207.340 E0.03466
G1 X90.162 Y160.262 E2.92980
G1 X90.162 Y159.474 E0.03468
G1 X138.028 Y207.339 E2.97883
G1 X138.816 Y207.339 E0.03466
G1 X90.162 Y158.685 E3.02786
G1 X90.162 Y157.897 E0.03468
G1 X139.603 Y207.339 E3.07690
G1 X140.391 Y207.339 E0.03466
G1 X90.161 Y157.109 E3.12593
G1 X90.161 Y156.321 E0.03468
G1 X141.178 Y207.338 E3.17496
G1 X141.966 Y207.338 E0.03466
G1 X90.161 Y155.533 E3.22399
G1 X90.160 Y154.745 E0.03468
G1 X142.753 Y207.338 E3.27302
G1 X143.541 Y207.338 E0.03466
G1 X90.160 Y153.957 E3.32205
G1 X90.160 Y153.168 E0.03468
G1 X144.329 Y207.337 E3.37108
G1 X145.116 Y207.337 E0.03466
G1 X90.159 Y152.380 E3.42012
G1 X90.159 Y151.592 E0.03468
G1 X145.904 Y207.337 E3.46915
G1 X146.691 Y207.337 E0.03466
G1 X90.159 Y150.804 E3.51818
G1 X90.159 Y150.016 E0.03468
G1 X147.479 Y207.336 E3.56721
G1 X148.266 Y207.336 E0.03466
G1 X90.158 Y149.228 E3.61624
G1 X90.158 Y148.440 E0.03468
G1 X149.054 Y207.336 E3.66527
G1 X149.842 Y207.335 E0.03466
G1 X90.158 Y147.652 E3.71430
G1 X90.157 Y146.863 E0.03468
G1 X150.629 Y207.335 E3.76334
G1 X151.417 Y207.335 E0.03466
G1 X90.157 Y146.075 E3.81237
G1 X90.157 Y145.287 E0.03468
G1 X152.204 Y207.335 E3.86140
G1 X152.992 Y207.334 E0.03466
G1 X90.156 Y144.499 E3.91043
G1 X90.156 Y143.711 E0.03468
G1 X153.779 Y207.334 E3.95946
G1 X154.567 Y207.334 E0.03466
G1 X90.156 Y142.923 E4.00849
G1 X90.156 Y142.135 E0.03468
G1 X155.355 Y207.334 E4.05752
G1 X156.142 Y207.333 E0.03466
G1 X90.155 Y141.346 E4.10656
G1 X90.155 Y140.558 E0.03468
G1 X156.930 Y207.333 E4.15559
G1 X157.717 Y207.333 E0.03466
G1 X90.155 Y139.770 E4.20462
G1 X90.154 Y138.982 E0.03468
G1 X158.505 Y207.333 E4.25365
G1 X159.292 Y207.332 E0.03466
G1 X90.154 Y138.194 E4.30268
G1 X90.154 Y137.406 E0.03468
G1 X159.905 Y207.157 E4.34085
G1 X159.905 Y206.369 E0.03468
G1 X90.153 Y136.618 E4.34085
G1 X90.153 Y135.830 E0.03468
G1 X159.905 Y205.581 E4.34086
G1 X159.905 Y204.793 E0.03468
G1 X90.153 Y135.041 E4.34086
G1 X90.152 Y134.253 E0.03468
G1 X159.904 Y204.005 E4.34087
G1 X159.904 Y203.217 E0.03468
G1 X90.152 Y133.465 E4.34087
G1 X90.152 Y132.677 E0.03468
G1 X159.904 Y202.429 E4.34088
G1 X159.904 Y201.641 E0.03468
G1 X90.152 Y131.889 E4.34088
G1 X90.151 Y131.101 E0.03468
G1 X159.904 Y200.853 E4.34089
G1 X159.903 Y200.065 E0.03468
G1 X90.151 Y130.313 E4.34089
G1 X90.151 Y129.524 E0.03468
G1 X159.903 Y199.277 E4.34090
G1 X159.903 Y198.489 E0.03468
G1 X90.150 Y128.736 E4.34090
G1 X90.150 Y127.948 E0.03468
G1 X159.903 Y197.701 E4.34091
G1 X159.902 Y196.913 E0.03468
G1 X90.150 Y127.160 E4.34091
G1 X90.149 Y126.372 E0.03468
G1 X159.902 Y196.125 E4.34092
G1 X159.902 Y195.337 E0.03468
G1 X90.149 Y125.584 E4.34092
G1 X90.149 Y124.796 E0.03468
G1 X159.902 Y194.549 E4.34093
G1 X159.902 Y193.761 E0.03468
G1 X90.149 Y124.008 E4.34093
G1 X90.148 Y123.219 E0.03468
G1 X159.901 Y192.973 E4.34094
G1 X159.901 Y192.184 E0.03468
G1 X90.148 Y122.431 E4.34094
G1 X90.148 Y121.643 E0.03468
G1 X159.901 Y191.396 E4.34095
G1 X159.901 Y190.608 E0.03468
G1 X90.147 Y120.855 E4.34095
G1 X90.147 Y120.067 E0.03468
G1 X159.900 Y189.820 E4.34096
G1 X159.900 Y189.032 E0.03468
G1 X90.147 Y119.279 E4.34096
G1 X90.146 Y118.491 E0.03468
G1 X159.900 Y188.244 E4.34097
G1 X159.900 Y187.456 E0.03468
G1 X90.146 Y117.702 E4.34097
G1 X90.146 Y116.914 E0.03468
G1 X159.900 Y186.668 E4.34098
G1 X159.899 Y185.880 E0.03468
G1 X90.145 Y116.126 E4.34098
G1 X90.145 Y115.338 E0.03468
G1 X159.899 Y185.092 E4.34099
G1 X159.899 Y184.304 E0.03468
G1 X90.145 Y114.550 E4.34099
G1 X90.145 Y113.762 E0.03468
G1 X159.899 Y183.516 E4.34100
G1 X159.898 Y182.728 E0.03468
G1 X90.144 Y112.974 E4.34100
G1 X90.144 Y112.186 E0.03468
G1 X159.898 Y181.940 E4.34101
G1 X159.898 Y181.152 E0.03468
G1 X90.144 Y111.397 E4.34101
G1 X90.143 Y110.609 E0.03468
G1 X159.898 Y180.364 E4.34102
G1 X159.898 Y179.576 E0.03468
G1 X90.143 Y109.821 E4.34102
G1 X90.143 Y109.033 E0.03468
G1 X159.897 Y178.788 E4.34103
G1 X159.897 Y178.000 E0.03468
G1 X90.142 Y108.245 E4.34103
G1 X90.142 Y107.457 E0.03468
G1 X159.897 Y177.212 E4.34104
G1 X159.897 Y176.423 E0.03468
G1 X90.142 Y106.669 E4.34104
G1 X90.142 Y105.881 E0.03468
G1 X159.896 Y175.635 E4.34105
G1 X159.896 Y174.847 E0.03468
G1 X90.141 Y105.092 E4.34105
G1 X90.141 Y104.304 E0.03468
G1 X159.896 Y174.059 E4.34106
G1 X159.896 Y173.271 E0.03468
G1 X90.141 Y103.516 E4.34106
G1 X90.140 Y102.728 E0.03468
G1 X159.896 Y172.483 E4.34107
G1 X159.895 Y171.695 E0.03468
G1 X90.140 Y101.940 E4.34107
G1 X90.140 Y101.152 E0.03468
G1 X159.895 Y170.907 E4.34108
G1 X159.895 Y170.119 E0.03468
G1 X90.139 Y100.364 E4.34108
G1 X90.139 Y99.575 E0.03468
G1 X159.895 Y169.331 E4.34109
G1 X159.894 Y168.543 E0.03468
G1 X90.139 Y98.787 E4.34110
G1 X90.139 Y97.999 E0.03468
G1 X159.894 Y167.755 E4.34110
G1 X159.894 Y166.967 E0.03468
G1 X90.138 Y97.211 E4.34111
G1 X90.138 Y96.423 E0.03468
G1 X159.894 Y166.179 E4.34111
G1 X159.894 Y165.391 E0.03468
G1 X90.138 Y95.635 E4.34112
G1 X90.137 Y94.847 E0.03468
G1 X159.893 Y164.603 E4.34112
G1 X159.893 Y163.815 E0.03468
G1 X90.137 Y94.059 E4.34113
G1 X90.137 Y93.270 E0.03468
G1 X159.893 Y163.027 E4.34113
G1 X159.893 Y162.239 E0.03468
G1 X90.136 Y92.482 E4.34114
G1 X90.136 Y91.694 E0.03468
G1 X159.892 Y161.451 E4.34114
G1 X159.892 Y160.662 E0.03468
G1 X90.136 Y90.906 E4.34115
G1 X90.135 Y90.118 E0.03468
G1 X159.892 Y159.874 E4.34115
G1 X159.892 Y159.086 E0.03468
G1 X90.135 Y89.330 E4.34116
G1 X90.135 Y88.542 E0.03468
G1 X159.892 Y158.298 E4.34116
