G10 P0 R240 S240 ; sets the standby temperature
; generated by SuperSlicer 2.3.55 on 2023-10-04 at 13:45:51 UTC

; TODO: check the size of the extruder and the y-bar clearance. Optimize & test supports.

; external perimeters extrusion width = 0.39mm
; perimeters extrusion width = 0.40mm
; infill extrusion width = 0.60mm
; solid infill extrusion width = 0.60mm
; top infill extrusion width = 0.32mm
; first layer extrusion width = 0.45mm

; object:{"name":"Strain_Relief_Spacer_x2","id":"Strain_Relief_Spacer_x2.stl id:0 copy 0","object_center":[126.973961,97.519828,0.000000],"boundingbox_center":[126.973961,97.519828,10.125000],"boundingbox_size":[7.709380,7.709380,20.250000]}
; object:{"name":"Strain_Relief_Body_x1","id":"Strain_Relief_Body_x1.stl id:1 copy 0","object_center":[126.977893,120.324915,0.000000],"boundingbox_center":[126.977893,120.324915,6.443876],"boundingbox_size":[50.426451,38.432966,12.887753]}
; object:{"name":"Strain_Relief_Spacer_x2","id":"Strain_Relief_Spacer_x2.stl id:2 copy 0","object_center":[137.489401,141.149892,0.000000],"boundingbox_center":[137.489401,141.149892,10.125000],"boundingbox_size":[7.709380,7.709380,20.250000]}
; object:{"name":"Display_Mount_Right_x1","id":"Display_Mount_Right_x1.stl id:3 copy 0","object_center":[118.918107,144.659152,0.000000],"boundingbox_center":[118.918107,144.659152,12.303619],"boundingbox_size":[42.100002,22.000000,24.607239]}
; plater:{"center":[125.029612,124.662145,0.000000],"boundingbox_center":[125.029612,124.662145,12.303619],"boundingbox_size":[54.323013,61.994014,24.607239]}

;TYPE:Custom
; custom gcode: start_gcode
M106 P4 S255
M140 S95 ; set bed final temp
M104 S240 ; set extruder final temp
M190 S95 ; wait for bed final temp
M109 S240 ; wait for extruder final temp
;G29
G28
;M98 P"/macros/nozzle/brush.g"
;PRINT_START

G92 E0 ;Reset Extruder
;;G1 Z2.0 F3000 ;Move Z Axis up


G1 X100 Y4.6 Z0.3 F18000.0 ; Move to side a little

G1 X5 Y4.6 Z0.3 F1500.0 E10 ; Draw the second line

G1 X5 Y4.2 Z0.3 F1500.0 E10 ; Draw the third line

G1 X100 Y4.2 Z0.3 F1500.0 E10 ; Draw the third line


;G92 E0;		Reset extruder
;G1 X1 Y10 F6000;
;G1 Z1.7;
;G1 X1 Y60 E140 F50;
;G1 E-<DESTRING> F1500;
;G1 Z4
;G1 X<NEXTX> Y<NEXTY> F12000;
;G92 E0 ;Reset Extruder

;G1 Z2.0 F3000 ;Move Z Axis up
; custom gcode end: start_gcode
M107
G21 ; set units to millimeters
G90 ; use absolute coordinates
M83 ; use relative distances for extrusion
; custom gcode: start_filament_gcode
; Filament gcode
M572 D0 S0.07
; custom gcode end: start_filament_gcode
;LAYER_CHANGE
;Z:0.2
;HEIGHT:0.2
; custom gcode: before_layer_gcode
;BEFORE_LAYER_CHANGE
;0.2

; custom gcode end: before_layer_gcode

G1 Z0.200000 F18000.000
; custom gcode: layer_gcode
;AFTER_LAYER_CHANGE
;0.2
; custom gcode end: layer_gcode

G1 E-0.80000 F3000.00000
G1 Z1.000000 F18000.000
G1 X107.748 Y99.639
G1 Z0.200000
G1 E0.80000 F2100.00000
; custom gcode: feature_gcode
;Skirt
M204 P2000 T5000
; custom gcode end: feature_gcode

;TYPE:Skirt
G1 F2400.000
G1 X109.143 Y98.261 E0.06174
G1 X109.964 Y97.707 E0.03117
G1 X124.092 Y90.950 E0.49298
G1 X125.497 Y90.499 E0.04645
G1 X126.979 Y90.345 E0.04691
G1 X128.456 Y90.500 E0.04676
G1 X129.852 Y90.948 E0.04614
G1 X144.072 Y97.735 E0.49601
G1 X144.989 Y98.364 E0.03501
G1 X146.592 Y100.053 E0.07331
G1 X147.165 Y101.130 E0.03838
G1 X155.901 Y126.364 E0.84062
G1 X156.054 Y127.304 E0.02997
G1 X156.049 Y130.150 E0.08959
G1 X155.957 Y130.877 E0.02308
G1 X155.733 Y131.570 E0.02292
G1 X140.910 Y157.306 E0.93493
G1 X140.510 Y157.869 E0.02173
G1 X140.027 Y158.372 E0.02196
G1 X139.482 Y158.795 E0.02173
G1 X138.874 Y159.137 E0.02195
G1 X137.892 Y159.472 E0.03265
G1 X136.873 Y159.584 E0.03226
G1 X99.229 Y159.584 E1.18502
G1 X98.306 Y159.485 E0.02921
G1 X97.411 Y159.204 E0.02954
G1 X96.324 Y158.555 E0.03985
G1 X95.467 Y157.666 E0.03887
G1 X94.874 Y156.595 E0.03852
G1 X94.571 Y155.372 E0.03967
G1 X94.543 Y134.449 E0.65863
G1 X94.612 Y133.659 E0.02497
G1 X94.833 Y132.831 E0.02698
G1 X106.966 Y100.814 E1.07780
G1 X107.304 Y100.191 E0.02231
G1 X107.710 Y99.686 E0.02042
G1 X108.026 Y99.941 F18000.000
G1 F2400.000
G1 X109.407 Y98.571 E0.06122
G1 X110.162 Y98.063 E0.02866
G1 X124.252 Y91.324 E0.49166
G1 X125.576 Y90.898 E0.04381
G1 X126.979 Y90.752 E0.04439
G1 X128.373 Y90.898 E0.04410
G1 X129.697 Y91.324 E0.04381
G1 X143.890 Y98.099 E0.49505
G1 X144.719 Y98.669 E0.03169
G1 X146.257 Y100.284 E0.07018
G1 X146.781 Y101.267 E0.03507
G1 X155.508 Y126.469 E0.83958
G1 X155.647 Y127.327 E0.02735
G1 X155.642 Y130.133 E0.08834
G1 X155.559 Y130.790 E0.02083
G1 X155.355 Y131.419 E0.02083
G1 X140.565 Y157.090 E0.93264
G1 X139.758 Y158.067 E0.03988
G1 X138.701 Y158.768 E0.03992
G1 X137.799 Y159.075 E0.02999
G1 X136.872 Y159.177 E0.02937
G1 X99.236 Y159.177 E1.18477
G1 X98.384 Y159.085 E0.02698
G1 X97.544 Y158.817 E0.02775
G1 X96.557 Y158.220 E0.03631
G1 X95.778 Y157.401 E0.03557
G1 X95.244 Y156.424 E0.03507
G1 X94.972 Y155.295 E0.03655
G1 X94.950 Y134.450 E0.65619
G1 X95.017 Y133.706 E0.02352
G1 X95.215 Y132.974 E0.02387
G1 X107.344 Y100.967 E1.07746
G1 X107.647 Y100.410 E0.01996
G1 X107.988 Y99.988 E0.01711
G1 X108.303 Y100.244 F18000.000
G1 F2400.000
G1 X109.668 Y98.883 E0.06066
G1 X110.355 Y98.421 E0.02607
G1 X124.408 Y91.700 E0.49038
G1 X125.657 Y91.297 E0.04131
G1 X126.980 Y91.159 E0.04186
G1 X128.293 Y91.298 E0.04158
G1 X129.542 Y91.701 E0.04131
G1 X143.708 Y98.463 E0.49413
G1 X144.448 Y98.973 E0.02829
G1 X145.922 Y100.516 E0.06719
G1 X146.397 Y101.402 E0.03163
G1 X155.115 Y126.576 E0.83865
G1 X155.241 Y127.353 E0.02476
G1 X155.235 Y130.113 E0.08690
G1 X155.162 Y130.700 E0.01863
G1 X154.979 Y131.263 E0.01863
G1 X140.221 Y156.871 E0.93041
G1 X139.485 Y157.765 E0.03646
G1 X138.525 Y158.401 E0.03627
G1 X137.707 Y158.679 E0.02716
G1 X136.868 Y158.770 E0.02658
G1 X99.242 Y158.770 E1.18445
G1 X98.465 Y158.686 E0.02459
G1 X97.701 Y158.442 E0.02525
G1 X96.810 Y157.900 E0.03285
G1 X96.101 Y157.154 E0.03239
G1 X95.618 Y156.263 E0.03190
G1 X95.375 Y155.230 E0.03339
G1 X95.358 Y134.450 E0.65413
G1 X95.421 Y133.759 E0.02187
G1 X95.596 Y133.115 E0.02100
G1 X107.721 Y101.120 E1.07707
G1 X107.993 Y100.625 E0.01781
G1 X108.265 Y100.291 E0.01356
G1 X108.607 Y100.522 F18000.000
G1 F2400.000
G1 X109.927 Y99.197 E0.05887
G1 X110.548 Y98.780 E0.02354
G1 X124.566 Y92.075 E0.48915
G1 X125.738 Y91.696 E0.03880
G1 X126.976 Y91.566 E0.03918
G1 X128.210 Y91.696 E0.03905
G1 X129.383 Y92.075 E0.03880
G1 X143.530 Y98.829 E0.49350
G1 X144.176 Y99.276 E0.02472
G1 X145.587 Y100.747 E0.06418
G1 X146.014 Y101.540 E0.02834
G1 X154.724 Y126.689 E0.83780
G1 X154.834 Y127.376 E0.02193
G1 X154.829 Y130.099 E0.08569
G1 X154.603 Y131.107 E0.03253
G1 X139.875 Y156.657 E0.92834
G1 X139.215 Y157.461 E0.03274
G1 X138.352 Y158.033 E0.03260
G1 X137.621 Y158.281 E0.02430
G1 X136.868 Y158.363 E0.02384
G1 X99.248 Y158.363 E1.18426
G1 X98.546 Y158.287 E0.02220
G1 X97.856 Y158.065 E0.02284
G1 X97.056 Y157.576 E0.02953
G1 X96.423 Y156.903 E0.02907
G1 X95.995 Y156.107 E0.02846
G1 X95.778 Y155.168 E0.03034
G1 X95.765 Y134.455 E0.65202
G1 X95.825 Y133.814 E0.02028
G1 X95.978 Y133.256 E0.01821
G1 X108.096 Y101.278 E1.07649
G1 X108.574 Y100.571 E0.02685
; printing object Strain_Relief_Spacer_x2.stl id:0 copy 0
G1 E-0.08000 F3000.00000
G1 F14400.000
G1 X109.927 Y99.197 E-0.38177
G1 X110.548 Y98.780 E-0.14798
G1 X111.251 Y98.444 E-0.15425
G1 E-0.03600 F3000.00000
G1 Z0.600000 F18000.000
G1 X124.447 Y97.960
G1 Z0.200000
G1 E0.80000 F2100.00000
; custom gcode: feature_gcode
;ExternalPerimeter                   ;  ExternalPerimeter
M204 P750 T5000
; custom gcode end: feature_gcode

;TYPE:External perimeter
G1 F2017.818
G1 X124.481 Y98.169 E0.00665
G1 X124.641 Y98.612 E0.01482
G1 X124.879 Y99.018 E0.01482
G1 X125.186 Y99.375 E0.01482
G1 X125.551 Y99.667 E0.01472
G1 X125.826 Y99.825 E0.01000
G1 X126.119 Y99.949 E0.01000
G1 X126.572 Y100.064 E0.01472
G1 X127.042 Y100.095 E0.01482
G1 X127.510 Y100.039 E0.01482
G1 X127.956 Y99.901 E0.01472
G1 X128.241 Y99.762 E0.01000
G1 X128.508 Y99.589 E0.01000
G1 X128.857 Y99.278 E0.01472
G1 X129.145 Y98.906 E0.01482
G1 X129.360 Y98.490 E0.01472
G1 X129.461 Y98.189 E0.01000
G1 X129.525 Y97.878 E0.01000
G1 X129.548 Y97.411 E0.01472
G1 X129.485 Y96.948 E0.01472
G1 X129.396 Y96.643 E0.01000
G1 X129.269 Y96.352 E0.01000
G1 X129.021 Y95.956 E0.01472
G1 X128.702 Y95.609 E0.01482
G1 X128.325 Y95.327 E0.01482
G1 X127.903 Y95.117 E0.01482
G1 X127.454 Y94.989 E0.01472
G1 X127.139 Y94.950 E0.00999
G1 X126.827 Y94.948 E0.00981
G1 X126.365 Y95.017 E0.01472
G1 X125.917 Y95.171 E0.01490
G1 X125.641 Y95.316 E0.00981
G1 X125.380 Y95.497 E0.00999
G1 X125.040 Y95.818 E0.01472
G1 X124.763 Y96.198 E0.01483
G1 X124.559 Y96.625 E0.01490
G1 X124.469 Y96.924 E0.00981
G1 X124.414 Y97.236 E0.00999
G1 X124.405 Y97.704 E0.01472
G1 X124.437 Y97.901 E0.00629
G1 X124.283 Y98.094 F18000.000
G1 X124.282 Y97.932
G1 F2037.926
G1 X124.251 Y97.424 E0.01604
G1 X124.277 Y97.130 E0.00928
G1 X124.326 Y96.881 E0.00797
G1 X124.484 Y96.413 E0.01557
G1 X124.618 Y96.151 E0.00925
G1 X124.779 Y95.905 E0.00926
G1 X125.107 Y95.536 E0.01554
G1 X125.332 Y95.346 E0.00928
G1 X125.541 Y95.203 E0.00797
G1 X125.983 Y94.982 E0.01556
G1 X126.263 Y94.890 E0.00926
G1 X126.550 Y94.829 E0.00925
G1 X127.044 Y94.797 E0.01557
G1 X127.296 Y94.814 E0.00797
G1 X127.590 Y94.866 E0.00940
G1 X127.876 Y94.949 E0.00938
G1 X128.148 Y95.062 E0.00926
G1 X128.573 Y95.314 E0.01554
G1 X128.801 Y95.499 E0.00925
G1 X129.011 Y95.710 E0.00938
G1 X129.196 Y95.944 E0.00938
G1 X129.353 Y96.192 E0.00926
G1 X129.554 Y96.644 E0.01554
G1 X129.633 Y96.927 E0.00928
G1 X129.676 Y97.177 E0.00797
G1 X129.694 Y97.667 E0.01544
G1 X129.624 Y98.152 E0.01544
G1 X129.554 Y98.396 E0.00797
G1 X129.444 Y98.669 E0.00928
G1 X129.196 Y99.096 E0.01554
G1 X129.013 Y99.327 E0.00926
G1 X128.807 Y99.536 E0.00925
G1 X128.412 Y99.833 E0.01557
G1 X128.191 Y99.958 E0.00797
G1 X127.921 Y100.074 E0.00927
G1 X127.444 Y100.203 E0.01554
G1 X127.152 Y100.239 E0.00926
G1 X126.857 Y100.242 E0.00928
G1 X126.408 Y100.185 E0.01425
G1 X126.123 Y100.108 E0.00928
G1 X125.846 Y100.000 E0.00938
G1 X125.582 Y99.862 E0.00938
G1 X125.338 Y99.698 E0.00926
G1 X124.971 Y99.367 E0.01554
G1 X124.783 Y99.140 E0.00927
G1 X124.643 Y98.929 E0.00797
G1 X124.426 Y98.485 E0.01557
G1 X124.337 Y98.205 E0.00925
G1 X124.294 Y97.991 E0.00686
G1 X124.605 Y97.697 F18000.000
; stop printing object Strain_Relief_Spacer_x2.stl id:0 copy 0
; printing object Strain_Relief_Body_x1.stl id:1 copy 0
G1 E-0.08000 F3000.00000
G1 F14400.000
G1 X124.251 Y97.424 E-0.11264
G1 X124.277 Y97.130 E-0.05834
G1 X124.326 Y96.881 E-0.05013
G1 X124.484 Y96.413 E-0.09787
G1 X124.618 Y96.151 E-0.05818
G1 X124.779 Y95.905 E-0.05819
G1 X125.107 Y95.536 E-0.09769
G1 X125.332 Y95.346 E-0.05836
G1 X125.541 Y95.203 E-0.05012
G1 X125.733 Y95.107 E-0.04248
G1 E-0.03600 F3000.00000
G1 Z0.600000 F18000.000
G1 X116.998 Y101.914
G1 Z0.200000
G1 E0.80000 F2100.00000
; custom gcode: feature_gcode
;Perimeter                        ;  Perimeter
M204 P1000 T5000
; custom gcode end: feature_gcode

;TYPE:Perimeter
G1 F2275.657
G1 X117.679 Y104.236 E0.07617
G1 X117.340 Y104.235 E0.01066
G1 X116.919 Y104.654 E0.01870
G1 X116.906 Y103.864 E0.02488
G1 X116.837 Y103.478 E0.01234
G1 X116.740 Y103.175 E0.01004
G1 X116.607 Y102.878 E0.01024
G1 X116.323 Y102.443 E0.01635
G1 X115.837 Y101.903 E0.02287
G1 X116.938 Y101.914 E0.03466
G1 E-0.08000 F3000.00000
G1 F14400.000
G1 X117.679 Y104.236 E-0.48248
G1 X117.340 Y104.235 E-0.06704
G1 X116.919 Y104.654 E-0.11757
G1 X116.918 Y104.569 E-0.01691
G1 E-0.03600 F3000.00000
G1 X115.156 Y107.605 F18000.000
G1 E0.80000 F2100.00000
G1 F2400.000
G1 X115.105 Y130.103 E0.70821
G1 X108.593 Y130.088 E0.20500
G1 X108.613 Y127.636 E0.07720
G1 X108.594 Y127.279 E0.01126
G1 X108.529 Y126.887 E0.01251
G1 X108.420 Y126.504 E0.01251
G1 X108.259 Y126.109 E0.01345
G1 X107.933 Y125.565 E0.01997
G1 X107.660 Y125.235 E0.01345
G1 X107.350 Y124.937 E0.01355
G1 X112.300 Y119.850 E0.22340
G1 X112.322 Y107.251 E0.39664
G1 X113.091 Y107.571 E0.02621
G1 X113.589 Y107.689 E0.01613
G1 X114.005 Y107.731 E0.01317
G1 X114.439 Y107.725 E0.01364
G1 X115.097 Y107.615 E0.02101
G1 X115.565 Y107.026 F18000.000
G1 F2400.000
G1 X115.512 Y130.438 E0.73701
G1 X115.209 Y130.722 E0.01305
G1 X114.910 Y130.509 E0.01155
G1 X108.085 Y130.494 E0.21487
G1 X108.187 Y130.023 E0.01517
G1 X108.206 Y127.645 E0.07487
G1 X108.189 Y127.323 E0.01015
G1 X108.131 Y126.976 E0.01108
G1 X108.035 Y126.637 E0.01108
G1 X107.894 Y126.291 E0.01175
G1 X107.600 Y125.800 E0.01801
G1 X107.361 Y125.513 E0.01176
G1 X107.108 Y125.268 E0.01109
G1 X106.737 Y124.983 E0.01472
G1 X111.893 Y119.685 E0.23272
G1 X111.916 Y106.414 E0.41775
G1 X112.349 Y106.755 E0.01733
G1 X112.674 Y106.956 E0.01203
G1 X113.217 Y107.182 E0.01852
G1 X113.657 Y107.287 E0.01424
G1 X114.023 Y107.324 E0.01160
G1 X114.402 Y107.319 E0.01193
G1 X114.977 Y107.223 E0.01834
G1 X115.508 Y107.045 E0.01763
G1 X115.974 Y106.252 F18000.000
G1 F2400.000
G1 X115.918 Y130.615 E0.76693
G1 X115.245 Y131.247 E0.02907
G1 X114.780 Y130.916 E0.01796
G1 X108.155 Y130.901 E0.20856
G1 X107.339 Y131.329 E0.02899
G1 X107.667 Y130.496 E0.02817
G1 X107.780 Y129.978 E0.01669
G1 X107.799 Y127.654 E0.07315
G1 X107.783 Y127.367 E0.00904
G1 X107.733 Y127.065 E0.00965
G1 X107.650 Y126.770 E0.00965
G1 X107.529 Y126.474 E0.01006
G1 X107.267 Y126.036 E0.01606
G1 X107.062 Y125.790 E0.01007
G1 X106.842 Y125.577 E0.00966
G1 X106.598 Y125.390 E0.00966
G1 X106.322 Y125.223 E0.01016
G1 X105.718 Y124.982 E0.02048
G1 X106.595 Y124.546 E0.03083
G1 X111.486 Y119.519 E0.22078
G1 X111.511 Y105.631 E0.43719
G1 X111.797 Y105.555 E0.00934
G1 X111.912 Y105.754 E0.00723
G1 X112.116 Y106.008 E0.01025
G1 X112.337 Y106.228 E0.00983
G1 X112.583 Y106.421 E0.00983
G1 X112.860 Y106.593 E0.01028
G1 X113.343 Y106.794 E0.01645
G1 X113.725 Y106.884 E0.01235
G1 X114.041 Y106.916 E0.01002
G1 X114.366 Y106.912 E0.01022
G1 X114.878 Y106.826 E0.01635
G1 X115.187 Y106.723 E0.01027
G1 X115.484 Y106.585 E0.01030
G1 X115.924 Y106.286 E0.01675
G1 X115.656 Y105.969 F18000.000
; custom gcode: feature_gcode
;ExternalPerimeter                   ;  ExternalPerimeter
M204 P750 T5000
; custom gcode end: feature_gcode

;TYPE:External perimeter
G1 F1986.441
G1 X115.901 Y105.738 E0.01059
G1 X116.174 Y105.370 E0.01440
G1 X116.299 Y105.131 E0.00850
G1 X116.395 Y104.884 E0.00835
G1 X116.463 Y104.627 E0.00835
G1 X116.502 Y104.359 E0.00852
G1 X116.494 Y103.904 E0.01434
G1 X116.436 Y103.578 E0.01044
G1 X116.355 Y103.323 E0.00843
G1 X116.244 Y103.076 E0.00850
G1 X115.995 Y102.695 E0.01433
G1 X115.814 Y102.494 E0.00851
G1 X115.615 Y102.318 E0.00837
G1 X115.396 Y102.167 E0.00839
G1 X115.213 Y102.071 E0.00648
G1 X114.910 Y101.950 E0.01027
G1 X114.647 Y101.890 E0.00851
G1 X113.954 Y101.866 E0.02182
G1 X113.693 Y101.888 E0.00826
G1 X113.428 Y101.947 E0.00853
G1 X113.125 Y102.067 E0.01027
G1 X112.942 Y102.161 E0.00648
G1 X112.722 Y102.312 E0.00839
G1 X112.522 Y102.487 E0.00837
G1 X112.340 Y102.687 E0.00851
G1 X112.090 Y103.067 E0.01433
G1 X111.978 Y103.313 E0.00850
G1 X111.895 Y103.567 E0.00843
G1 X111.836 Y103.894 E0.01044
G1 X111.826 Y104.354 E0.01450
G1 X111.911 Y104.808 E0.01454
G1 X112.026 Y105.124 E0.01059
G1 X112.254 Y105.521 E0.01439
G1 X112.423 Y105.731 E0.00850
G1 X112.611 Y105.918 E0.00835
G1 X112.820 Y106.083 E0.00836
G1 X113.049 Y106.225 E0.00850
G1 X113.470 Y106.400 E0.01436
G1 X113.793 Y106.477 E0.01044
G1 X114.059 Y106.503 E0.00842
G1 X114.329 Y106.500 E0.00849
G1 X114.778 Y106.425 E0.01433
G1 X115.034 Y106.339 E0.00851
G1 X115.280 Y106.225 E0.00852
G1 X115.607 Y106.002 E0.01246
G1 X115.973 Y106.082 F18000.000
G1 E-0.08000 F3000.00000
G1 F14400.000
G1 X115.901 Y105.738 E-0.07833
G1 X116.174 Y105.370 E-0.09054
G1 X116.299 Y105.131 E-0.05341
G1 X116.395 Y104.884 E-0.05252
G1 X116.463 Y104.627 E-0.05253
G1 X116.502 Y104.359 E-0.05360
G1 X116.494 Y103.904 E-0.09013
G1 X116.436 Y103.578 E-0.06561
G1 X116.355 Y103.323 E-0.05299
G1 X116.244 Y103.076 E-0.05343
G1 X116.131 Y102.903 E-0.04091
G1 E-0.03600 F3000.00000
G1 X106.138 Y125.593 F18000.000
G1 E0.80000 F2100.00000
