G10 P0 R225 S225 ; sets the standby temperature
; generated by SuperSlicer 2.3.55 on 2023-05-31 at 10:14:36 UTC

; TODO: check the size of the extruder and the y-bar clearance. Optimize & test supports.

; external perimeters extrusion width = 0.39mm
; perimeters extrusion width = 0.60mm
; infill extrusion width = 0.60mm
; solid infill extrusion width = 0.60mm
; top infill extrusion width = 0.32mm
; support material extrusion width = 0.40mm
; first layer extrusion width = 0.45mm

; object:{"name":"TH_Lower_Clip_x3","id":"TH_Lower_Clip_x3.stl id:0 copy 0","object_center":[124.992243,140.224297,0.000000],"boundingbox_center":[124.992243,140.224297,2.200073],"boundingbox_size":[22.000046,29.929306,4.400146]}
; object:{"name":"TH_Lower_Clip_Mirror_x3","id":"TH_Lower_Clip_Mirror_x3.stl id:1 copy 0","object_center":[147.499770,109.785142,0.000000],"boundingbox_center":[147.499770,109.785142,2.199997],"boundingbox_size":[22.015869,29.948914,4.399994]}
; object:{"name":"TH_Lower_Clip_x3","id":"TH_Lower_Clip_x3.stl id:2 copy 0","object_center":[102.492212,140.224297,0.000000],"boundingbox_center":[102.492212,140.224297,2.200073],"boundingbox_size":[22.000046,29.929306,4.400146]}
; object:{"name":"TH_Lower_Clip_Mirror_x3","id":"TH_Lower_Clip_Mirror_x3.stl id:3 copy 0","object_center":[124.999392,109.785142,0.000000],"boundingbox_center":[124.999392,109.785142,2.199997],"boundingbox_size":[22.015869,29.948914,4.399994]}
; object:{"name":"TH_Lower_Clip_x3","id":"TH_Lower_Clip_x3.stl id:4 copy 0","object_center":[102.491864,109.794991,0.000000],"boundingbox_center":[102.491864,109.794991,2.200073],"boundingbox_size":[22.000046,29.929306,4.400146]}
; object:{"name":"TH_Lower_Clip_Mirror_x3","id":"TH_Lower_Clip_Mirror_x3.stl id:5 copy 0","object_center":[147.499770,140.214908,0.000000],"boundingbox_center":[147.499770,140.214908,2.199997],"boundingbox_size":[22.015869,29.948914,4.399994]}
; plater:{"center":[124.999773,125.000025,0.000000],"boundingbox_center":[124.999773,125.000025,2.200073],"boundingbox_size":[67.015863,60.378680,4.400146]}

;TYPE:Custom
; custom gcode: start_gcode
M106 P4 S255
M140 S105 ; set bed final temp
M104 S235 ; set extruder final temp
M190 S105 ; wait for bed final temp
M109 S235 ; wait for extruder final temp
;G29
G28
;M98 P"/macros/nozzle/brush.g"
;PRINT_START

G92 E0 ;Reset Extruder
;;G1 Z2.0 F3000 ;Move Z Axis up


G1 X100 Y4.6 Z0.3 F18000.0 ; Move to side a little

G1 X5 Y4.6 Z0.3 F1500.0 E10 ; Draw the second line

G1 X5 Y4.2 Z0.3 F1500.0 E10 ; Draw the third line

G1 X100 Y4.2 Z0.3 F1500.0 E10 ; Draw the third line


;G92 E0;		Reset extruder
;G1 X1 Y10 F6000;
;G1 Z1.7;
;G1 X1 Y60 E140 F50;
;G1 E-<DESTRING> F1500;
;G1 Z4
;G1 X<NEXTX> Y<NEXTY> F12000;
;G92 E0 ;Reset Extruder

;G1 Z2.0 F3000 ;Move Z Axis up
; custom gcode end: start_gcode
M107
G21 ; set units to millimeters
G90 ; use absolute coordinates
M83 ; use relative distances for extrusion
; custom gcode: start_filament_gcode
; Filament gcode
M572 D0 S0.05
; custom gcode end: start_filament_gcode
;LAYER_CHANGE
;Z:0.2
;HEIGHT:0.2
; custom gcode: before_layer_gcode
;BEFORE_LAYER_CHANGE
;0.2

; custom gcode end: before_layer_gcode

G1 Z0.200000 F18000.000
; custom gcode: layer_gcode
;AFTER_LAYER_CHANGE
;0.2
; custom gcode end: layer_gcode

G1 E-0.80000 F3000.00000
G1 Z1.000000 F18000.000
G1 X88.481 Y91.984
G1 Z0.200000
G1 E0.80000 F2100.00000
; custom gcode: feature_gcode
;Skirt
M204 P2000 T5000
; custom gcode end: feature_gcode

;TYPE:Skirt
G1 F2400.000
G1 X89.527 Y91.219 E0.03918
G1 X90.721 Y90.715 E0.03918
G1 X92.005 Y90.498 E0.03936
G1 X136.512 Y90.471 E1.34530
G1 X158.458 Y90.541 E0.66339
G1 X159.893 Y90.934 E0.04497
G1 X161.170 Y91.687 E0.04480
G1 X162.208 Y92.753 E0.04497
G1 X162.930 Y94.054 E0.04497
G1 X163.216 Y95.042 E0.03109
G1 X163.317 Y96.065 E0.03109
G1 X163.292 Y153.317 E1.73056
G1 X163.225 Y154.133 E0.02474
G1 X163.041 Y154.925 E0.02457
G1 X162.743 Y155.687 E0.02474
G1 X162.340 Y156.393 E0.02457
G1 X161.792 Y157.084 E0.02668
G1 X160.407 Y158.472 E0.05926
G1 X159.521 Y159.188 E0.03443
G1 X158.858 Y159.559 E0.02298
G1 X158.156 Y159.836 E0.02280
G1 X157.417 Y160.016 E0.02298
G1 X156.667 Y160.095 E0.02280
G1 X93.435 Y160.099 E1.91132
G1 X92.631 Y160.029 E0.02439
G1 X91.840 Y159.843 E0.02457
G1 X91.089 Y159.547 E0.02439
G1 X90.389 Y159.147 E0.02439
G1 X89.701 Y158.602 E0.02651
G1 X88.313 Y157.219 E0.05926
G1 X87.599 Y156.339 E0.03426
G1 X87.229 Y155.681 E0.02280
G1 X86.950 Y154.980 E0.02280
G1 X86.769 Y154.248 E0.02280
G1 X86.686 Y153.498 E0.02280
G1 X86.682 Y96.013 E1.73760
G1 X86.753 Y95.210 E0.02439
G1 X86.938 Y94.424 E0.02439
G1 X87.234 Y93.674 E0.02439
G1 X87.634 Y92.973 E0.02439
G1 X88.442 Y92.029 E0.03754
G1 X88.749 Y92.294 F18000.000
G1 F2400.000
G1 X89.744 Y91.564 E0.03731
G1 X90.855 Y91.100 E0.03637
G1 X92.042 Y90.904 E0.03637
G1 X136.511 Y90.878 E1.34418
G1 X158.369 Y90.940 E0.66069
G1 X159.710 Y91.299 E0.04195
G1 X160.908 Y91.999 E0.04195
G1 X161.882 Y92.995 E0.04212
G1 X162.554 Y94.209 E0.04195
G1 X162.817 Y95.123 E0.02875
G1 X162.910 Y96.070 E0.02875
G1 X162.885 Y153.315 E1.73035
G1 X162.822 Y154.073 E0.02298
G1 X162.650 Y154.813 E0.02298
G1 X162.371 Y155.520 E0.02298
G1 X161.993 Y156.179 E0.02298
G1 X161.484 Y156.818 E0.02467
G1 X160.120 Y158.184 E0.05835
G1 X159.311 Y158.839 E0.03146
G1 X158.038 Y159.446 E0.04263
G1 X156.649 Y159.689 E0.04263
G1 X93.449 Y159.692 E1.91034
G1 X92.698 Y159.628 E0.02281
G1 X91.963 Y159.455 E0.02281
G1 X91.256 Y159.176 E0.02298
G1 X90.602 Y158.799 E0.02281
G1 X89.968 Y158.294 E0.02451
G1 X88.601 Y156.932 E0.05835
G1 X87.948 Y156.128 E0.03129
G1 X87.338 Y154.857 E0.04263
G1 X87.093 Y153.474 E0.04246
G1 X87.089 Y96.022 E1.73659
G1 X87.155 Y95.271 E0.02281
G1 X87.329 Y94.536 E0.02281
G1 X87.605 Y93.840 E0.02264
G1 X87.981 Y93.186 E0.02281
G1 X88.710 Y92.339 E0.03377
; printing object TH_Lower_Clip_x3.stl id:0 copy 0
G1 E-0.08000 F3000.00000
G1 F14400.000
G1 X89.744 Y91.564 E-0.25590
G1 X90.855 Y91.100 E-0.23816
G1 X91.802 Y90.943 E-0.18995
G1 E-0.03600 F3000.00000
G1 Z0.600000 F18000.000
G1 X123.472 Y132.400
G1 Z0.200000
G1 E0.80000 F2100.00000
; custom gcode: feature_gcode
;Perimeter                        ;  Perimeter
M204 P1000 T5000
; custom gcode end: feature_gcode

;TYPE:Perimeter
G1 F2400.000
G1 X123.012 Y132.800 E0.01842
G1 X122.637 Y133.266 E0.01807
G1 X122.392 Y133.696 E0.01496
G1 X122.253 Y134.026 E0.01081
G1 X122.110 Y134.551 E0.01647
G1 X122.062 Y134.910 E0.01095
G1 X122.057 Y135.414 E0.01523
G1 X122.164 Y136.081 E0.02041
G1 X122.376 Y136.655 E0.01849
G1 X122.621 Y137.085 E0.01496
G1 X122.832 Y137.373 E0.01081
G1 X123.233 Y137.789 E0.01744
G1 X123.726 Y138.146 E0.01842
G1 X124.275 Y138.411 E0.01841
G1 X124.831 Y138.566 E0.01744
G1 X125.185 Y138.616 E0.01081
G1 X125.680 Y138.627 E0.01496
G1 X126.285 Y138.542 E0.01848
G1 X126.923 Y138.320 E0.02041
G1 X127.364 Y138.076 E0.01523
G1 X127.657 Y137.864 E0.01094
G1 X128.052 Y137.489 E0.01647
G1 X128.277 Y137.210 E0.01082
G1 X128.539 Y136.791 E0.01496
G1 X128.771 Y136.240 E0.01806
G1 X128.905 Y135.646 E0.01842
G1 X128.933 Y135.037 E0.01841
G1 X128.852 Y134.433 E0.01842
G1 X128.675 Y133.884 E0.01744
G1 X128.522 Y133.561 E0.01080
G1 X128.259 Y133.142 E0.01496
G1 X127.864 Y132.693 E0.01808
G1 X127.412 Y132.334 E0.01745
G1 X127.102 Y132.149 E0.01091
G1 X126.641 Y131.945 E0.01526
G1 X125.985 Y131.780 E0.02044
G1 X125.376 Y131.749 E0.01844
G1 X124.884 Y131.803 E0.01496
G1 X124.534 Y131.884 E0.01084
G1 X123.995 Y132.088 E0.01744
G1 X123.523 Y132.369 E0.01660
G1 X123.732 Y132.719 F18000.000
G1 F2400.000
G1 X123.306 Y133.083 E0.01694
G1 X122.975 Y133.495 E0.01598
G1 X122.758 Y133.876 E0.01325
G1 X122.639 Y134.159 E0.00927
G1 X122.510 Y134.632 E0.01483
G1 X122.469 Y134.939 E0.00937
G1 X122.465 Y135.384 E0.01343
G1 X122.560 Y135.977 E0.01816
G1 X122.747 Y136.482 E0.01628
G1 X122.963 Y136.863 E0.01325
G1 X123.145 Y137.110 E0.00927
G1 X123.501 Y137.481 E0.01553
G1 X123.936 Y137.796 E0.01623
G1 X124.419 Y138.029 E0.01623
G1 X124.914 Y138.167 E0.01553
G1 X125.218 Y138.210 E0.00927
G1 X125.656 Y138.219 E0.01324
G1 X126.189 Y138.144 E0.01627
G1 X126.756 Y137.947 E0.01817
G1 X127.146 Y137.732 E0.01344
G1 X127.397 Y137.550 E0.00936
G1 X127.752 Y137.212 E0.01483
G1 X127.944 Y136.973 E0.00927
G1 X128.177 Y136.602 E0.01324
G1 X128.382 Y136.115 E0.01597
G1 X128.500 Y135.591 E0.01623
G1 X128.524 Y135.055 E0.01622
G1 X128.453 Y134.523 E0.01623
G1 X128.296 Y134.034 E0.01553
G1 X128.165 Y133.757 E0.00926
G1 X127.932 Y133.386 E0.01324
G1 X127.582 Y132.989 E0.01599
G1 X127.180 Y132.669 E0.01553
G1 X126.915 Y132.511 E0.00933
G1 X126.508 Y132.331 E0.01346
G1 X125.924 Y132.184 E0.01818
G1 X125.388 Y132.157 E0.01624
G1 X124.952 Y132.205 E0.01324
G1 X124.653 Y132.274 E0.00929
G1 X124.172 Y132.456 E0.01553
G1 X123.783 Y132.688 E0.01369
G1 X123.992 Y133.038 F18000.000
G1 F2400.000
G1 X123.600 Y133.367 E0.01546
G1 X123.312 Y133.725 E0.01389
G1 X123.124 Y134.057 E0.01153
G1 X123.025 Y134.292 E0.00773
G1 X122.910 Y134.713 E0.01319
G1 X122.876 Y134.968 E0.00779
G1 X122.872 Y135.353 E0.01164
G1 X122.955 Y135.873 E0.01591
G1 X123.117 Y136.310 E0.01408
G1 X123.305 Y136.642 E0.01153
G1 X123.457 Y136.848 E0.00772
G1 X123.769 Y137.172 E0.01362
G1 X124.145 Y137.445 E0.01404
G1 X124.564 Y137.647 E0.01404
G1 X124.997 Y137.768 E0.01362
G1 X125.251 Y137.803 E0.00773
G1 X125.632 Y137.811 E0.01153
G1 X126.093 Y137.747 E0.01407
G1 X126.590 Y137.573 E0.01592
G1 X126.927 Y137.388 E0.01164
G1 X127.136 Y137.236 E0.00779
G1 X127.452 Y136.936 E0.01319
G1 X127.612 Y136.737 E0.00773
G1 X127.815 Y136.414 E0.01152
G1 X127.993 Y135.990 E0.01389
G1 X128.095 Y135.537 E0.01404
G1 X128.116 Y135.073 E0.01403
G1 X128.054 Y134.613 E0.01405
G1 X127.917 Y134.184 E0.01362
G1 X127.807 Y133.953 E0.00772
G1 X127.605 Y133.630 E0.01152
G1 X127.301 Y133.285 E0.01389
G1 X126.948 Y133.005 E0.01362
G1 X126.728 Y132.873 E0.00776
G1 X126.375 Y132.717 E0.01165
G1 X125.864 Y132.589 E0.01593
G1 X125.400 Y132.565 E0.01405
G1 X125.021 Y132.607 E0.01153
G1 X124.771 Y132.665 E0.00774
G1 X124.350 Y132.824 E0.01362
G1 X124.044 Y133.007 E0.01078
G1 X124.253 Y133.358 F18000.000
; custom gcode: feature_gcode
;ExternalPerimeter                   ;  ExternalPerimeter
M204 P750 T5000
; custom gcode end: feature_gcode

;TYPE:External perimeter
G1 F1800.000
G1 X123.896 Y133.652 E0.01397
G1 X123.652 Y133.956 E0.01179
G1 X123.492 Y134.238 E0.00980
G1 X123.412 Y134.426 E0.00618
G1 X123.312 Y134.794 E0.01154
G1 X123.285 Y134.998 E0.00620
G1 X123.282 Y135.323 E0.00983
G1 X123.353 Y135.769 E0.01366
G1 X123.489 Y136.137 E0.01186
G1 X123.649 Y136.419 E0.00980
G1 X123.770 Y136.583 E0.00617
G1 X124.039 Y136.862 E0.01169
G1 X124.356 Y137.092 E0.01184
G1 X124.709 Y137.262 E0.01184
G1 X125.081 Y137.366 E0.01169
G1 X125.284 Y137.395 E0.00618
G1 X125.608 Y137.402 E0.00980
G1 X125.996 Y137.347 E0.01185
G1 X126.423 Y137.198 E0.01366
G1 X126.707 Y137.041 E0.00983
G1 X126.873 Y136.921 E0.00620
G1 X127.150 Y136.658 E0.01154
G1 X127.278 Y136.499 E0.00618
G1 X127.450 Y136.224 E0.00980
G1 X127.602 Y135.865 E0.01179
G1 X127.688 Y135.483 E0.01184
G1 X127.706 Y135.092 E0.01183
G1 X127.654 Y134.703 E0.01185
G1 X127.535 Y134.335 E0.01169
G1 X127.448 Y134.150 E0.00617
G1 X127.276 Y133.876 E0.00980
G1 X127.018 Y133.583 E0.01179
G1 X126.715 Y133.342 E0.01170
G1 X126.539 Y133.237 E0.00618
G1 X126.242 Y133.106 E0.00984
G1 X125.803 Y132.996 E0.01366
G1 X125.412 Y132.976 E0.01185
G1 X125.089 Y133.011 E0.00980
G1 X124.890 Y133.057 E0.00618
G1 X124.528 Y133.194 E0.01169
G1 X124.305 Y133.327 E0.00787
G1 X123.886 Y133.199 F18000.000
G1 E-0.08000 F3000.00000
G1 F14400.000
G1 X123.896 Y133.652 E-0.10324
G1 X123.652 Y133.956 E-0.07720
G1 X123.492 Y134.238 E-0.06418
G1 X123.412 Y134.426 E-0.04043
G1 X123.312 Y134.794 E-0.07558
G1 X123.285 Y134.998 E-0.04058
G1 X123.282 Y135.323 E-0.06437
G1 X123.353 Y135.769 E-0.08941
G1 X123.489 Y136.137 E-0.07763
G1 X123.617 Y136.362 E-0.05137
G1 E-0.03600 F3000.00000
G1 X116.941 Y128.679 F18000.000
G1 E0.80000 F2100.00000
; custom gcode: feature_gcode
;Perimeter                        ;  Perimeter
M204 P1000 T5000
; custom gcode end: feature_gcode

;TYPE:Perimeter
G1 F2400.000
G1 X134.251 Y128.679 E0.52324
G1 X134.251 Y141.786 E0.39620
G1 X134.216 Y141.973 E0.00574
G1 X134.131 Y142.088 E0.00434
G1 X123.879 Y152.341 E0.43825
G1 X117.258 Y152.341 E0.20012
G1 X116.941 Y152.023 E0.01358
G1 X116.941 Y128.739 E0.70381
G1 X116.534 Y128.272 F18000.000
G1 F2400.000
G1 X134.658 Y128.272 E0.54785
G1 X134.658 Y141.807 E0.40912
G1 X134.640 Y141.983 E0.00535
G1 X134.591 Y142.137 E0.00490
G1 X134.527 Y142.250 E0.00393
G1 X134.431 Y142.364 E0.00451
G1 X124.048 Y152.748 E0.44386
G1 X117.090 Y152.748 E0.21031
G1 X116.534 Y152.191 E0.02378
G1 X116.534 Y128.332 E0.72121
G1 X116.126 Y127.865 F18000.000
G1 F2400.000
G1 X135.065 Y127.865 E0.57246
G1 X135.065 Y141.827 E0.42204
G1 X135.041 Y142.066 E0.00725
G1 X134.966 Y142.302 E0.00748
G1 X134.862 Y142.484 E0.00636
G1 X134.731 Y142.640 E0.00616
G1 X124.216 Y153.155 E0.44947
G1 X116.921 Y153.155 E0.22051
G1 X116.126 Y152.360 E0.03397
G1 X116.126 Y127.925 E0.73861
G1 X115.717 Y127.455 F18000.000
; custom gcode: feature_gcode
;ExternalPerimeter                   ;  ExternalPerimeter
M204 P750 T5000
; custom gcode end: feature_gcode

;TYPE:External perimeter
G1 F1800.000
G1 X135.475 Y127.456 E0.59720
G1 X135.475 Y141.848 E0.43503
G1 X135.444 Y142.149 E0.00916
G1 X135.343 Y142.467 E0.01007
G1 X135.199 Y142.720 E0.00880
G1 X135.032 Y142.917 E0.00782
G1 X124.386 Y153.564 E0.45512
G1 X116.752 Y153.564 E0.23076
G1 X115.717 Y152.530 E0.04422
G1 X115.717 Y127.515 E0.75610
G1 X116.064 Y127.655 F18000.000
G1 E-0.08000 F3000.00000
G1 F14400.000
G1 X119.173 Y127.505 E-0.68400
G1 E-0.03600 F3000.00000
G1 X117.079 Y134.698 F18000.000
G1 E0.80000 F2100.00000
; custom gcode: feature_gcode
;SolidInfill                      ;  SolidInfill
M204 P2000 T5000
; custom gcode end: feature_gcode

;TYPE:Solid infill
G1 F3600.000
G1 X132.281 Y143.474 E0.53059
G1 X131.983 Y143.773 E0.01274
G1 X117.262 Y135.273 E0.51380
G1 X117.262 Y135.743 E0.01421
G1 X131.685 Y144.071 E0.50341
G1 X131.387 Y144.369 E0.01274
G1 X117.262 Y136.214 E0.49301
G1 X117.262 Y136.684 E0.01421
G1 X131.090 Y144.667 E0.48262
G1 X130.792 Y144.965 E0.01274
G1 X117.262 Y137.154 E0.47223
G1 X117.262 Y137.624 E0.01421
G1 X130.494 Y145.263 E0.46183
G1 X130.196 Y145.561 E0.01274
G1 X117.262 Y138.094 E0.45144
G1 X117.262 Y138.564 E0.01421
G1 X129.898 Y145.859 E0.44104
G1 X129.601 Y146.157 E0.01274
G1 X117.262 Y139.034 E0.43065
G1 X117.262 Y139.504 E0.01421
G1 X129.303 Y146.456 E0.42026
G1 X129.005 Y146.754 E0.01274
G1 X117.262 Y139.974 E0.40986
G1 X117.262 Y140.444 E0.01421
G1 X128.707 Y147.052 E0.39947
G1 X128.409 Y147.350 E0.01274
G1 X117.262 Y140.914 E0.38907
G1 X117.262 Y141.384 E0.01421
G1 X128.112 Y147.648 E0.37868
G1 X127.814 Y147.946 E0.01274
G1 X117.262 Y141.854 E0.36829
G1 X117.262 Y142.324 E0.01421
G1 X127.516 Y148.244 E0.35789
G1 X127.218 Y148.542 E0.01274
G1 X117.262 Y142.794 E0.34750
G1 X117.262 Y143.264 E0.01421
G1 X126.921 Y148.841 E0.33710
G1 X126.623 Y149.139 E0.01274
G1 X117.262 Y143.734 E0.32671
G1 X117.262 Y144.204 E0.01421
G1 X126.325 Y149.437 E0.31632
G1 X126.027 Y149.735 E0.01274
G1 X117.262 Y144.675 E0.30592
G1 X117.262 Y145.145 E0.01421
G1 X125.729 Y150.033 E0.29553
G1 X125.432 Y150.331 E0.01274
G1 X117.262 Y145.615 E0.28513
G1 X117.262 Y146.085 E0.01421
G1 X125.134 Y150.629 E0.27474
G1 X124.836 Y150.927 E0.01274
G1 X117.262 Y146.555 E0.26435
G1 X117.262 Y147.025 E0.01421
G1 X124.538 Y151.226 E0.25395
G1 X124.240 Y151.524 E0.01274
G1 X117.262 Y147.495 E0.24356
G1 X117.262 Y147.965 E0.01421
G1 X123.943 Y151.822 E0.23316
G1 X123.746 Y152.019 E0.00842
G1 X123.470 Y152.019 E0.00834
G1 X117.262 Y148.435 E0.21666
G1 X117.262 Y148.905 E0.01421
G1 X122.656 Y152.019 E0.18825
G1 X121.842 Y152.019 E0.02461
G1 X117.262 Y149.375 E0.15983
G1 X117.262 Y149.845 E0.01421
G1 X121.027 Y152.019 E0.13142
G1 X120.213 Y152.019 E0.02461
G1 X117.262 Y150.315 E0.10300
G1 X117.262 Y150.785 E0.01421
G1 X119.399 Y152.019 E0.07458
G1 X118.585 Y152.019 E0.02461
