G10 P0 R240 S240 ; sets the standby temperature
; generated by SuperSlicer 2.3.55 on 2024-03-11 at 09:21:07 UTC

; TODO: check the size of the extruder and the y-bar clearance. Optimize & test supports.

; external perimeters extrusion width = 0.39mm
; perimeters extrusion width = 0.60mm
; infill extrusion width = 0.60mm
; solid infill extrusion width = 0.60mm
; top infill extrusion width = 0.32mm
; support material extrusion width = 0.40mm
; first layer extrusion width = 0.45mm

; object:{"name":"C:/Users/muchm/AppData/Local/Temp/Neutron/Ugreen_200w_Wall_Mount_v2_Bearbeitet","id":"C:/Users/muchm/AppData/Local/Temp/Neutron/Ugreen_200w_Wall_Mount_v2_Bearbeitet.stl id:0 copy 0","object_center":[125.000000,125.000000,0.000000],"boundingbox_center":[125.000000,125.000000,22.500000],"boundingbox_size":[105.000000,95.000755,45.000000]}
; plater:{"center":[125.000000,125.000000,0.000000],"boundingbox_center":[125.000000,125.000000,22.500000],"boundingbox_size":[105.000000,95.000755,45.000000]}

;TYPE:Custom
; custom gcode: start_gcode
M106 P4 S255
M140 S100 ; set bed final temp
M104 S240 ; set extruder final temp
M190 S100 ; wait for bed final temp
M109 S240 ; wait for extruder final temp
;G29
G28
;M98 P"/macros/nozzle/brush.g"
;PRINT_START

G92 E0 ;Reset Extruder
;;G1 Z2.0 F3000 ;Move Z Axis up


G1 X100 Y4.6 Z0.3 F18000.0 ; Move to side a little

G1 X5 Y4.6 Z0.3 F1500.0 E10 ; Draw the second line

G1 X5 Y4.2 Z0.3 F1500.0 E10 ; Draw the third line

G1 X100 Y4.2 Z0.3 F1500.0 E10 ; Draw the third line


;G92 E0;		Reset extruder
;G1 X1 Y10 F6000;
;G1 Z1.7;
;G1 X1 Y60 E140 F50;
;G1 E-<DESTRING> F1500;
;G1 Z4
;G1 X<NEXTX> Y<NEXTY> F12000;
;G92 E0 ;Reset Extruder

;G1 Z2.0 F3000 ;Move Z Axis up
; custom gcode end: start_gcode
M107
G21 ; set units to millimeters
G90 ; use absolute coordinates
M83 ; use relative distances for extrusion
; custom gcode: start_filament_gcode
; Filament gcode
M572 D0 S0.05
; custom gcode end: start_filament_gcode
;LAYER_CHANGE
;Z:0.2
;HEIGHT:0.2
; custom gcode: before_layer_gcode
;BEFORE_LAYER_CHANGE
;0.2

; custom gcode end: before_layer_gcode

G1 Z0.200000 F18000.000
; custom gcode: layer_gcode
;AFTER_LAYER_CHANGE
;0.2
; custom gcode end: layer_gcode

G1 E-0.80000 F3000.00000
G1 Z1.000000 F18000.000
G1 X73.643 Y77.245
G1 Z0.200000
G1 E0.80000 F2100.00000
; custom gcode: feature_gcode
;Skirt
M204 P2000 T5000
; custom gcode end: feature_gcode

;TYPE:Skirt
G1 F2400.000
G1 X75.145 Y76.010 E0.05879
G1 X77.460 Y74.507 E0.08341
G1 X79.137 Y73.663 E0.05676
G1 X81.173 Y72.885 E0.06587
G1 X83.234 Y72.336 E0.06448
G1 X85.498 Y71.989 E0.06922
G1 X87.492 Y71.890 E0.06036
G1 X162.506 Y71.890 E2.26744
G1 X164.626 Y72.000 E0.06417
G1 X166.514 Y72.289 E0.05772
G1 X169.123 Y72.987 E0.08164
G1 X170.917 Y73.687 E0.05822
G1 X172.807 Y74.652 E0.06415
G1 X174.593 Y75.811 E0.06436
G1 X176.060 Y76.985 E0.05678
G1 X177.984 Y78.903 E0.08213
G1 X179.198 Y80.419 E0.05869
G1 X180.326 Y82.155 E0.06257
G1 X181.306 Y84.068 E0.06498
G1 X182.006 Y85.858 E0.05809
G1 X182.688 Y88.355 E0.07824
G1 X182.998 Y90.352 E0.06109
G1 X183.111 Y92.469 E0.06407
G1 X183.110 Y172.559 E2.42087
G1 X183.015 Y173.530 E0.02950
G1 X182.755 Y174.465 E0.02933
G1 X182.338 Y175.341 E0.02933
G1 X181.773 Y176.137 E0.02950
G1 X180.955 Y176.921 E0.03426
G1 X179.991 Y177.528 E0.03443
G1 X178.930 Y177.926 E0.03426
G1 X177.810 Y178.102 E0.03426
G1 X83.865 Y181.581 E2.84163
G1 X73.470 Y181.558 E0.31419
G1 X72.636 Y181.410 E0.02562
G1 X71.827 Y181.137 E0.02580
G1 X71.074 Y180.747 E0.02562
G1 X70.389 Y180.247 E0.02562
G1 X69.558 Y179.369 E0.03654
G1 X68.937 Y178.339 E0.03637
G1 X67.228 Y174.419 E0.12926
G1 X66.995 Y173.586 E0.02615
G1 X66.894 Y172.726 E0.02615
G1 X66.890 Y92.407 E2.42782
G1 X67.001 Y90.363 E0.06188
G1 X67.292 Y88.469 E0.05790
G1 X67.995 Y85.856 E0.08182
G1 X68.689 Y84.078 E0.05769
G1 X69.661 Y82.178 E0.06450
G1 X70.821 Y80.393 E0.06436
G1 X72.056 Y78.855 E0.05961
G1 X73.600 Y77.288 E0.06652
G1 X73.890 Y77.573 F18000.000
G1 F2400.000
G1 X75.401 Y76.327 E0.05921
G1 X77.648 Y74.868 E0.08098
G1 X79.301 Y74.036 E0.05593
G1 X81.297 Y73.273 E0.06460
G1 X83.317 Y72.735 E0.06319
G1 X85.534 Y72.394 E0.06779
G1 X87.492 Y72.297 E0.05926
G1 X162.506 Y72.297 E2.26745
G1 X164.589 Y72.405 E0.06307
G1 X166.448 Y72.691 E0.05683
G1 X168.982 Y73.369 E0.07929
G1 X170.757 Y74.062 E0.05761
G1 X172.604 Y75.005 E0.06267
G1 X174.359 Y76.144 E0.06324
G1 X175.803 Y77.301 E0.05594
G1 X177.669 Y79.162 E0.07966
G1 X178.865 Y80.653 E0.05777
G1 X179.976 Y82.363 E0.06165
G1 X180.935 Y84.234 E0.06354
G1 X181.624 Y85.999 E0.05727
G1 X182.289 Y88.439 E0.07645
G1 X182.594 Y90.399 E0.05996
G1 X182.703 Y92.475 E0.06283
G1 X182.703 Y172.551 E2.42046
G1 X182.616 Y173.453 E0.02739
G1 X182.373 Y174.326 E0.02739
G1 X181.985 Y175.139 E0.02722
G1 X181.459 Y175.877 E0.02739
G1 X180.699 Y176.604 E0.03180
G1 X179.808 Y177.164 E0.03180
G1 X178.823 Y177.533 E0.03180
G1 X177.784 Y177.696 E0.03180
G1 X83.850 Y181.175 E2.84129
G1 X73.541 Y181.156 E0.31159
G1 X72.753 Y181.020 E0.02417
G1 X72.001 Y180.768 E0.02400
G1 X71.290 Y180.401 E0.02417
G1 X70.649 Y179.934 E0.02400
G1 X69.880 Y179.120 E0.03383
G1 X69.303 Y178.161 E0.03383
G1 X67.614 Y174.289 E0.12770
G1 X67.394 Y173.503 E0.02467
G1 X67.300 Y172.698 E0.02451
G1 X67.297 Y92.410 E2.42684
G1 X67.406 Y90.400 E0.06086
G1 X67.693 Y88.541 E0.05683
G1 X68.377 Y85.998 E0.07963
G1 X69.064 Y84.238 E0.05710
G1 X70.013 Y82.382 E0.06301
G1 X71.150 Y80.632 E0.06307
G1 X72.373 Y79.111 E0.05901
G1 X73.848 Y77.616 E0.06348
; printing object C:/Users/muchm/AppData/Local/Temp/Neutron/Ugreen_200w_Wall_Mount_v2_Bearbeitet.stl id:0 copy 0
G1 E-0.08000 F3000.00000
G1 F14400.000
G1 X75.401 Y76.327 E-0.39950
G1 X76.607 Y75.544 E-0.28450
G1 E-0.03600 F3000.00000
G1 Z0.600000 F18000.000
G1 X74.025 Y172.954
G1 Z0.200000
G1 E0.80000 F2100.00000
; custom gcode: feature_gcode
;SupportMaterial
M204 P1000 T5000
; custom gcode end: feature_gcode

;TYPE:Support material
G1 F2400.000
G1 X83.657 Y172.954 E0.29114
G1 X83.657 Y175.975 E0.09131
G1 X74.025 Y175.975 E0.29114
G1 X74.025 Y173.014 E0.08949
G1 X83.637 Y173.447 F18000.000
G1 F2400.000
G1 X74.229 Y173.447 E0.28437
G1 X74.229 Y173.854 E0.01230
G1 X83.454 Y173.854 E0.27884
G1 X83.454 Y174.261 E0.01230
G1 X74.229 Y174.261 E0.27884
G1 X74.229 Y174.668 E0.01230
G1 X83.454 Y174.668 E0.27884
G1 X83.454 Y175.075 E0.01230
G1 X74.229 Y175.075 E0.27884
G1 X74.229 Y175.482 E0.01230
G1 X83.637 Y175.482 E0.28437
G1 E-0.08000 F3000.00000
G1 F14400.000
G1 X80.181 Y175.482 E-0.68400
G1 E-0.03600 F3000.00000
G1 X149.991 Y161.499 F18000.000
G1 E0.80000 F2100.00000
; custom gcode: feature_gcode
;Perimeter                        ;  Perimeter
M204 P1000 T5000
; custom gcode end: feature_gcode

;TYPE:Perimeter
G1 F2400.000
G1 X169.988 Y161.499 E0.60444
G1 X169.988 Y88.502 E2.20647
G1 X149.991 Y88.502 E0.60444
G1 X149.991 Y161.439 E2.20466
G1 X150.398 Y161.092 F18000.000
G1 F2400.000
G1 X169.581 Y161.092 E0.57983
G1 X169.581 Y88.909 E2.18186
G1 X150.398 Y88.909 E0.57983
G1 X150.398 Y161.032 E2.18005
G1 X150.806 Y160.685 F18000.000
G1 F2400.000
G1 X169.174 Y160.685 E0.55522
G1 X169.174 Y89.316 E2.15725
G1 X150.806 Y89.316 E0.55522
G1 X150.806 Y160.625 E2.15544
G1 X151.215 Y160.275 F18000.000
; custom gcode: feature_gcode
;ExternalPerimeter                   ;  ExternalPerimeter
M204 P750 T5000
; custom gcode end: feature_gcode

;TYPE:External perimeter
G1 F2400.000
G1 X168.765 Y160.275 E0.53048
G1 X168.765 Y89.725 E2.13251
G1 X151.215 Y89.725 E0.53048
G1 X151.215 Y160.215 E2.13070
G1 X151.215 Y160.675 F18000.000
G1 E-0.08000 F3000.00000
G1 F14400.000
G1 X154.671 Y160.227 E-0.68400
G1 E-0.03600 F3000.00000
G1 X100.009 Y161.499 F18000.000
G1 E0.80000 F2100.00000
; custom gcode: feature_gcode
;Perimeter                        ;  Perimeter
M204 P1000 T5000
; custom gcode end: feature_gcode

;TYPE:Perimeter
G1 F2400.000
G1 X100.009 Y88.502 E2.20647
G1 X80.012 Y88.502 E0.60444
G1 X80.012 Y161.499 E2.20647
G1 X99.949 Y161.499 E0.60263
G1 X99.602 Y161.092 F18000.000
G1 F2400.000
G1 X99.602 Y88.909 E2.18186
G1 X80.419 Y88.909 E0.57983
G1 X80.419 Y161.092 E2.18186
G1 X99.542 Y161.092 E0.57802
G1 X99.194 Y160.685 F18000.000
G1 F2400.000
G1 X99.194 Y89.316 E2.15725
G1 X80.826 Y89.316 E0.55522
G1 X80.826 Y160.685 E2.15725
G1 X99.134 Y160.685 E0.55341
G1 X98.785 Y160.275 F18000.000
; custom gcode: feature_gcode
;ExternalPerimeter                   ;  ExternalPerimeter
M204 P750 T5000
; custom gcode end: feature_gcode

;TYPE:External perimeter
G1 F2400.000
G1 X98.785 Y89.725 E2.13251
G1 X81.235 Y89.725 E0.53048
G1 X81.235 Y160.275 E2.13251
G1 X98.725 Y160.275 E0.52867
G1 X99.185 Y160.275 F18000.000
G1 E-0.08000 F3000.00000
G1 F14400.000
G1 X98.728 Y156.819 E-0.68400
G1 E-0.03600 F3000.00000
G1 X73.998 Y171.002 F18000.000
G1 E0.80000 F2100.00000
; custom gcode: feature_gcode
;Perimeter                        ;  Perimeter
M204 P1000 T5000
; custom gcode end: feature_gcode

;TYPE:Perimeter
G1 F2400.000
G1 X73.998 Y92.540 E2.37168
G1 X74.074 Y91.089 E0.04391
G1 X74.296 Y89.693 E0.04273
G1 X74.661 Y88.328 E0.04271
G1 X75.166 Y87.013 E0.04258
G1 X75.810 Y85.749 E0.04286
G1 X76.580 Y84.564 E0.04271
G1 X77.469 Y83.466 E0.04272
G1 X78.465 Y82.470 E0.04258
G1 X79.564 Y81.580 E0.04272
G1 X80.749 Y80.810 E0.04272
G1 X82.008 Y80.168 E0.04271
G1 X83.332 Y79.661 E0.04286
G1 X84.692 Y79.296 E0.04257
G1 X86.088 Y79.075 E0.04273
G1 X87.539 Y78.999 E0.04391
G1 X162.461 Y78.999 E2.26465
G1 X163.912 Y79.075 E0.04391
G1 X165.308 Y79.296 E0.04273
G1 X166.673 Y79.662 E0.04271
G1 X167.988 Y80.167 E0.04258
G1 X169.251 Y80.810 E0.04286
G1 X170.436 Y81.580 E0.04271
G1 X171.535 Y82.470 E0.04272
G1 X172.531 Y83.466 E0.04258
G1 X173.420 Y84.564 E0.04272
G1 X174.190 Y85.749 E0.04272
G1 X174.832 Y87.008 E0.04271
G1 X175.340 Y88.332 E0.04286
G1 X175.704 Y89.693 E0.04257
G1 X175.926 Y91.089 E0.04273
G1 X176.002 Y92.540 E0.04391
G1 X176.002 Y171.002 E2.37168
G1 X74.058 Y171.002 E3.08144
G1 X73.591 Y171.409 F18000.000
G1 F2400.000
G1 X73.591 Y92.529 E2.38431
G1 X73.669 Y91.046 E0.04488
G1 X73.897 Y89.608 E0.04402
G1 X74.274 Y88.202 E0.04400
G1 X74.794 Y86.847 E0.04387
G1 X75.457 Y85.545 E0.04415
G1 X76.250 Y84.324 E0.04401
G1 X77.166 Y83.193 E0.04401
G1 X78.193 Y82.167 E0.04387
G1 X79.324 Y81.250 E0.04401
G1 X80.545 Y80.457 E0.04401
G1 X81.842 Y79.796 E0.04401
G1 X83.206 Y79.273 E0.04416
G1 X84.608 Y78.897 E0.04386
G1 X86.046 Y78.669 E0.04402
G1 X87.529 Y78.592 E0.04488
G1 X162.471 Y78.592 E2.26530
G1 X163.954 Y78.669 E0.04488
G1 X165.392 Y78.897 E0.04402
G1 X166.799 Y79.274 E0.04400
G1 X168.153 Y79.794 E0.04387
G1 X169.455 Y80.457 E0.04415
G1 X170.676 Y81.250 E0.04401
G1 X171.807 Y82.167 E0.04401
G1 X172.834 Y83.193 E0.04387
G1 X173.750 Y84.324 E0.04401
G1 X174.543 Y85.545 E0.04401
G1 X175.204 Y86.843 E0.04401
G1 X175.728 Y88.206 E0.04416
G1 X176.103 Y89.608 E0.04386
G1 X176.331 Y91.046 E0.04402
G1 X176.409 Y92.529 E0.04488
G1 X176.409 Y171.409 E2.38431
G1 X73.651 Y171.409 E3.10605
G1 X73.184 Y171.816 F18000.000
G1 F2400.000
G1 X73.184 Y92.518 E2.39694
G1 X73.264 Y91.004 E0.04585
G1 X73.498 Y89.523 E0.04531
G1 X73.886 Y88.076 E0.04529
G1 X74.421 Y86.681 E0.04516
G1 X75.104 Y85.342 E0.04545
G1 X75.920 Y84.085 E0.04530
G1 X76.864 Y82.920 E0.04530
G1 X77.920 Y81.864 E0.04516
G1 X79.084 Y80.921 E0.04530
G1 X80.341 Y80.104 E0.04530
G1 X81.676 Y79.424 E0.04530
G1 X83.080 Y78.885 E0.04545
G1 X84.523 Y78.499 E0.04515
G1 X86.003 Y78.264 E0.04531
G1 X87.518 Y78.185 E0.04585
G1 X162.482 Y78.185 E2.26594
G1 X163.997 Y78.264 E0.04585
G1 X165.477 Y78.499 E0.04531
G1 X166.924 Y78.886 E0.04529
G1 X168.319 Y79.422 E0.04516
G1 X169.659 Y80.104 E0.04545
G1 X170.916 Y80.921 E0.04530
G1 X172.080 Y81.864 E0.04530
G1 X173.136 Y82.920 E0.04516
G1 X174.080 Y84.085 E0.04530
G1 X174.896 Y85.342 E0.04530
G1 X175.577 Y86.677 E0.04530
G1 X176.115 Y88.080 E0.04545
G1 X176.502 Y89.523 E0.04515
G1 X176.736 Y91.004 E0.04531
G1 X176.816 Y92.518 E0.04585
G1 X176.816 Y171.816 E2.39694
G1 X73.244 Y171.816 E3.13066
G1 X72.775 Y172.225 F18000.000
; custom gcode: feature_gcode
;ExternalPerimeter                   ;  ExternalPerimeter
M204 P750 T5000
; custom gcode end: feature_gcode

;TYPE:External perimeter
G1 F2400.000
G1 X72.775 Y92.508 E2.40963
G1 X72.856 Y90.961 E0.04682
G1 X73.097 Y89.438 E0.04660
G1 X73.496 Y87.949 E0.04659
G1 X74.047 Y86.515 E0.04645
G1 X74.749 Y85.137 E0.04674
G1 X75.589 Y83.844 E0.04660
G1 X76.559 Y82.646 E0.04660
G1 X77.646 Y81.559 E0.04645
G1 X78.844 Y80.589 E0.04660
G1 X80.136 Y79.749 E0.04660
G1 X81.510 Y79.049 E0.04660
G1 X82.954 Y78.495 E0.04674
G1 X84.438 Y78.098 E0.04644
G1 X85.960 Y77.856 E0.04660
G1 X87.507 Y77.775 E0.04682
G1 X162.493 Y77.775 E2.26659
G1 X164.040 Y77.856 E0.04682
G1 X165.562 Y78.098 E0.04660
G1 X167.051 Y78.497 E0.04659
G1 X168.486 Y79.047 E0.04645
G1 X169.864 Y79.749 E0.04674
G1 X171.156 Y80.589 E0.04660
G1 X172.354 Y81.559 E0.04660
G1 X173.441 Y82.646 E0.04645
G1 X174.411 Y83.844 E0.04660
G1 X175.251 Y85.137 E0.04660
G1 X175.951 Y86.510 E0.04660
G1 X176.505 Y87.954 E0.04674
G1 X176.903 Y89.438 E0.04644
G1 X177.144 Y90.961 E0.04660
G1 X177.225 Y92.508 E0.04682
G1 X177.225 Y172.225 E2.40963
G1 X72.835 Y172.225 E3.15540
G1 X72.975 Y171.879 F18000.000
G1 E-0.08000 F3000.00000
G1 F14400.000
G1 X72.832 Y168.769 E-0.68400
G1 E-0.03600 F3000.00000
G1 X74.137 Y170.574 F18000.000
G1 E0.80000 F2100.00000
; custom gcode: feature_gcode
;SolidInfill                      ;  SolidInfill
M204 P2000 T5000
; custom gcode end: feature_gcode

;TYPE:Solid infill
G1 F3600.000
G1 X74.321 Y170.680 E0.00642
G1 X75.135 Y170.680 E0.02461
G1 X74.320 Y170.210 E0.02845
G1 X74.320 Y169.740 E0.01421
G1 X75.949 Y170.680 E0.05686
G1 X76.763 Y170.680 E0.02461
G1 X74.320 Y169.270 E0.08528
G1 X74.320 Y168.800 E0.01421
G1 X77.577 Y170.680 E0.11370
G1 X78.392 Y170.680 E0.02461
G1 X74.320 Y168.330 E0.14211
G1 X74.320 Y167.860 E0.01421
G1 X79.206 Y170.680 E0.17053
G1 X80.020 Y170.680 E0.02461
G1 X74.320 Y167.390 E0.19895
G1 X74.320 Y166.919 E0.01421
G1 X80.834 Y170.680 E0.22736
G1 X81.648 Y170.680 E0.02461
G1 X74.320 Y166.449 E0.25578
G1 X74.320 Y165.979 E0.01421
G1 X82.462 Y170.680 E0.28420
G1 X83.277 Y170.680 E0.02461
G1 X74.320 Y165.509 E0.31261
G1 X74.320 Y165.039 E0.01421
G1 X84.091 Y170.680 E0.34103
G1 X84.905 Y170.680 E0.02461
G1 X74.320 Y164.569 E0.36945
G1 X74.320 Y164.099 E0.01421
G1 X85.719 Y170.680 E0.39786
G1 X86.533 Y170.680 E0.02461
G1 X74.320 Y163.629 E0.42628
G1 X74.320 Y163.159 E0.01421
G1 X87.347 Y170.680 E0.45470
G1 X88.162 Y170.680 E0.02461
G1 X74.320 Y162.689 E0.48311
G1 X74.320 Y162.219 E0.01421
G1 X88.976 Y170.680 E0.51153
G1 X89.790 Y170.680 E0.02461
G1 X74.320 Y161.749 E0.53995
G1 X74.320 Y161.279 E0.01421
G1 X90.604 Y170.680 E0.56836
G1 X91.418 Y170.680 E0.02461
G1 X74.320 Y160.809 E0.59678
G1 X74.320 Y160.339 E0.01421
G1 X92.232 Y170.680 E0.62520
G1 X93.046 Y170.680 E0.02461
G1 X74.320 Y159.869 E0.65361
G1 X74.320 Y159.399 E0.01421
G1 X93.861 Y170.680 E0.68203
G1 X94.675 Y170.680 E0.02461
G1 X74.320 Y158.929 E0.71045
G1 X74.320 Y158.459 E0.01421
G1 X95.489 Y170.680 E0.73886
G1 X96.303 Y170.680 E0.02461
G1 X80.957 Y161.820 E0.53563
G1 X81.771 Y161.820 E0.02461
G1 X97.117 Y170.680 E0.53563
G1 X97.931 Y170.680 E0.02461
G1 X82.585 Y161.820 E0.53563
G1 X83.399 Y161.820 E0.02461
G1 X98.746 Y170.680 E0.53563
G1 X99.560 Y170.680 E0.02461
G1 X84.214 Y161.820 E0.53563
G1 X85.028 Y161.820 E0.02461
G1 X100.374 Y170.680 E0.53563
G1 X101.188 Y170.680 E0.02461
G1 X85.842 Y161.820 E0.53563
G1 X86.656 Y161.820 E0.02461
G1 X102.002 Y170.680 E0.53563
G1 X102.816 Y170.680 E0.02461
G1 X87.470 Y161.820 E0.53563
G1 X88.284 Y161.820 E0.02461
G1 X103.631 Y170.680 E0.53563
G1 X104.445 Y170.680 E0.02461
G1 X89.099 Y161.820 E0.53563
G1 X89.913 Y161.820 E0.02461
G1 X105.259 Y170.680 E0.53563
G1 X106.073 Y170.680 E0.02461
G1 X90.727 Y161.820 E0.53563
G1 X91.541 Y161.820 E0.02461
G1 X106.887 Y170.680 E0.53563
G1 X107.701 Y170.680 E0.02461
G1 X92.355 Y161.820 E0.53563
G1 X93.169 Y161.820 E0.02461
G1 X108.515 Y170.680 E0.53563
G1 X109.330 Y170.680 E0.02461
G1 X93.983 Y161.820 E0.53563
G1 X94.798 Y161.820 E0.02461
