G10 P0 R260 S260 ; sets the standby temperature
; generated by SuperSlicer 2.3.55 on 2024-03-13 at 18:50:44 UTC

; TODO: check the size of the extruder and the y-bar clearance. Optimize & test supports.

; external perimeters extrusion width = 0.39mm
; perimeters extrusion width = 0.60mm
; infill extrusion width = 0.60mm
; solid infill extrusion width = 0.60mm
; top infill extrusion width = 0.32mm
; support material extrusion width = 0.40mm
; first layer extrusion width = 0.45mm

; object:{"name":"Unbenannt v1","id":"Unbenannt v1.stl id:0 copy 0","object_center":[125.000000,125.000000,0.000000],"boundingbox_center":[125.000000,125.000000,19.100000],"boundingbox_size":[88.099998,91.599998,38.200001]}
; plater:{"center":[125.000000,125.000000,0.000000],"boundingbox_center":[125.000000,125.000000,19.100000],"boundingbox_size":[88.099998,91.599998,38.200001]}

;TYPE:Custom
; custom gcode: start_gcode
M106 P4 S255
M140 S100 ; set bed final temp
M104 S260 ; set extruder final temp
M190 S100 ; wait for bed final temp
M109 S260 ; wait for extruder final temp
;G29
G28
;M98 P"/macros/nozzle/brush.g"
;PRINT_START

G92 E0 ;Reset Extruder
;;G1 Z2.0 F3000 ;Move Z Axis up


G1 X100 Y4.6 Z0.3 F18000.0 ; Move to side a little

G1 X5 Y4.6 Z0.3 F1500.0 E10 ; Draw the second line

G1 X5 Y4.2 Z0.3 F1500.0 E10 ; Draw the third line

G1 X100 Y4.2 Z0.3 F1500.0 E10 ; Draw the third line


;G92 E0;		Reset extruder
;G1 X1 Y10 F6000;
;G1 Z1.7;
;G1 X1 Y60 E140 F50;
;G1 E-<DESTRING> F1500;
;G1 Z4
;G1 X<NEXTX> Y<NEXTY> F12000;
;G92 E0 ;Reset Extruder

;G1 Z2.0 F3000 ;Move Z Axis up
; custom gcode end: start_gcode
M107
G21 ; set units to millimeters
G90 ; use absolute coordinates
M83 ; use relative distances for extrusion
; custom gcode: start_filament_gcode
; Filament gcode
M572 D0 S0.05
; custom gcode end: start_filament_gcode
;LAYER_CHANGE
;Z:0.2
;HEIGHT:0.2
; custom gcode: before_layer_gcode
;BEFORE_LAYER_CHANGE
;0.2

; custom gcode end: before_layer_gcode

G1 Z0.200000 F18000.000
; custom gcode: layer_gcode
;AFTER_LAYER_CHANGE
;0.2
; custom gcode end: layer_gcode

G1 E-0.80000 F3000.00000
G1 Z1.000000 F18000.000
G1 X75.801 Y72.053
G1 Z0.200000
G1 E0.80000 F2100.00000
; custom gcode: feature_gcode
;Skirt
M204 P2000 T5000
; custom gcode end: feature_gcode

;TYPE:Skirt
G1 F2400.000
G1 X76.657 Y71.258 E0.03606
G1 X77.653 Y70.660 E0.03588
G1 X78.752 Y70.279 E0.03588
G1 X79.911 Y70.133 E0.03606
G1 X169.978 Y70.132 E2.78037
G1 X171.065 Y70.240 E0.03373
G1 X172.111 Y70.556 E0.03373
G1 X173.075 Y71.069 E0.03373
G1 X173.927 Y71.763 E0.03391
G1 X174.623 Y72.605 E0.03373
G1 X175.145 Y73.571 E0.03391
G1 X175.468 Y74.615 E0.03373
G1 X175.582 Y75.702 E0.03373
G1 X175.582 Y81.955 E0.19304
G1 X174.654 Y161.082 E2.44283
G1 X174.547 Y162.682 E0.04951
G1 X174.268 Y164.256 E0.04935
G1 X173.631 Y166.374 E0.06828
G1 X172.891 Y168.019 E0.05567
G1 X172.081 Y169.383 E0.04899
G1 X170.761 Y171.121 E0.06737
G1 X169.441 Y172.450 E0.05783
G1 X168.149 Y173.479 E0.05097
G1 X166.020 Y174.762 E0.07673
G1 X164.536 Y175.415 E0.05007
G1 X162.751 Y175.965 E0.05765
G1 X160.943 Y176.295 E0.05675
G1 X159.137 Y176.410 E0.05585
G1 X90.669 Y176.404 E2.11362
G1 X89.068 Y176.297 E0.04954
G1 X87.494 Y176.018 E0.04935
G1 X85.376 Y175.381 E0.06828
G1 X83.731 Y174.641 E0.05567
G1 X82.367 Y173.831 E0.04899
G1 X80.629 Y172.511 E0.06737
G1 X79.300 Y171.191 E0.05783
G1 X78.275 Y169.904 E0.05079
G1 X77.001 Y167.797 E0.07601
G1 X76.339 Y166.297 E0.05061
G1 X75.793 Y164.535 E0.05693
G1 X75.458 Y162.722 E0.05693
G1 X75.346 Y161.069 E0.05115
G1 X74.418 Y81.956 E2.44238
G1 X74.418 Y75.714 E0.19271
G1 X74.512 Y74.719 E0.03085
G1 X74.779 Y73.762 E0.03067
G1 X75.214 Y72.862 E0.03085
G1 X75.766 Y72.102 E0.02900
G1 X76.094 Y72.341 F18000.000
G1 F2400.000
G1 X76.905 Y71.581 E0.03432
G1 X77.832 Y71.026 E0.03334
G1 X78.853 Y70.674 E0.03334
G1 X79.930 Y70.540 E0.03352
G1 X169.977 Y70.539 E2.77976
G1 X170.991 Y70.640 E0.03144
G1 X171.965 Y70.936 E0.03144
G1 X172.859 Y71.413 E0.03127
G1 X173.647 Y72.059 E0.03144
G1 X174.294 Y72.845 E0.03144
G1 X174.773 Y73.737 E0.03127
G1 X175.072 Y74.711 E0.03144
G1 X175.175 Y75.718 E0.03127
G1 X175.175 Y81.953 E0.19246
G1 X174.247 Y161.058 E2.44215
G1 X174.143 Y162.634 E0.04875
G1 X173.869 Y164.175 E0.04833
G1 X173.253 Y166.224 E0.06604
G1 X172.530 Y167.832 E0.05442
G1 X171.733 Y169.173 E0.04816
G1 X170.448 Y170.862 E0.06552
G1 X169.165 Y172.151 E0.05615
G1 X167.900 Y173.157 E0.04989
G1 X165.851 Y174.391 E0.07383
G1 X164.398 Y175.032 E0.04902
G1 X162.654 Y175.570 E0.05633
G1 X160.887 Y175.892 E0.05546
G1 X159.128 Y176.003 E0.05442
G1 X90.696 Y175.997 E2.11248
G1 X89.116 Y175.893 E0.04889
G1 X87.575 Y175.619 E0.04833
G1 X85.526 Y175.003 E0.06604
G1 X83.918 Y174.280 E0.05442
G1 X82.577 Y173.483 E0.04816
G1 X80.888 Y172.198 E0.06552
G1 X79.599 Y170.915 E0.05615
G1 X78.596 Y169.654 E0.04972
G1 X77.368 Y167.622 E0.07331
G1 X76.720 Y166.153 E0.04955
G1 X76.187 Y164.432 E0.05563
G1 X75.861 Y162.665 E0.05546
G1 X75.752 Y161.047 E0.05007
G1 X74.825 Y81.952 E2.44184
G1 X74.825 Y75.720 E0.19236
G1 X74.912 Y74.796 E0.02867
G1 X75.161 Y73.901 E0.02867
G1 X75.566 Y73.066 E0.02867
G1 X76.059 Y72.390 E0.02582
; printing object Unbenannt v1.stl id:0 copy 0
G1 E-0.08000 F3000.00000
G1 F14400.000
G1 X76.905 Y71.581 E-0.23173
G1 X77.832 Y71.026 E-0.21377
G1 X78.853 Y70.674 E-0.21377
G1 X78.977 Y70.658 E-0.02474
G1 E-0.03600 F3000.00000
G1 Z0.600000 F18000.000
G1 X158.879 Y75.743
G1 Z0.200000
G1 E0.80000 F2100.00000
; custom gcode: feature_gcode
;SupportMaterial
M204 P1000 T5000
; custom gcode end: feature_gcode

;TYPE:Support material
G1 F2400.000
G1 X169.972 Y75.743 E0.34242
G1 X169.972 Y81.896 E0.18996
G1 X169.104 Y81.896 E0.02680
G1 X169.104 Y79.441 E0.07578
G1 X168.809 Y79.146 E0.01288
G1 X158.879 Y79.146 E0.30651
G1 X158.879 Y75.803 E0.10322
G1 X169.951 Y76.174 F18000.000
G1 F2400.000
G1 X159.083 Y76.174 E0.33551
G1 X159.083 Y76.581 E0.01257
G1 X169.768 Y76.581 E0.32985
G1 X169.768 Y76.988 E0.01257
G1 X159.083 Y76.988 E0.32985
G1 X159.083 Y77.395 E0.01257
G1 X169.768 Y77.395 E0.32985
G1 X169.768 Y77.802 E0.01257
G1 X159.083 Y77.802 E0.32985
G1 X159.083 Y78.209 E0.01257
G1 X169.768 Y78.209 E0.32985
G1 X169.768 Y78.616 E0.01257
G1 X159.083 Y78.616 E0.32985
G1 X159.083 Y78.943 E0.01009
G1 X168.893 Y78.943 E0.30283
G1 X168.973 Y79.023 E0.00350
G1 X169.768 Y79.023 E0.02455
G1 X169.768 Y79.430 E0.01257
G1 X169.307 Y79.430 E0.01424
G1 X169.307 Y79.837 E0.01257
G1 X169.768 Y79.837 E0.01424
G1 X169.768 Y80.244 E0.01257
G1 X169.307 Y80.244 E0.01424
G1 X169.307 Y80.651 E0.01257
G1 X169.768 Y80.651 E0.01424
G1 X169.768 Y81.059 E0.01257
G1 X169.307 Y81.059 E0.01424
G1 X169.307 Y81.466 E0.01257
G1 X169.951 Y81.466 E0.01989
G1 E-0.08000 F3000.00000
G1 F14400.000
G1 X169.307 Y81.466 E-0.12753
G1 X169.307 Y81.059 E-0.08057
G1 X169.768 Y81.059 E-0.09127
G1 X169.768 Y80.651 E-0.08057
G1 X169.307 Y80.651 E-0.09127
G1 X169.307 Y80.244 E-0.08057
G1 X169.768 Y80.244 E-0.09127
G1 X169.768 Y80.037 E-0.04096
G1 E-0.03600 F3000.00000
G1 X91.121 Y79.146 F18000.000
G1 E0.80000 F2100.00000
G1 F2400.000
G1 X81.191 Y79.146 E0.30651
G1 X80.896 Y79.441 E0.01288
G1 X80.896 Y81.896 E0.07578
G1 X80.028 Y81.896 E0.02680
G1 X80.028 Y75.743 E0.18996
G1 X91.121 Y75.743 E0.34242
G1 X91.121 Y79.086 E0.10322
G1 X91.100 Y76.174 F18000.000
G1 F2400.000
G1 X80.232 Y76.174 E0.33551
G1 X80.232 Y76.581 E0.01257
G1 X90.917 Y76.581 E0.32985
G1 X90.917 Y76.988 E0.01257
G1 X80.232 Y76.988 E0.32985
G1 X80.232 Y77.395 E0.01257
G1 X90.917 Y77.395 E0.32985
G1 X90.917 Y77.802 E0.01257
G1 X80.232 Y77.802 E0.32985
G1 X80.232 Y78.209 E0.01257
G1 X90.917 Y78.209 E0.32985
G1 X90.917 Y78.616 E0.01257
G1 X80.232 Y78.616 E0.32985
G1 X80.232 Y79.023 E0.01257
G1 X81.027 Y79.023 E0.02455
G1 X80.693 Y79.357 E0.01458
G1 X80.693 Y79.430 E0.00226
G1 X80.232 Y79.430 E0.01424
G1 X80.232 Y79.837 E0.01257
G1 X80.693 Y79.837 E0.01424
G1 X80.693 Y80.244 E0.01257
G1 X80.232 Y80.244 E0.01424
G1 X80.232 Y80.651 E0.01257
G1 X80.693 Y80.651 E0.01424
G1 X80.693 Y81.059 E0.01257
G1 X80.232 Y81.059 E0.01424
G1 X80.232 Y81.466 E0.01257
G1 X80.876 Y81.466 E0.01989
G1 E-0.08000 F3000.00000
G1 F14400.000
G1 X80.232 Y81.466 E-0.12753
G1 X80.232 Y81.059 E-0.08057
G1 X80.693 Y81.059 E-0.09128
G1 X80.693 Y80.651 E-0.08057
G1 X80.232 Y80.651 E-0.09128
G1 X80.232 Y80.244 E-0.08057
G1 X80.693 Y80.244 E-0.09128
G1 X80.693 Y80.038 E-0.04093
G1 E-0.03600 F3000.00000
G1 X81.625 Y79.875 F18000.000
G1 E0.80000 F2100.00000
; custom gcode: feature_gcode
;ExternalPerimeter                   ;  ExternalPerimeter
M204 P750 T5000
; custom gcode end: feature_gcode

;TYPE:External perimeter
G1 F2400.000
G1 X81.625 Y160.791 E2.49789
G1 X81.703 Y161.999 E0.03737
G1 X81.743 Y162.219 E0.00690
G1 X81.934 Y163.175 E0.03010
G1 X82.314 Y164.314 E0.03706
G1 X82.837 Y165.394 E0.03705
G1 X83.495 Y166.398 E0.03705
G1 X84.281 Y167.313 E0.03723
G1 X84.437 Y167.469 E0.00683
G1 X85.353 Y168.255 E0.03726
G1 X86.352 Y168.911 E0.03689
G1 X87.436 Y169.436 E0.03718
G1 X88.575 Y169.816 E0.03706
G1 X89.531 Y170.007 E0.03010
G1 X89.751 Y170.047 E0.00690
G1 X90.959 Y170.125 E0.03737
G1 X159.041 Y170.125 E2.10171
G1 X160.248 Y170.047 E0.03733
G1 X161.428 Y169.816 E0.03712
G1 X162.564 Y169.436 E0.03696
G1 X163.644 Y168.913 E0.03707
G1 X164.648 Y168.255 E0.03705
G1 X165.563 Y167.469 E0.03723
G1 X165.719 Y167.313 E0.00683
G1 X166.505 Y166.397 E0.03726
G1 X167.161 Y165.398 E0.03689
G1 X167.686 Y164.314 E0.03718
G1 X168.066 Y163.175 E0.03706
G1 X168.257 Y162.219 E0.03010
G1 X168.297 Y161.999 E0.00690
G1 X168.375 Y160.791 E0.03737
G1 X168.375 Y79.875 E2.49789
G1 X81.685 Y79.875 E2.67613
G1 X81.825 Y80.221 F18000.000
G1 X82.034 Y80.284
; custom gcode: feature_gcode
;Perimeter                        ;  Perimeter
M204 P1000 T5000
; custom gcode end: feature_gcode

;TYPE:Perimeter
G1 F2400.000
G1 X82.034 Y160.778 E2.48485
G1 X82.110 Y161.949 E0.03622
G1 X82.145 Y162.142 E0.00606
G1 X82.330 Y163.070 E0.02921
G1 X82.694 Y164.159 E0.03545
G1 X83.194 Y165.192 E0.03542
G1 X83.823 Y166.151 E0.03542
G1 X84.581 Y167.035 E0.03593
G1 X85.601 Y167.929 E0.04186
G1 X86.548 Y168.551 E0.03497
G1 X87.591 Y169.056 E0.03578
G1 X88.680 Y169.420 E0.03545
G1 X89.608 Y169.605 E0.02921
G1 X89.801 Y169.640 E0.00606
G1 X90.972 Y169.716 E0.03622
G1 X159.028 Y169.716 E2.10090
G1 X160.195 Y169.640 E0.03610
G1 X161.328 Y169.419 E0.03562
G1 X162.408 Y169.057 E0.03517
G1 X163.442 Y168.556 E0.03547
G1 X164.401 Y167.927 E0.03542
G1 X165.285 Y167.169 E0.03593
G1 X166.179 Y166.149 E0.04186
G1 X166.801 Y165.202 E0.03497
G1 X167.306 Y164.159 E0.03578
G1 X167.670 Y163.070 E0.03545
G1 X167.855 Y162.142 E0.02921
G1 X167.890 Y161.949 E0.00606
G1 X167.966 Y160.778 E0.03622
G1 X167.966 Y80.284 E2.48485
G1 X82.094 Y80.284 E2.65086
G1 X82.441 Y80.691 F18000.000
G1 F2400.000
G1 X82.441 Y160.765 E2.47188
G1 X82.515 Y161.899 E0.03508
G1 X82.545 Y162.066 E0.00523
G1 X82.724 Y162.966 E0.02832
G1 X83.071 Y164.006 E0.03384
G1 X83.549 Y164.991 E0.03380
G1 X84.149 Y165.906 E0.03379
G1 X84.880 Y166.758 E0.03464
G1 X85.847 Y167.604 E0.03967
G1 X86.742 Y168.193 E0.03307
G1 X87.744 Y168.679 E0.03438
G1 X88.784 Y169.026 E0.03384
G1 X89.684 Y169.205 E0.02832
G1 X89.851 Y169.235 E0.00523
G1 X90.985 Y169.309 E0.03508
G1 X159.015 Y169.309 E2.10009
G1 X160.143 Y169.236 E0.03489
G1 X161.228 Y169.023 E0.03413
G1 X162.253 Y168.680 E0.03339
G1 X163.241 Y168.201 E0.03387
G1 X164.156 Y167.601 E0.03379
G1 X165.008 Y166.870 E0.03464
G1 X165.854 Y165.903 E0.03967
G1 X166.443 Y165.008 E0.03307
G1 X166.929 Y164.006 E0.03438
G1 X167.276 Y162.966 E0.03384
G1 X167.455 Y162.066 E0.02832
G1 X167.485 Y161.899 E0.00523
G1 X167.559 Y160.765 E0.03508
G1 X167.559 Y80.691 E2.47188
G1 X82.501 Y80.691 E2.62573
G1 X82.848 Y81.098 F18000.000
G1 F2400.000
G1 X82.848 Y160.752 E2.45891
G1 X82.919 Y161.849 E0.03394
G1 X82.945 Y161.989 E0.00440
G1 X83.118 Y162.861 E0.02744
G1 X83.449 Y163.852 E0.03224
G1 X83.904 Y164.790 E0.03217
G1 X84.475 Y165.661 E0.03217
G1 X85.179 Y166.481 E0.03335
G1 X86.094 Y167.279 E0.03748
G1 X86.937 Y167.835 E0.03116
G1 X87.898 Y168.301 E0.03299
G1 X88.889 Y168.632 E0.03224
G1 X89.761 Y168.805 E0.02744
G1 X89.901 Y168.831 E0.00440
G1 X90.998 Y168.902 E0.03394
G1 X159.002 Y168.902 E2.09928
G1 X160.090 Y168.831 E0.03367
G1 X161.128 Y168.628 E0.03263
G1 X162.099 Y168.302 E0.03161
G1 X163.040 Y167.846 E0.03228
G1 X163.911 Y167.275 E0.03217
G1 X164.731 Y166.571 E0.03335
G1 X165.529 Y165.656 E0.03748
G1 X166.085 Y164.813 E0.03116
G1 X166.551 Y163.852 E0.03299
G1 X166.882 Y162.861 E0.03224
G1 X167.055 Y161.989 E0.02744
G1 X167.081 Y161.849 E0.00440
G1 X167.152 Y160.752 E0.03394
G1 X167.152 Y81.098 E2.45891
G1 X82.908 Y81.098 E2.60060
G1 E-0.08000 F3000.00000
G1 F14400.000
G1 X82.906 Y84.554 E-0.68400
G1 E-0.03600 F3000.00000
G1 X91.325 Y89.325 F18000.000
G1 E0.80000 F2100.00000
; custom gcode: feature_gcode
;ExternalPerimeter                   ;  ExternalPerimeter
M204 P750 T5000
; custom gcode end: feature_gcode

;TYPE:External perimeter
G1 F2400.000
G1 X108.675 Y89.325 E0.53560
G1 X108.675 Y160.675 E2.20258
G1 X91.325 Y160.675 E0.53560
G1 X91.325 Y89.385 E2.20073
G1 X91.325 Y88.925 F18000.000
G1 X90.916 Y88.916
; custom gcode: feature_gcode
;Perimeter                        ;  Perimeter
M204 P1000 T5000
; custom gcode end: feature_gcode

;TYPE:Perimeter
G1 F2400.000
G1 X109.084 Y88.916 E0.56086
G1 X109.084 Y161.084 E2.22785
G1 X90.916 Y161.084 E0.56086
G1 X90.916 Y88.976 E2.22600
G1 X90.509 Y88.509 F18000.000
G1 F2400.000
G1 X109.491 Y88.509 E0.58600
G1 X109.491 Y161.491 E2.25298
G1 X90.509 Y161.491 E0.58600
G1 X90.509 Y88.569 E2.25113
G1 X90.102 Y88.102 F18000.000
G1 F2400.000
G1 X109.898 Y88.102 E0.61113
G1 X109.898 Y161.898 E2.27811
G1 X90.102 Y161.898 E0.61113
G1 X90.102 Y88.162 E2.27626
G1 E-0.08000 F3000.00000
G1 F14400.000
G1 X93.558 Y88.151 E-0.68400
G1 E-0.03600 F3000.00000
G1 X141.325 Y89.725 F18000.000
G1 E0.80000 F2100.00000
; custom gcode: feature_gcode
;ExternalPerimeter                   ;  ExternalPerimeter
M204 P750 T5000
; custom gcode end: feature_gcode

;TYPE:External perimeter
G1 F2400.000
G1 X158.675 Y89.725 E0.53560
G1 X158.675 Y160.675 E2.19023
G1 X141.325 Y160.675 E0.53560
G1 X141.325 Y89.785 E2.18838
G1 X141.325 Y89.325 F18000.000
G1 X140.916 Y89.316
; custom gcode: feature_gcode
;Perimeter                        ;  Perimeter
M204 P1000 T5000
; custom gcode end: feature_gcode

;TYPE:Perimeter
G1 F2400.000
G1 X159.084 Y89.316 E0.56086
G1 X159.084 Y161.084 E2.21550
G1 X140.916 Y161.084 E0.56086
G1 X140.916 Y89.376 E2.21365
G1 X140.509 Y88.909 F18000.000
G1 F2400.000
G1 X159.491 Y88.909 E0.58600
G1 X159.491 Y161.491 E2.24063
G1 X140.509 Y161.491 E0.58600
G1 X140.509 Y88.969 E2.23878
G1 X140.102 Y88.502 F18000.000
G1 F2400.000
G1 X159.898 Y88.502 E0.61113
G1 X159.898 Y161.898 E2.26577
G1 X140.102 Y161.898 E0.61113
G1 X140.102 Y88.562 E2.26391
G1 E-0.08000 F3000.00000
G1 F14400.000
G1 X143.558 Y88.551 E-0.68400
G1 E-0.03600 F3000.00000
G1 X167.013 Y92.721 F18000.000
G1 E0.80000 F2100.00000
; custom gcode: feature_gcode
;SolidInfill                      ;  SolidInfill
M204 P2000 T5000
; custom gcode end: feature_gcode

;TYPE:Solid infill
G1 F3600.000
G1 X160.220 Y88.799 E0.24215
G1 X160.220 Y89.269 E0.01451
G1 X166.830 Y93.085 E0.23562
G1 X166.830 Y93.555 E0.01451
G1 X160.220 Y89.739 E0.23562
G1 X160.220 Y90.209 E0.01451
G1 X166.830 Y94.025 E0.23562
G1 X166.830 Y94.496 E0.01451
G1 X160.220 Y90.679 E0.23562
G1 X160.220 Y91.149 E0.01451
G1 X166.830 Y94.966 E0.23562
G1 X166.830 Y95.436 E0.01451
G1 X160.220 Y91.619 E0.23562
G1 X160.220 Y92.089 E0.01451
G1 X166.830 Y95.906 E0.23562
G1 X166.830 Y96.376 E0.01451
G1 X160.220 Y92.559 E0.23562
G1 X160.220 Y93.029 E0.01451
G1 X166.830 Y96.846 E0.23562
G1 X166.830 Y97.316 E0.01451
G1 X160.220 Y93.500 E0.23562
G1 X160.220 Y93.970 E0.01451
G1 X166.830 Y97.786 E0.23562
G1 X166.830 Y98.256 E0.01451
G1 X160.220 Y94.440 E0.23562
G1 X160.220 Y94.910 E0.01451
G1 X166.830 Y98.726 E0.23562
G1 X166.830 Y99.196 E0.01451
G1 X160.220 Y95.380 E0.23562
G1 X160.220 Y95.850 E0.01451
G1 X166.830 Y99.666 E0.23562
G1 X166.830 Y100.136 E0.01451
