G10 P0 R240 S240 ; sets the standby temperature
; generated by SuperSlicer 2.3.55 on 2023-10-04 at 14:35:56 UTC

; TODO: check the size of the extruder and the y-bar clearance. Optimize & test supports.

; external perimeters extrusion width = 0.39mm
; perimeters extrusion width = 0.40mm
; infill extrusion width = 0.60mm
; solid infill extrusion width = 0.60mm
; top infill extrusion width = 0.32mm
; first layer extrusion width = 0.45mm

; object:{"name":"VHB_DIN_Mount","id":"VHB_DIN_Mount.STL id:0 copy 0","object_center":[106.834902,110.111658,0.000000],"boundingbox_center":[106.834902,110.111658,2.300009],"boundingbox_size":[35.000000,18.000000,4.600019]}
; object:{"name":"Fan_Mount_Bottom_x1","id":"Fan_Mount_Bottom_x1.stl id:1 copy 0","object_center":[136.109834,103.142244,0.000000],"boundingbox_center":[136.109834,103.142244,4.500000],"boundingbox_size":[22.549866,32.000000,9.000000]}
; object:{"name":"Fan_Mount_Top_x1","id":"Fan_Mount_Top_x1.stl id:2 copy 0","object_center":[109.334903,94.861658,0.000000],"boundingbox_center":[109.334903,94.861658,3.000000],"boundingbox_size":[30.000000,11.500000,6.000000]}
; object:{"name":"PCB_DIN_Clip_x2","id":"PCB_DIN_Clip_x2.stl id:3 copy 0","object_center":[124.758452,138.433680,0.000000],"boundingbox_center":[124.758452,138.433680,4.000000],"boundingbox_size":[62.777689,19.794095,8.000000]}
; object:{"name":"PSU_Cover_x1","id":"PSU_Cover_x1.STL id:4 copy 0","object_center":[125.000000,125.111658,0.000000],"boundingbox_center":[125.000000,125.111658,8.000000],"boundingbox_size":[74.199997,11.000000,16.000000]}
; object:{"name":"PCB_DIN_Clip_x2","id":"PCB_DIN_Clip_x2.stl id:5 copy 0","object_center":[125.287837,155.529241,0.000000],"boundingbox_center":[125.287837,155.529241,4.000000],"boundingbox_size":[62.777689,19.794095,8.000000]}
; plater:{"center":[125.000000,126.284266,0.000000],"boundingbox_center":[125.000000,126.284266,8.000000],"boundingbox_size":[74.199997,78.284045,16.000000]}

;TYPE:Custom
; custom gcode: start_gcode
M106 P4 S255
M140 S95 ; set bed final temp
M104 S240 ; set extruder final temp
M190 S95 ; wait for bed final temp
M109 S240 ; wait for extruder final temp
;G29
G28
;M98 P"/macros/nozzle/brush.g"
;PRINT_START

G92 E0 ;Reset Extruder
;;G1 Z2.0 F3000 ;Move Z Axis up


G1 X100 Y4.6 Z0.3 F18000.0 ; Move to side a little

G1 X5 Y4.6 Z0.3 F1500.0 E10 ; Draw the second line

G1 X5 Y4.2 Z0.3 F1500.0 E10 ; Draw the third line

G1 X100 Y4.2 Z0.3 F1500.0 E10 ; Draw the third line


;G92 E0;		Reset extruder
;G1 X1 Y10 F6000;
;G1 Z1.7;
;G1 X1 Y60 E140 F50;
;G1 E-<DESTRING> F1500;
;G1 Z4
;G1 X<NEXTX> Y<NEXTY> F12000;
;G92 E0 ;Reset Extruder

;G1 Z2.0 F3000 ;Move Z Axis up
; custom gcode end: start_gcode
M107
G21 ; set units to millimeters
G90 ; use absolute coordinates
M83 ; use relative distances for extrusion
; custom gcode: start_filament_gcode
; Filament gcode
M572 D0 S0.07
; custom gcode end: start_filament_gcode
;LAYER_CHANGE
;Z:0.2
;HEIGHT:0.2
; custom gcode: before_layer_gcode
;BEFORE_LAYER_CHANGE
;0.2

; custom gcode end: before_layer_gcode

G1 Z0.200000 F18000.000
; custom gcode: layer_gcode
;AFTER_LAYER_CHANGE
;0.2
; custom gcode end: layer_gcode

G1 E-0.80000 F3000.00000
G1 Z1.000000 F18000.000
G1 X91.357 Y86.955
G1 Z0.200000
G1 E0.80000 F2100.00000
; custom gcode: feature_gcode
;Skirt
M204 P2000 T5000
; custom gcode end: feature_gcode

;TYPE:Skirt
G1 F2400.000
G1 X92.289 Y86.081 E0.04024
G1 X93.327 Y85.474 E0.03785
G1 X94.456 Y85.202 E0.03653
G1 X143.393 Y83.217 E1.54178
G1 X144.381 Y83.280 E0.03117
G1 X145.353 Y83.466 E0.03116
G1 X146.295 Y83.771 E0.03116
G1 X147.196 Y84.194 E0.03132
G1 X148.028 Y84.720 E0.03101
G1 X148.796 Y85.353 E0.03132
G1 X149.476 Y86.072 E0.03116
G1 X150.076 Y86.896 E0.03209
G1 X165.621 Y118.278 E1.10245
G1 X165.923 Y119.125 E0.02829
G1 X166.025 Y119.998 E0.02767
G1 X166.025 Y128.241 E0.25948
G1 X165.961 Y128.917 E0.02139
G1 X159.927 Y152.604 E0.76944
G1 X159.673 Y153.307 E0.02354
G1 X159.230 Y154.027 E0.02660
G1 X151.388 Y164.011 E0.39965
G1 X149.708 Y165.788 E0.07700
G1 X148.990 Y166.235 E0.02660
G1 X148.189 Y166.518 E0.02676
G1 X147.551 Y166.614 E0.02031
G1 X144.216 Y166.783 E0.10510
G1 X105.632 Y166.783 E1.21461
G1 X104.773 Y166.686 E0.02722
G1 X103.960 Y166.405 E0.02706
G1 X95.078 Y160.872 E0.32942
G1 X92.818 Y158.862 E0.09521
G1 X92.124 Y157.925 E0.03669
G1 X91.809 Y157.136 E0.02676
G1 X84.029 Y128.859 E0.92322
G1 X83.975 Y128.231 E0.01985
G1 X83.981 Y119.806 E0.26520
G1 X85.480 Y101.106 E0.59056
G1 X85.759 Y100.130 E0.03196
G1 X90.788 Y87.831 E0.41828
G1 X91.324 Y87.005 E0.03098
G1 X91.663 Y87.226 F18000.000
G1 F2400.000
G1 X92.530 Y86.409 E0.03752
G1 X93.480 Y85.851 E0.03465
G1 X94.508 Y85.606 E0.03328
G1 X143.389 Y83.625 E1.54003
G1 X144.327 Y83.684 E0.02957
G1 X145.249 Y83.859 E0.02956
G1 X146.143 Y84.149 E0.02956
G1 X147.001 Y84.552 E0.02986
G1 X147.791 Y85.051 E0.02942
G1 X148.523 Y85.654 E0.02985
G1 X149.167 Y86.338 E0.02956
G1 X149.738 Y87.123 E0.03058
G1 X165.256 Y118.458 E1.10074
G1 X165.529 Y119.225 E0.02561
G1 X165.618 Y120.002 E0.02460
G1 X165.618 Y128.235 E0.25918
G1 X165.560 Y128.848 E0.01937
G1 X159.533 Y152.503 E0.76844
G1 X159.302 Y153.138 E0.02126
G1 X158.907 Y153.779 E0.02373
G1 X151.087 Y163.737 E0.39858
G1 X149.481 Y165.449 E0.07387
G1 X148.824 Y165.863 E0.02446
G1 X148.091 Y166.123 E0.02446
G1 X144.214 Y166.376 E0.12232
G1 X105.632 Y166.376 E1.21452
G1 X104.860 Y166.288 E0.02446
G1 X104.127 Y166.033 E0.02446
G1 X95.320 Y160.545 E0.32666
G1 X93.115 Y158.583 E0.09291
G1 X92.482 Y157.731 E0.03342
G1 X92.201 Y157.026 E0.02388
G1 X84.430 Y128.790 E0.92191
G1 X84.387 Y119.826 E0.28217
G1 X85.882 Y101.171 E0.58914
G1 X86.138 Y100.279 E0.02924
G1 X91.159 Y88.000 E0.41759
G1 X91.630 Y87.277 E0.02717
G1 X91.969 Y87.499 F18000.000
G1 F2400.000
G1 X92.772 Y86.736 E0.03487
G1 X93.626 Y86.231 E0.03123
G1 X94.555 Y86.011 E0.03006
G1 X143.391 Y84.032 E1.53858
G1 X144.273 Y84.087 E0.02783
G1 X145.150 Y84.254 E0.02810
G1 X145.995 Y84.528 E0.02796
G1 X146.807 Y84.909 E0.02824
G1 X147.554 Y85.382 E0.02782
G1 X148.246 Y85.953 E0.02823
G1 X148.855 Y86.599 E0.02796
G1 X149.399 Y87.350 E0.02919
G1 X164.891 Y118.638 E1.09906
G1 X165.134 Y119.327 E0.02299
G1 X165.211 Y120.005 E0.02149
G1 X165.159 Y128.775 E0.27606
G1 X159.139 Y152.402 E0.76752
G1 X158.931 Y152.970 E0.01904
G1 X158.584 Y153.532 E0.02081
G1 X150.787 Y163.462 E0.39743
G1 X149.250 Y165.113 E0.07101
G1 X148.656 Y165.492 E0.02217
G1 X147.992 Y165.728 E0.02217
G1 X144.211 Y165.969 E0.11927
G1 X105.637 Y165.969 E1.21428
G1 X104.950 Y165.891 E0.02176
G1 X104.297 Y165.664 E0.02176
G1 X95.564 Y160.219 E0.32397
G1 X93.407 Y158.300 E0.09089
G1 X92.840 Y157.537 E0.02992
G1 X92.594 Y156.919 E0.02095
G1 X84.830 Y128.716 E0.92084
G1 X84.794 Y119.846 E0.27921
G1 X86.284 Y101.236 E0.58770
G1 X86.517 Y100.427 E0.02651
G1 X91.529 Y88.168 E0.41691
G1 X91.936 Y87.549 E0.02332
G1 X92.273 Y87.771 F18000.000
G1 F2400.000
G1 X93.005 Y87.070 E0.03191
G1 X93.772 Y86.611 E0.02814
G1 X94.595 Y86.416 E0.02662
G1 X143.393 Y84.439 E1.53738
G1 X144.224 Y84.491 E0.02624
G1 X145.051 Y84.649 E0.02649
G1 X145.847 Y84.907 E0.02636
G1 X146.613 Y85.267 E0.02662
G1 X147.313 Y85.711 E0.02611
G1 X147.969 Y86.251 E0.02674
G1 X148.543 Y86.861 E0.02636
G1 X149.060 Y87.575 E0.02777
G1 X164.526 Y118.818 E1.09742
G1 X164.739 Y119.426 E0.02028
G1 X164.804 Y120.007 E0.01838
G1 X164.758 Y128.704 E0.27381
G1 X158.745 Y152.296 E0.76640
G1 X158.563 Y152.796 E0.01672
G1 X158.263 Y153.282 E0.01800
G1 X150.485 Y163.188 E0.39646
G1 X149.013 Y164.780 E0.06826
G1 X148.486 Y165.122 E0.01978
G1 X147.899 Y165.332 E0.01965
G1 X144.208 Y165.562 E0.11640
G1 X105.638 Y165.562 E1.21417
G1 X105.037 Y165.493 E0.01901
G1 X104.467 Y165.294 E0.01901
G1 X95.803 Y159.890 E0.32144
G1 X93.701 Y158.018 E0.08861
G1 X93.196 Y157.340 E0.02662
G1 X92.986 Y156.808 E0.01800
G1 X85.231 Y128.645 E0.91955
G1 X85.200 Y119.870 E0.27625
G1 X86.685 Y101.306 E0.58625
G1 X86.896 Y100.576 E0.02391
G1 X91.898 Y88.341 E0.41609
G1 X92.240 Y87.821 E0.01959
; printing object VHB_DIN_Mount.STL id:0 copy 0
G1 E-0.08000 F3000.00000
G1 F14400.000
G1 X93.005 Y87.070 E-0.21219
G1 X93.772 Y86.611 E-0.17694
G1 X94.595 Y86.416 E-0.16734
G1 X95.239 Y86.390 E-0.12753
G1 E-0.03600 F3000.00000
G1 Z0.600000 F18000.000
G1 X104.965 Y105.785
G1 Z0.200000
G1 E0.80000 F2100.00000
; custom gcode: feature_gcode
;Perimeter                        ;  Perimeter
M204 P1000 T5000
; custom gcode end: feature_gcode

;TYPE:Perimeter
G1 F2400.000
G1 X102.863 Y104.404 E0.07918
G1 X101.210 Y105.298 E0.05916
G1 X101.220 Y107.760 E0.07749
G1 X101.261 Y108.366 E0.01911
G1 X101.384 Y109.116 E0.02395
G1 X101.261 Y109.867 E0.02395
G1 X101.220 Y110.473 E0.01911
G1 X101.210 Y112.847 E0.07474
G1 X107.058 Y116.674 E0.22001
G1 X108.710 Y115.780 E0.05911
G1 X108.705 Y114.438 E0.04224
G1 X110.807 Y115.819 E0.07917
G1 X112.460 Y114.925 E0.05916
G1 X112.450 Y112.463 E0.07749
G1 X112.409 Y111.858 E0.01911
G1 X112.286 Y111.107 E0.02395
G1 X112.409 Y110.356 E0.02395
G1 X112.450 Y109.750 E0.01911
G1 X112.460 Y107.376 E0.07474
G1 X106.611 Y103.550 E0.22001
G1 X104.960 Y104.443 E0.05911
G1 X104.965 Y105.725 E0.04036
G1 X105.376 Y106.541 F18000.000
G1 F2400.000
G1 X102.843 Y104.878 E0.09539
G1 X101.618 Y105.541 E0.04383
G1 X101.627 Y107.745 E0.06940
G1 X101.666 Y108.319 E0.01810
G1 X101.796 Y109.116 E0.02544
G1 X101.666 Y109.914 E0.02544
G1 X101.627 Y110.488 E0.01810
G1 X101.618 Y112.628 E0.06737
G1 X107.078 Y116.200 E0.20540
G1 X108.302 Y115.538 E0.04380
G1 X108.294 Y113.682 E0.05843
G1 X110.827 Y115.345 E0.09538
G1 X112.052 Y114.683 E0.04383
G1 X112.043 Y112.478 E0.06940
G1 X112.004 Y111.904 E0.01810
G1 X111.874 Y111.107 E0.02544
G1 X112.004 Y110.309 E0.02544
G1 X112.043 Y109.736 E0.01810
G1 X112.052 Y107.596 E0.06737
G1 X106.592 Y104.023 E0.20540
G1 X105.368 Y104.685 E0.04380
G1 X105.375 Y106.481 E0.05655
G1 X105.816 Y107.353 F18000.000
G1 F2400.000
G1 X105.234 Y106.935 E0.02255
G1 X102.822 Y105.352 E0.09082
G1 X102.026 Y105.783 E0.02850
G1 X102.034 Y107.731 E0.06132
G1 X102.071 Y108.272 E0.01709
G1 X102.208 Y109.116 E0.02693
G1 X102.071 Y109.961 E0.02693
G1 X102.034 Y110.502 E0.01709
G1 X102.026 Y112.408 E0.06000
G1 X107.098 Y115.727 E0.19080
G1 X107.894 Y115.296 E0.02848
G1 X107.886 Y113.348 E0.06132
G1 X107.853 Y112.871 E0.01506
G1 X108.436 Y113.288 E0.02255
G1 X110.847 Y114.871 E0.09082
G1 X111.644 Y114.441 E0.02850
G1 X111.636 Y112.493 E0.06132
G1 X111.599 Y111.951 E0.01709
G1 X111.461 Y111.107 E0.02693
G1 X111.599 Y110.263 E0.02693
G1 X111.636 Y109.721 E0.01709
G1 X111.644 Y107.815 E0.06000
G1 X106.572 Y104.497 E0.19080
G1 X105.776 Y104.927 E0.02848
G1 X105.784 Y106.875 E0.06132
G1 X105.812 Y107.293 E0.01318
G1 E-0.08000 F3000.00000
G1 F14400.000
G1 X105.234 Y106.935 E-0.13454
G1 X102.913 Y105.412 E-0.54946
G1 E-0.03600 F3000.00000
G1 X102.619 Y109.165 F18000.000
G1 E0.80000 F2100.00000
; custom gcode: feature_gcode
;ExternalPerimeter                   ;  ExternalPerimeter
M204 P750 T5000
; custom gcode end: feature_gcode

;TYPE:External perimeter
G1 F2046.129
G1 X102.481 Y110.008 E0.02690
G1 X102.446 Y110.517 E0.01607
G1 X102.439 Y112.186 E0.05253
G1 X107.118 Y115.247 E0.17601
G1 X107.480 Y115.051 E0.01297
G1 X107.473 Y113.363 E0.05313
G1 X107.439 Y112.854 E0.01607
G1 X107.341 Y112.254 E0.01913
G1 X102.669 Y109.197 E0.17576
G1 X102.237 Y109.046 F18000.000
G1 E-0.08000 F3000.00000
G1 F14400.000
G1 X102.481 Y110.008 E-0.16467
G1 X102.446 Y110.517 E-0.10100
G1 X102.439 Y112.186 E-0.33028
G1 X102.812 Y112.429 E-0.08805
G1 E-0.03600 F3000.00000
G1 X102.439 Y106.028 F18000.000
G1 E0.80000 F2100.00000
G1 X102.446 Y107.716 E0.05313
G1 X102.481 Y108.225 E0.01607
G1 X102.579 Y108.825 E0.01913
G1 X107.512 Y112.053 E0.18560
G1 X108.266 Y112.659 E0.03047
G1 X108.669 Y112.948 E0.01559
G1 X110.868 Y114.391 E0.08280
G1 X111.230 Y114.195 E0.01298
G1 X111.223 Y112.508 E0.05313
G1 X111.189 Y111.998 E0.01607
G1 X111.091 Y111.399 E0.01913
G1 X106.157 Y108.171 E0.18560
G1 X105.403 Y107.564 E0.03047
G1 X105.001 Y107.275 E0.01559
G1 X102.802 Y105.832 E0.08280
G1 X102.492 Y105.999 E0.01109
G1 X102.045 Y106.095 F18000.000
G1 E-0.08000 F3000.00000
G1 F14400.000
G1 X102.446 Y107.716 E-0.33983
G1 X102.481 Y108.225 E-0.10100
G1 X102.579 Y108.825 E-0.12026
G1 X103.098 Y109.165 E-0.12291
G1 E-0.03600 F3000.00000
G1 X106.189 Y105.172 F18000.000
G1 E0.80000 F2100.00000
G1 F2046.128
G1 X106.196 Y106.860 E0.05313
G1 X106.231 Y107.369 E0.01607
G1 X106.329 Y107.969 E0.01913
G1 X111.051 Y111.059 E0.17765
G1 X111.189 Y110.215 E0.02690
G1 X111.223 Y109.706 E0.01607
G1 X111.230 Y108.037 E0.05253
G1 X106.552 Y104.976 E0.17600
G1 X106.242 Y105.144 E0.01108
G1 X105.795 Y105.239 F18000.000
G1 E-0.08000 F3000.00000
G1 F14400.000
G1 X106.196 Y106.860 E-0.33983
G1 X106.231 Y107.369 E-0.10100
G1 X106.329 Y107.969 E-0.12026
G1 X106.848 Y108.309 E-0.12291
G1 E-0.03600 F3000.00000
G1 X91.207 Y102.983 F18000.000
G1 E0.80000 F2100.00000
; custom gcode: feature_gcode
;Perimeter                        ;  Perimeter
M204 P1000 T5000
; custom gcode end: feature_gcode

;TYPE:Perimeter
G1 F2400.000
G1 X122.463 Y102.985 E0.98395
G1 X122.463 Y117.240 E0.44873
G1 X91.207 Y117.240 E0.98395
G1 X91.207 Y103.043 E0.44690
G1 X90.799 Y102.576 F18000.000
G1 F2400.000
G1 X122.870 Y102.578 E1.00957
G1 X122.870 Y117.647 E0.47436
G1 X90.799 Y117.647 E1.00957
G1 X90.799 Y102.636 E0.47253
G1 X90.392 Y102.169 F18000.000
G1 F2400.000
G1 X123.277 Y102.171 E1.03520
G1 X123.277 Y118.054 E0.49998
G1 X90.392 Y118.054 E1.03520
G1 X90.392 Y102.229 E0.49816
G1 X90.003 Y101.836 F18000.000
; custom gcode: feature_gcode
;ExternalPerimeter                   ;  ExternalPerimeter
M204 P750 T5000
; custom gcode end: feature_gcode

;TYPE:External perimeter
G1 F2100.000
G1 X90.068 Y101.776 E0.00276
G1 X90.161 Y101.757 E0.00301
G1 X123.591 Y101.771 E1.05234
G1 X123.646 Y101.811 E0.00215
G1 X123.690 Y101.932 E0.00404
G1 X123.690 Y118.297 E0.51515
G1 X123.667 Y118.388 E0.00295
G1 X123.602 Y118.447 E0.00276
G1 X123.508 Y118.467 E0.00301
G1 X90.150 Y118.467 E1.05012
G1 X90.059 Y118.443 E0.00295
G1 X90.000 Y118.379 E0.00276
G1 X89.980 Y118.285 E0.00301
G1 X89.983 Y101.892 E0.51605
G1 X90.091 Y101.838 F18000.000
G1 E-0.08000 F3000.00000
G1 F14400.000
G1 X90.068 Y101.776 E-0.02834
G1 X90.161 Y101.757 E-0.01894
G1 X93.378 Y101.758 E-0.63672
G1 E-0.03600 F3000.00000
G1 X102.846 Y104.224 F18000.000
G1 E0.80000 F2100.00000
; custom gcode: feature_gcode
;SolidInfill                      ;  SolidInfill
M204 P2000 T5000
; custom gcode end: feature_gcode

;TYPE:Solid infill
G1 F3600.000
G1 X100.937 Y103.334 E0.06629
G1 X99.974 Y103.334 E0.03033
G1 X102.193 Y104.369 E0.07708
G1 X101.747 Y104.610 E0.01596
G1 X99.010 Y103.334 E0.09505
G1 X98.047 Y103.334 E0.03033
G1 X101.301 Y104.851 E0.11302
G1 X100.859 Y105.094 E0.01588
G1 X97.084 Y103.334 E0.13113
G1 X96.120 Y103.334 E0.03033
G1 X100.861 Y105.544 E0.16465
G1 X100.863 Y105.994 E0.01417
G1 X95.157 Y103.334 E0.19818
G1 X94.193 Y103.334 E0.03033
G1 X100.864 Y106.444 E0.23171
G1 X100.866 Y106.894 E0.01417
G1 X93.230 Y103.334 E0.26523
G1 X92.267 Y103.333 E0.03033
G1 X100.868 Y107.344 E0.29876
G1 X100.871 Y107.795 E0.01419
G1 X91.557 Y103.452 E0.32354
G1 X91.557 Y103.901 E0.01414
G1 X100.903 Y108.259 E0.32463
G1 X100.967 Y108.738 E0.01522
G1 X91.557 Y104.350 E0.32686
G1 X91.557 Y104.799 E0.01414
G1 X101.014 Y109.209 E0.32848
G1 X100.946 Y109.626 E0.01331
G1 X91.557 Y105.248 E0.32612
G1 X91.557 Y105.697 E0.01414
G1 X100.898 Y110.053 E0.32445
G1 X100.870 Y110.489 E0.01376
G1 X91.557 Y106.147 E0.32348
G1 X91.557 Y106.596 E0.01414
G1 X100.868 Y110.938 E0.32342
G1 X100.866 Y111.386 E0.01411
G1 X91.557 Y107.045 E0.32335
G1 X91.557 Y107.494 E0.01414
G1 X100.864 Y111.834 E0.32329
G1 X100.862 Y112.282 E0.01411
G1 X91.557 Y107.943 E0.32322
G1 X91.557 Y108.392 E0.01414
G1 X100.860 Y112.731 E0.32316
G1 X100.859 Y113.036 E0.00961
G1 X101.621 Y113.535 E0.02866
G1 X91.557 Y108.841 E0.34958
G1 X91.557 Y109.291 E0.01414
G1 X105.176 Y115.641 E0.47305
G1 E-0.08000 F3000.00000
G1 F14400.000
G1 X102.044 Y114.181 E-0.68400
G1 E-0.03600 F3000.00000
