G10 P0 R235 S235 ; sets the standby temperature
; generated by SuperSlicer 2.3.55 on 2023-09-21 at 10:00:00 UTC

; TODO: check the size of the extruder and the y-bar clearance. Optimize & test supports.

; external perimeters extrusion width = 0.39mm
; perimeters extrusion width = 0.40mm
; infill extrusion width = 0.60mm
; solid infill extrusion width = 0.60mm
; top infill extrusion width = 0.32mm
; first layer extrusion width = 0.45mm

; object:{"name":"wago_221-415_corner_mount","id":"wago_221-415_corner_mount.stl id:0 copy 0","object_center":[125.073512,83.365167,0.000000],"boundingbox_center":[125.073512,83.365167,6.099998],"boundingbox_size":[136.305256,132.502691,12.199997]}
; object:{"name":"Octopus_bracket_set","id":"Octopus_bracket_set.stl id:1 copy 0","object_center":[125.000000,153.882191,0.000000],"boundingbox_center":[125.000000,153.882191,3.500000],"boundingbox_size":[96.599998,40.100002,7.000000]}
; plater:{"center":[125.073512,95.523007,0.000000],"boundingbox_center":[125.073512,95.523007,6.099998],"boundingbox_size":[136.305256,156.818371,12.199997]}

;TYPE:Custom
; custom gcode: start_gcode
M106 P4 S255
M140 S95 ; set bed final temp
M104 S235 ; set extruder final temp
M190 S95 ; wait for bed final temp
M109 S235 ; wait for extruder final temp
;G29
G28
;M98 P"/macros/nozzle/brush.g"
;PRINT_START

G92 E0 ;Reset Extruder
;;G1 Z2.0 F3000 ;Move Z Axis up


G1 X100 Y4.6 Z0.3 F18000.0 ; Move to side a little

G1 X5 Y4.6 Z0.3 F1500.0 E10 ; Draw the second line

G1 X5 Y4.2 Z0.3 F1500.0 E10 ; Draw the third line

G1 X100 Y4.2 Z0.3 F1500.0 E10 ; Draw the third line


;G92 E0;		Reset extruder
;G1 X1 Y10 F6000;
;G1 Z1.7;
;G1 X1 Y60 E140 F50;
;G1 E-<DESTRING> F1500;
;G1 Z4
;G1 X<NEXTX> Y<NEXTY> F12000;
;G92 E0 ;Reset Extruder

;G1 Z2.0 F3000 ;Move Z Axis up
; custom gcode end: start_gcode
M107
G21 ; set units to millimeters
G90 ; use absolute coordinates
M83 ; use relative distances for extrusion
; custom gcode: start_filament_gcode
; Filament gcode
M572 D0 S0.07
; custom gcode end: start_filament_gcode
;LAYER_CHANGE
;Z:0.2
;HEIGHT:0.2
; custom gcode: before_layer_gcode
;BEFORE_LAYER_CHANGE
;0.2

; custom gcode end: before_layer_gcode

G1 Z0.200000 F18000.000
; custom gcode: layer_gcode
;AFTER_LAYER_CHANGE
;0.2
; custom gcode end: layer_gcode

G1 E-0.80000 F3000.00000
G1 Z1.000000 F18000.000
G1 X60.191 Y74.862
G1 Z0.200000
G1 E0.80000 F2100.00000
; custom gcode: feature_gcode
;Skirt
M204 P2000 T5000
; custom gcode end: feature_gcode

;TYPE:Skirt
G1 F2400.000
G1 X61.178 Y74.200 E0.03780
G1 X62.015 Y73.820 E0.02926
G1 X62.899 Y73.563 E0.02926
G1 X80.965 Y69.792 E0.58724
G1 X82.408 Y69.643 E0.04613
G1 X185.226 Y71.651 E3.27209
G1 X186.025 Y71.766 E0.02569
G1 X186.804 Y71.980 E0.02569
G1 X187.549 Y72.290 E0.02569
G1 X188.250 Y72.691 E0.02569
G1 X195.035 Y77.850 E0.27123
G1 X195.932 Y78.704 E0.03939
G1 X196.754 Y79.906 E0.04632
G1 X197.284 Y81.262 E0.04632
G1 X197.495 Y82.702 E0.04632
G1 X197.378 Y84.147 E0.04613
G1 X179.494 Y172.962 E2.88261
G1 X179.082 Y174.307 E0.04476
G1 X178.324 Y175.840 E0.05441
G1 X177.504 Y176.975 E0.04454
G1 X176.358 Y178.123 E0.05164
G1 X175.101 Y179.019 E0.04911
G1 X173.513 Y179.777 E0.05601
G1 X172.105 Y180.172 E0.04652
G1 X170.398 Y180.355 E0.05462
G1 X79.679 Y180.357 E2.88649
G1 X78.661 Y180.294 E0.03245
G1 X77.632 Y180.117 E0.03321
G1 X76.635 Y179.830 E0.03301
G1 X75.693 Y179.444 E0.03241
G1 X74.754 Y178.933 E0.03401
G1 X73.924 Y178.354 E0.03221
G1 X73.133 Y177.663 E0.03341
G1 X72.508 Y176.989 E0.02922
G1 X71.787 Y176.015 E0.03858
G1 X71.240 Y175.046 E0.03540
G1 X70.804 Y174.003 E0.03599
G1 X70.493 Y172.902 E0.03639
G1 X53.094 Y87.469 E2.77410
G1 X52.978 Y86.550 E0.02946
G1 X52.996 Y85.618 E0.02966
G1 X53.130 Y84.777 E0.02708
G1 X53.373 Y83.962 E0.02708
G1 X53.722 Y83.186 E0.02708
G1 X54.171 Y82.463 E0.02708
G1 X59.347 Y75.689 E0.27124
G1 X60.148 Y74.904 E0.03570
G1 X60.433 Y75.194 F18000.000
G1 F2400.000
G1 X61.393 Y74.547 E0.03686
G1 X62.172 Y74.196 E0.02717
G1 X62.986 Y73.961 E0.02697
G1 X81.041 Y70.192 E0.58685
G1 X82.410 Y70.050 E0.04379
G1 X185.188 Y72.056 E3.27079
G1 X186.673 Y72.365 E0.04827
G1 X188.034 Y73.036 E0.04827
G1 X194.777 Y78.165 E0.26956
G1 X195.615 Y78.960 E0.03677
G1 X196.389 Y80.087 E0.04349
G1 X196.888 Y81.359 E0.04349
G1 X197.088 Y82.711 E0.04349
G1 X196.977 Y84.073 E0.04349
G1 X179.098 Y172.865 E2.88187
G1 X178.706 Y174.151 E0.04276
G1 X177.978 Y175.625 E0.05232
G1 X177.199 Y176.705 E0.04236
G1 X176.103 Y177.806 E0.04944
G1 X174.902 Y178.664 E0.04697
G1 X173.375 Y179.394 E0.05386
G1 X172.029 Y179.772 E0.04447
G1 X170.388 Y179.948 E0.05251
G1 X79.687 Y179.950 E2.88591
G1 X78.714 Y179.891 E0.03101
G1 X77.730 Y179.722 E0.03177
G1 X76.770 Y179.446 E0.03178
G1 X75.868 Y179.077 E0.03100
G1 X74.965 Y178.585 E0.03274
G1 X74.171 Y178.030 E0.03081
G1 X72.822 Y176.730 E0.05961
G1 X72.130 Y175.797 E0.03697
G1 X71.603 Y174.864 E0.03409
G1 X71.186 Y173.864 E0.03447
G1 X70.891 Y172.815 E0.03467
G1 X53.493 Y87.388 E2.77390
G1 X53.385 Y86.535 E0.02736
G1 X53.400 Y85.669 E0.02755
G1 X53.524 Y84.879 E0.02543
G1 X53.753 Y84.107 E0.02563
G1 X54.084 Y83.373 E0.02563
G1 X54.506 Y82.694 E0.02543
G1 X59.652 Y75.958 E0.26971
G1 X60.390 Y75.236 E0.03284
G1 X60.674 Y75.526 F18000.000
G1 F2400.000
G1 X61.604 Y74.895 E0.03577
G1 X62.320 Y74.576 E0.02493
G1 X63.078 Y74.357 E0.02512
G1 X81.117 Y70.592 E0.58633
G1 X82.407 Y70.457 E0.04127
G1 X185.150 Y72.462 E3.26968
G1 X186.544 Y72.752 E0.04531
G1 X187.820 Y73.383 E0.04531
G1 X194.523 Y78.484 E0.26800
G1 X195.300 Y79.218 E0.03402
G1 X196.023 Y80.266 E0.04050
G1 X196.493 Y81.455 E0.04069
G1 X196.681 Y82.720 E0.04069
G1 X196.578 Y83.995 E0.04069
G1 X178.701 Y172.775 E2.88149
G1 X178.329 Y173.995 E0.04059
G1 X177.632 Y175.411 E0.05021
G1 X176.890 Y176.440 E0.04037
G1 X175.842 Y177.493 E0.04725
G1 X174.697 Y178.313 E0.04483
G1 X173.225 Y179.015 E0.05189
G1 X171.947 Y179.373 E0.04223
G1 X170.372 Y179.542 E0.05040
G1 X79.689 Y179.543 E2.88533
G1 X78.761 Y179.486 E0.02958
G1 X77.821 Y179.325 E0.03034
G1 X76.905 Y179.062 E0.03035
G1 X76.044 Y178.710 E0.02960
G1 X75.181 Y178.239 E0.03127
G1 X74.423 Y177.710 E0.02941
G1 X73.135 Y176.470 E0.05689
G1 X72.470 Y175.572 E0.03554
G1 X71.969 Y174.686 E0.03239
G1 X71.571 Y173.730 E0.03294
G1 X71.289 Y172.728 E0.03313
G1 X53.894 Y87.313 E2.77350
G1 X53.792 Y86.518 E0.02549
G1 X53.804 Y85.718 E0.02549
G1 X53.920 Y84.972 E0.02400
G1 X54.135 Y84.249 E0.02400
G1 X54.442 Y83.567 E0.02382
G1 X54.841 Y82.926 E0.02400
G1 X59.955 Y76.231 E0.26805
G1 X60.631 Y75.568 E0.03015
G1 X60.915 Y75.858 F18000.000
G1 F2400.000
G1 X60.980 Y75.794 E0.00290
G1 X61.817 Y75.243 E0.03187
G1 X63.164 Y74.755 E0.04558
G1 X81.199 Y70.990 E0.58621
G1 X82.405 Y70.864 E0.03860
G1 X185.107 Y72.867 E3.26838
G1 X186.412 Y73.137 E0.04238
G1 X187.609 Y73.732 E0.04256
G1 X194.270 Y78.802 E0.26635
G1 X194.987 Y79.478 E0.03133
G1 X195.662 Y80.454 E0.03775
G1 X196.100 Y81.562 E0.03793
G1 X196.274 Y82.736 E0.03775
G1 X196.177 Y83.924 E0.03793
G1 X178.305 Y172.680 E2.88069
G1 X177.952 Y173.841 E0.03862
G1 X177.285 Y175.197 E0.04809
G1 X176.584 Y176.172 E0.03821
G1 X175.581 Y177.180 E0.04524
G1 X174.491 Y177.962 E0.04268
G1 X173.081 Y178.635 E0.04971
G1 X171.870 Y178.973 E0.04000
G1 X170.356 Y179.135 E0.04845
G1 X79.697 Y179.135 E2.88458
G1 X77.912 Y178.929 E0.05717
G1 X76.219 Y178.342 E0.05702
G1 X75.396 Y177.894 E0.02981
G1 X74.674 Y177.390 E0.02802
G1 X73.452 Y176.213 E0.05398
G1 X72.813 Y175.353 E0.03410
G1 X72.335 Y174.508 E0.03088
G1 X71.955 Y173.596 E0.03142
G1 X71.686 Y172.640 E0.03160
G1 X54.293 Y87.232 E2.77329
G1 X54.199 Y86.501 E0.02347
G1 X54.209 Y85.763 E0.02347
G1 X54.516 Y84.392 E0.04469
G1 X55.178 Y83.154 E0.04469
G1 X60.261 Y76.499 E0.26643
G1 X60.873 Y75.900 E0.02724
; printing object wago_221-415_corner_mount.stl id:0 copy 0
G1 E-0.08000 F3000.00000
G1 F14400.000
G1 X60.980 Y75.794 E-0.02992
G1 X61.817 Y75.243 E-0.19823
G1 X63.164 Y74.755 E-0.28352
G1 X64.016 Y74.577 E-0.17234
G1 E-0.03600 F3000.00000
G1 Z0.600000 F18000.000
G1 X73.968 Y89.617
G1 Z0.200000
G1 E0.80000 F2100.00000
; custom gcode: feature_gcode
;Perimeter                        ;  Perimeter
M204 P1000 T5000
; custom gcode end: feature_gcode

;TYPE:Perimeter
G1 F2400.000
G1 X82.612 Y78.288 E0.45340
G1 X125.633 Y111.115 E1.72181
G1 X126.356 Y111.630 E0.02825
G1 X127.134 Y112.110 E0.02908
G1 X127.942 Y112.538 E0.02907
G1 X128.776 Y112.911 E0.02908
G1 X129.632 Y113.229 E0.02907
G1 X130.508 Y113.490 E0.02907
G1 X131.399 Y113.693 E0.02907
G1 X132.302 Y113.836 E0.02907
G1 X133.211 Y113.920 E0.02908
G1 X134.125 Y113.944 E0.02908
G1 X135.038 Y113.907 E0.02907
G1 X135.947 Y113.811 E0.02908
G1 X136.847 Y113.654 E0.02908
G1 X137.735 Y113.439 E0.02907
G1 X138.607 Y113.166 E0.02907
G1 X139.459 Y112.836 E0.02908
G1 X140.288 Y112.451 E0.02907
G1 X141.089 Y112.012 E0.02907
G1 X141.860 Y111.521 E0.02908
G1 X142.597 Y110.981 E0.02908
G1 X143.277 Y110.409 E0.02825
G1 X146.072 Y107.899 E0.11953
G1 X146.680 Y107.318 E0.02677
G1 X147.267 Y106.682 E0.02755
G1 X147.798 Y106.029 E0.02677
G1 X166.589 Y81.403 E0.98559
G1 X177.917 Y90.048 E0.45340
G1 X185.006 Y80.758 E0.37179
G1 X188.390 Y83.340 E0.13544
G1 X162.978 Y116.644 E1.33291
G1 X160.949 Y115.096 E0.08120
G1 X159.214 Y114.738 E0.05638
G1 X157.790 Y114.499 E0.04593
G1 X156.358 Y114.316 E0.04593
G1 X154.920 Y114.187 E0.04593
G1 X153.479 Y114.112 E0.04593
G1 X152.035 Y114.093 E0.04592
G1 X150.942 Y114.119 E0.03479
G1 X149.156 Y114.218 E0.05691
G1 X147.715 Y114.364 E0.04610
G1 X146.285 Y114.564 E0.04593
G1 X144.865 Y114.818 E0.04592
G1 X143.796 Y115.050 E0.03479
G1 X142.061 Y115.485 E0.05690
G1 X140.673 Y115.901 E0.04610
G1 X139.307 Y116.368 E0.04593
G1 X137.960 Y116.886 E0.04593
G1 X136.633 Y117.455 E0.04593
G1 X135.329 Y118.074 E0.04593
G1 X134.360 Y118.580 E0.03479
G1 X132.801 Y119.456 E0.05690
G1 X131.571 Y120.222 E0.04610
G1 X130.376 Y121.032 E0.04593
G1 X129.213 Y121.887 E0.04593
G1 X128.083 Y122.785 E0.04593
G1 X126.988 Y123.726 E0.04593
G1 X125.929 Y124.707 E0.04593
G1 X124.909 Y125.728 E0.04593
G1 X123.928 Y126.788 E0.04593
G1 X122.989 Y127.883 E0.04593
G1 X122.101 Y129.002 E0.04546
G1 X120.800 Y130.706 E0.06820
G1 X62.096 Y85.913 E2.34949
G1 X64.679 Y82.529 E0.13544
G1 X73.920 Y89.581 E0.36988
G1 X73.892 Y89.047 F18000.000
G1 F2400.000
G1 X82.536 Y77.718 E0.45340
G1 X125.875 Y110.787 E1.73455
G1 X126.582 Y111.291 E0.02761
G1 X127.336 Y111.757 E0.02822
G1 X128.120 Y112.172 E0.02822
G1 X128.930 Y112.534 E0.02822
G1 X129.761 Y112.843 E0.02822
G1 X130.611 Y113.096 E0.02822
G1 X131.476 Y113.293 E0.02822
G1 X132.352 Y113.432 E0.02822
G1 X133.235 Y113.513 E0.02822
G1 X134.122 Y113.536 E0.02822
G1 X135.008 Y113.501 E0.02822
G1 X135.890 Y113.407 E0.02822
G1 X136.764 Y113.256 E0.02822
G1 X137.626 Y113.047 E0.02822
G1 X138.473 Y112.782 E0.02822
G1 X139.300 Y112.461 E0.02822
G1 X140.104 Y112.087 E0.02822
G1 X140.882 Y111.661 E0.02822
G1 X141.630 Y111.185 E0.02822
G1 X142.345 Y110.660 E0.02822
G1 X143.010 Y110.102 E0.02761
G1 X145.795 Y107.601 E0.11912
G1 X146.389 Y107.032 E0.02616
G1 X146.959 Y106.415 E0.02674
G1 X147.478 Y105.777 E0.02616
G1 X166.512 Y80.833 E0.99834
G1 X177.841 Y89.477 E0.45340
G1 X184.929 Y80.187 E0.37179
G1 X188.960 Y83.264 E0.16135
G1 X163.054 Y117.215 E1.35881
G1 X160.776 Y115.476 E0.09120
G1 X159.139 Y115.138 E0.05318
G1 X157.730 Y114.902 E0.04544
G1 X156.314 Y114.721 E0.04544
G1 X154.891 Y114.593 E0.04544
G1 X153.465 Y114.519 E0.04544
G1 X152.038 Y114.500 E0.04543
G1 X150.958 Y114.526 E0.03435
G1 X149.188 Y114.624 E0.05641
G1 X147.764 Y114.768 E0.04556
G1 X146.349 Y114.966 E0.04544
G1 X144.944 Y115.217 E0.04543
G1 X143.889 Y115.447 E0.03434
G1 X142.169 Y115.878 E0.05641
G1 X140.798 Y116.289 E0.04556
G1 X139.446 Y116.750 E0.04544
G1 X138.113 Y117.263 E0.04544
G1 X136.801 Y117.826 E0.04544
G1 X135.511 Y118.438 E0.04543
G1 X134.554 Y118.938 E0.03434
G1 X133.009 Y119.806 E0.05641
G1 X131.793 Y120.564 E0.04556
G1 X130.611 Y121.365 E0.04544
G1 X129.460 Y122.210 E0.04544
G1 X128.342 Y123.099 E0.04544
G1 X127.259 Y124.029 E0.04544
G1 X126.212 Y125.000 E0.04544
G1 X125.203 Y126.011 E0.04544
G1 X124.232 Y127.059 E0.04544
G1 X123.303 Y128.143 E0.04544
G1 X122.422 Y129.253 E0.04509
G1 X120.877 Y131.277 E0.08103
G1 X61.526 Y85.990 E2.37539
G1 X64.602 Y81.958 E0.16135
G1 X73.844 Y89.010 E0.36988
G1 X73.815 Y88.476 F18000.000
G1 F2400.000
G1 X82.459 Y77.147 E0.45340
G1 X126.116 Y110.460 E1.74729
G1 X126.807 Y110.951 E0.02697
G1 X127.539 Y111.403 E0.02737
G1 X128.299 Y111.806 E0.02737
G1 X129.084 Y112.157 E0.02737
G1 X129.890 Y112.457 E0.02737
G1 X130.715 Y112.702 E0.02737
G1 X131.553 Y112.893 E0.02737
G1 X132.403 Y113.028 E0.02737
G1 X133.259 Y113.107 E0.02737
G1 X134.119 Y113.129 E0.02737
G1 X134.979 Y113.095 E0.02737
G1 X135.834 Y113.004 E0.02737
G1 X136.681 Y112.857 E0.02737
G1 X137.517 Y112.654 E0.02737
G1 X138.338 Y112.397 E0.02737
G1 X139.140 Y112.087 E0.02737
G1 X139.920 Y111.724 E0.02737
G1 X140.675 Y111.311 E0.02737
G1 X141.400 Y110.849 E0.02737
G1 X142.094 Y110.340 E0.02737
G1 X142.743 Y109.795 E0.02697
G1 X145.518 Y107.302 E0.11870
G1 X146.099 Y106.747 E0.02555
G1 X146.652 Y106.148 E0.02593
G1 X147.158 Y105.525 E0.02555
G1 X166.435 Y80.262 E1.01109
G1 X177.764 Y88.906 E0.45340
G1 X184.852 Y79.617 E0.37179
G1 X189.531 Y83.187 E0.18725
G1 X163.131 Y117.785 E1.38472
G1 X160.602 Y115.856 E0.10120
G1 X159.064 Y115.538 E0.04998
G1 X157.671 Y115.305 E0.04495
G1 X156.270 Y115.125 E0.04495
G1 X154.863 Y114.999 E0.04495
G1 X153.452 Y114.926 E0.04494
G1 X152.040 Y114.907 E0.04494
G1 X150.975 Y114.933 E0.03390
G1 X149.220 Y115.030 E0.05591
G1 X147.812 Y115.173 E0.04502
G1 X146.413 Y115.368 E0.04494
G1 X145.023 Y115.616 E0.04494
G1 X143.982 Y115.843 E0.03390
G1 X142.277 Y116.271 E0.05591
G1 X140.922 Y116.677 E0.04502
G1 X139.585 Y117.133 E0.04495
G1 X138.267 Y117.640 E0.04494
G1 X136.969 Y118.197 E0.04494
G1 X135.693 Y118.803 E0.04494
G1 X134.748 Y119.296 E0.03390
G1 X133.216 Y120.157 E0.05591
G1 X132.015 Y120.905 E0.04502
G1 X130.846 Y121.697 E0.04494
G1 X129.707 Y122.534 E0.04495
G1 X128.602 Y123.413 E0.04494
G1 X127.530 Y124.333 E0.04495
G1 X126.494 Y125.294 E0.04494
G1 X125.496 Y126.293 E0.04495
G1 X124.536 Y127.329 E0.04495
G1 X123.617 Y128.402 E0.04494
G1 X122.743 Y129.503 E0.04472
G1 X120.954 Y131.848 E0.09386
G1 X60.955 Y86.066 E2.40130
G1 X64.525 Y81.388 E0.18725
G1 X73.767 Y88.440 E0.36988
G1 X73.737 Y87.898 F18000.000
; custom gcode: feature_gcode
;ExternalPerimeter                   ;  ExternalPerimeter
M204 P750 T5000
; custom gcode end: feature_gcode

;TYPE:External perimeter
G1 F2100.000
G1 X82.157 Y76.863 E0.44163
G1 X82.202 Y76.814 E0.00213
G1 X82.361 Y76.725 E0.00581
G1 X82.493 Y76.719 E0.00420
G1 X82.619 Y76.758 E0.00420
G1 X126.361 Y110.128 E1.75054
G1 X127.035 Y110.608 E0.02632
G1 X127.744 Y111.045 E0.02650
G1 X128.480 Y111.435 E0.02650
G1 X129.240 Y111.775 E0.02650
G1 X130.021 Y112.065 E0.02650
G1 X130.819 Y112.303 E0.02650
G1 X131.632 Y112.488 E0.02650
G1 X132.454 Y112.618 E0.02650
G1 X133.284 Y112.695 E0.02650
G1 X134.116 Y112.716 E0.02650
G1 X134.949 Y112.683 E0.02650
G1 X135.777 Y112.595 E0.02650
G1 X136.598 Y112.453 E0.02650
G1 X137.407 Y112.257 E0.02650
G1 X138.202 Y112.008 E0.02650
G1 X138.979 Y111.707 E0.02650
G1 X139.734 Y111.356 E0.02650
G1 X140.465 Y110.956 E0.02650
G1 X141.167 Y110.508 E0.02650
G1 X141.839 Y110.015 E0.02650
G1 X142.472 Y109.483 E0.02632
G1 X145.238 Y106.999 E0.11828
G1 X145.805 Y106.458 E0.02494
G1 X146.340 Y105.878 E0.02511
G1 X146.835 Y105.270 E0.02494
G1 X166.133 Y79.978 E1.01224
G1 X166.298 Y79.852 E0.00660
G1 X166.469 Y79.833 E0.00549
G1 X166.652 Y79.909 E0.00628
G1 X177.686 Y88.328 E0.44163
G1 X184.774 Y79.039 E0.37179
G1 X190.109 Y83.109 E0.21350
G1 X163.209 Y118.363 E1.41096
G1 X160.427 Y116.241 E0.11133
G1 X158.988 Y115.944 E0.04674
G1 X157.610 Y115.713 E0.04445
G1 X156.225 Y115.535 E0.04445
G1 X154.834 Y115.410 E0.04445
G1 X153.439 Y115.339 E0.04445
G1 X152.042 Y115.320 E0.04444
G1 X150.991 Y115.345 E0.03345
G1 X149.252 Y115.442 E0.05541
G1 X147.862 Y115.582 E0.04447
G1 X146.478 Y115.775 E0.04445
G1 X145.103 Y116.021 E0.04444
