G10 P0 R235 S235 ; sets the standby temperature
; generated by SuperSlicer 2.3.55 on 2023-09-14 at 17:46:09 UTC

; TODO: check the size of the extruder and the y-bar clearance. Optimize & test supports.

; external perimeters extrusion width = 0.39mm
; perimeters extrusion width = 0.40mm
; infill extrusion width = 0.60mm
; solid infill extrusion width = 0.60mm
; top infill extrusion width = 0.32mm
; first layer extrusion width = 0.45mm

; object:{"name":"wago_221-415_mount_3x5","id":"wago_221-415_mount_3x5.stl id:0 copy 0","object_center":[125.000000,125.000000,0.000000],"boundingbox_center":[125.000000,125.000000,6.100000],"boundingbox_size":[126.800003,23.049999,12.200000]}
; plater:{"center":[125.000000,125.000000,0.000000],"boundingbox_center":[125.000000,125.000000,6.100000],"boundingbox_size":[126.800003,23.049999,12.200000]}

;TYPE:Custom
; custom gcode: start_gcode
M106 P4 S255
M140 S95 ; set bed final temp
M104 S235 ; set extruder final temp
M190 S95 ; wait for bed final temp
M109 S235 ; wait for extruder final temp
;G29
G28
;M98 P"/macros/nozzle/brush.g"
;PRINT_START

G92 E0 ;Reset Extruder
;;G1 Z2.0 F3000 ;Move Z Axis up


G1 X100 Y4.6 Z0.3 F18000.0 ; Move to side a little

G1 X5 Y4.6 Z0.3 F1500.0 E10 ; Draw the second line

G1 X5 Y4.2 Z0.3 F1500.0 E10 ; Draw the third line

G1 X100 Y4.2 Z0.3 F1500.0 E10 ; Draw the third line


;G92 E0;		Reset extruder
;G1 X1 Y10 F6000;
;G1 Z1.7;
;G1 X1 Y60 E140 F50;
;G1 E-<DESTRING> F1500;
;G1 Z4
;G1 X<NEXTX> Y<NEXTY> F12000;
;G92 E0 ;Reset Extruder

;G1 Z2.0 F3000 ;Move Z Axis up
; custom gcode end: start_gcode
M107
G21 ; set units to millimeters
G90 ; use absolute coordinates
M83 ; use relative distances for extrusion
; custom gcode: start_filament_gcode
; Filament gcode
M572 D0 S0.07
; custom gcode end: start_filament_gcode
;LAYER_CHANGE
;Z:0.2
;HEIGHT:0.2
; custom gcode: before_layer_gcode
;BEFORE_LAYER_CHANGE
;0.2

; custom gcode end: before_layer_gcode

G1 Z0.200000 F18000.000
; custom gcode: layer_gcode
;AFTER_LAYER_CHANGE
;0.2
; custom gcode end: layer_gcode

G1 E-0.80000 F3000.00000
G1 Z1.000000 F18000.000
G1 X72.562 Y107.976
G1 Z0.200000
G1 E0.80000 F2100.00000
; custom gcode: feature_gcode
;Skirt
M204 P2000 T5000
; custom gcode end: feature_gcode

;TYPE:Skirt
G1 F2400.000
G1 X73.387 Y107.556 E0.02884
G1 X74.264 Y107.258 E0.02884
G1 X75.057 Y107.104 E0.02514
G1 X75.868 Y107.050 E0.02533
G1 X174.121 Y107.050 E3.05968
G1 X175.390 Y107.178 E0.03972
G1 X176.615 Y107.556 E0.03991
G1 X177.740 Y108.170 E0.03991
G1 X178.720 Y108.995 E0.03991
G1 X190.902 Y123.694 E0.59449
G1 X191.430 Y124.454 E0.02884
G1 X191.843 Y125.283 E0.02884
G1 X192.184 Y126.389 E0.03603
G1 X192.322 Y127.537 E0.03603
G1 X192.324 Y135.819 E0.25789
G1 X192.183 Y137.068 E0.03913
G1 X191.676 Y138.538 E0.04844
G1 X190.831 Y139.844 E0.04844
G1 X189.696 Y140.908 E0.04844
G1 X188.340 Y141.669 E0.04844
G1 X187.154 Y142.026 E0.03855
G1 X185.923 Y142.150 E0.03855
G1 X63.887 Y142.146 E3.80029
G1 X62.868 Y142.031 E0.03195
G1 X61.874 Y141.752 E0.03214
G1 X60.938 Y141.318 E0.03214
G1 X60.088 Y140.743 E0.03195
G1 X59.336 Y140.036 E0.03214
G1 X58.711 Y139.223 E0.03195
G1 X58.223 Y138.320 E0.03195
G1 X57.883 Y137.346 E0.03214
G1 X57.677 Y135.854 E0.04689
G1 X57.682 Y127.437 E0.26211
G1 X57.911 Y125.999 E0.04534
G1 X58.459 Y124.650 E0.04534
G1 X59.125 Y123.659 E0.03719
G1 X71.131 Y109.153 E0.58637
G1 X71.806 Y108.511 E0.02903
G1 X72.513 Y108.011 E0.02697
G1 X72.748 Y108.342 F18000.000
G1 F2400.000
G1 X73.556 Y107.926 E0.02830
G1 X74.388 Y107.646 E0.02734
G1 X75.875 Y107.457 E0.04668
G1 X174.121 Y107.457 E3.05946
G1 X175.319 Y107.579 E0.03749
G1 X176.469 Y107.937 E0.03749
G1 X177.524 Y108.516 E0.03749
G1 X178.443 Y109.294 E0.03749
G1 X190.583 Y123.946 E0.59256
G1 X191.071 Y124.647 E0.02659
G1 X191.455 Y125.410 E0.02659
G1 X191.782 Y126.455 E0.03411
G1 X191.915 Y127.549 E0.03430
G1 X191.917 Y135.798 E0.25689
G1 X191.796 Y136.929 E0.03543
G1 X191.331 Y138.316 E0.04556
G1 X190.545 Y139.550 E0.04556
G1 X189.485 Y140.558 E0.04556
G1 X188.213 Y141.280 E0.04556
G1 X187.090 Y141.624 E0.03656
G1 X185.923 Y141.743 E0.03656
G1 X63.912 Y141.740 E3.79951
G1 X62.950 Y141.632 E0.03016
G1 X62.017 Y141.371 E0.03016
G1 X61.138 Y140.963 E0.03016
G1 X60.336 Y140.420 E0.03016
G1 X59.635 Y139.760 E0.02998
G1 X59.046 Y138.991 E0.03016
G1 X58.587 Y138.138 E0.03016
G1 X58.272 Y137.222 E0.03016
G1 X58.083 Y135.838 E0.04350
G1 X58.088 Y127.458 E0.26096
G1 X58.302 Y126.115 E0.04237
G1 X58.815 Y124.848 E0.04256
G1 X59.443 Y123.914 E0.03505
G1 X71.422 Y109.438 E0.58512
G1 X72.057 Y108.832 E0.02734
G1 X72.699 Y108.377 E0.02451
G1 X72.934 Y108.709 F18000.000
G1 F2400.000
G1 X73.727 Y108.296 E0.02784
G1 X74.509 Y108.036 E0.02567
G1 X75.876 Y107.864 E0.04290
G1 X174.121 Y107.864 E3.05943
G1 X175.243 Y107.979 E0.03511
G1 X176.319 Y108.315 E0.03511
G1 X177.306 Y108.860 E0.03511
G1 X178.164 Y109.591 E0.03511
G1 X190.261 Y124.195 E0.59052
G1 X190.713 Y124.842 E0.02458
G1 X191.068 Y125.540 E0.02440
G1 X191.382 Y126.532 E0.03239
G1 X191.508 Y127.558 E0.03221
G1 X191.510 Y135.784 E0.25614
G1 X191.408 Y136.795 E0.03166
G1 X190.986 Y138.094 E0.04254
G1 X190.259 Y139.258 E0.04272
G1 X189.271 Y140.210 E0.04272
G1 X188.082 Y140.894 E0.04272
G1 X187.022 Y141.222 E0.03457
G1 X185.918 Y141.336 E0.03457
G1 X63.936 Y141.333 E3.79862
G1 X63.036 Y141.234 E0.02822
G1 X62.163 Y140.991 E0.02822
G1 X61.340 Y140.610 E0.02822
G1 X60.590 Y140.102 E0.02822
G1 X59.931 Y139.480 E0.02822
G1 X59.381 Y138.760 E0.02822
G1 X58.954 Y137.961 E0.02822
G1 X58.661 Y137.104 E0.02822
G1 X58.490 Y135.825 E0.04018
G1 X58.495 Y127.485 E0.25970
G1 X58.694 Y126.222 E0.03982
G1 X59.175 Y125.037 E0.03982
G1 X59.760 Y124.170 E0.03257
G1 X71.718 Y109.718 E0.58414
G1 X72.318 Y109.144 E0.02585
G1 X72.885 Y108.743 E0.02161
G1 X73.120 Y109.075 F18000.000
G1 F2400.000
G1 X73.201 Y109.017 E0.00312
G1 X73.890 Y108.669 E0.02402
G1 X74.628 Y108.426 E0.02420
G1 X75.877 Y108.271 E0.03922
G1 X174.121 Y108.271 E3.05938
G1 X175.167 Y108.379 E0.03276
G1 X176.166 Y108.693 E0.03259
G1 X177.086 Y109.203 E0.03276
G1 X177.884 Y109.888 E0.03276
G1 X189.942 Y124.448 E0.58872
G1 X190.682 Y125.674 E0.04461
G1 X190.981 Y126.601 E0.03032
G1 X191.101 Y127.567 E0.03032
G1 X191.103 Y135.770 E0.25545
G1 X191.018 Y136.667 E0.02804
G1 X190.635 Y137.884 E0.03974
G1 X189.967 Y138.971 E0.03974
G1 X189.055 Y139.863 E0.03974
G1 X187.952 Y140.507 E0.03974
G1 X186.954 Y140.821 E0.03259
G1 X185.919 Y140.929 E0.03241
G1 X63.959 Y140.927 E3.79794
G1 X63.120 Y140.835 E0.02630
G1 X62.306 Y140.610 E0.02630
G1 X61.540 Y140.255 E0.02630
G1 X60.841 Y139.781 E0.02630
G1 X60.227 Y139.201 E0.02630
G1 X59.716 Y138.529 E0.02630
G1 X59.321 Y137.783 E0.02630
G1 X59.051 Y136.983 E0.02630
G1 X58.897 Y135.806 E0.03695
G1 X58.901 Y127.511 E0.25832
G1 X59.086 Y126.333 E0.03712
G1 X59.532 Y125.234 E0.03695
G1 X60.076 Y124.426 E0.03032
G1 X72.015 Y109.997 E0.58323
G1 X72.572 Y109.463 E0.02402
G1 X73.071 Y109.109 E0.01903
; printing object wago_221-415_mount_3x5.stl id:0 copy 0
G1 E-0.08000 F3000.00000
G1 F14400.000
G1 X73.201 Y109.017 E-0.03169
G1 X73.890 Y108.669 E-0.15267
G1 X74.628 Y108.426 E-0.15378
G1 X75.877 Y108.271 E-0.24923
G1 X76.366 Y108.271 E-0.09663
G1 E-0.03600 F3000.00000
G1 Z0.600000 F18000.000
G1 X77.757 Y129.597
G1 Z0.200000
G1 E0.80000 F2100.00000
; custom gcode: feature_gcode
;Perimeter                        ;  Perimeter
M204 P1000 T5000
; custom gcode end: feature_gcode

;TYPE:Perimeter
G1 F2400.000
G1 X77.757 Y115.347 E0.44376
G1 X172.243 Y115.347 E2.94240
G1 X172.243 Y129.597 E0.44376
G1 X176.328 Y129.597 E0.12721
G1 X176.328 Y132.597 E0.09342
G1 X183.928 Y132.597 E0.23667
G1 X183.928 Y133.853 E0.03914
G1 X66.072 Y133.853 E3.67017
G1 X66.072 Y132.597 E0.03914
G1 X73.672 Y132.597 E0.23667
G1 X73.672 Y129.597 E0.09342
G1 X77.697 Y129.597 E0.12534
G1 X77.350 Y129.190 F18000.000
G1 F2400.000
G1 X77.350 Y114.940 E0.44376
G1 X172.650 Y114.940 E2.96776
G1 X172.650 Y129.190 E0.44376
G1 X176.735 Y129.190 E0.12721
G1 X176.735 Y132.190 E0.09342
G1 X184.335 Y132.190 E0.23667
G1 X184.335 Y134.260 E0.06449
G1 X65.665 Y134.260 E3.69552
G1 X65.665 Y132.190 E0.06449
G1 X73.265 Y132.190 E0.23667
G1 X73.265 Y129.190 E0.09342
G1 X77.290 Y129.190 E0.12534
G1 X76.942 Y128.782 F18000.000
G1 F2400.000
G1 X76.942 Y114.532 E0.44376
G1 X173.058 Y114.532 E2.99311
G1 X173.058 Y128.782 E0.44376
G1 X177.143 Y128.782 E0.12721
G1 X177.143 Y131.782 E0.09342
G1 X184.743 Y131.782 E0.23667
G1 X184.743 Y134.668 E0.08985
G1 X65.257 Y134.668 E3.72087
G1 X65.257 Y131.782 E0.08985
G1 X72.857 Y131.782 E0.23667
G1 X72.857 Y128.782 E0.09342
G1 X76.882 Y128.782 E0.12534
G1 X76.530 Y128.370 F18000.000
; custom gcode: feature_gcode
;ExternalPerimeter                   ;  ExternalPerimeter
M204 P750 T5000
; custom gcode end: feature_gcode

;TYPE:External perimeter
G1 F1800.000
G1 X76.530 Y114.120 E0.44376
G1 X173.470 Y114.120 E3.01880
G1 X173.470 Y128.370 E0.44376
G1 X177.555 Y128.370 E0.12721
G1 X177.555 Y131.370 E0.09342
G1 X184.445 Y131.370 E0.21456
G1 X184.445 Y128.370 E0.09342
G1 X185.155 Y128.370 E0.02211
G1 X185.155 Y135.080 E0.20896
G1 X64.845 Y135.080 E3.74656
G1 X64.845 Y128.370 E0.20896
G1 X65.555 Y128.370 E0.02211
G1 X65.555 Y131.370 E0.09342
G1 X72.445 Y131.370 E0.21456
G1 X72.445 Y128.370 E0.09342
G1 X76.470 Y128.370 E0.12534
G1 X76.930 Y128.370 F18000.000
G1 E-0.08000 F3000.00000
G1 F14400.000
G1 X76.485 Y124.914 E-0.68400
G1 E-0.03600 F3000.00000
G1 X65.200 Y128.559 F18000.000
G1 E0.80000 F2100.00000
; custom gcode: feature_gcode
;GapFill
M204 P2000 T5000
; custom gcode end: feature_gcode

;TYPE:Gap fill
G1 F2400.000
G1 X65.200 Y131.592 E0.07680
G1 E-0.08000 F3000.00000
G1 F14400.000
G1 X65.200 Y128.559 E-0.60027
G1 E-0.11973 F3000.00000
G1 X67.153 Y133.695 F18000.000
G1 E0.80000 F2100.00000
; custom gcode: feature_gcode
;SolidInfill                      ;  SolidInfill
M204 P2000 T5000
; custom gcode end: feature_gcode

;TYPE:Solid infill
G1 F3600.000
G1 X66.414 Y133.350 E0.02539
G1 X66.414 Y132.939 E0.01281
G1 X67.723 Y133.511 E0.04451
G1 X68.686 Y133.511 E0.03000
G1 X67.458 Y132.939 E0.04222
G1 X68.421 Y132.939 E0.03000
G1 X69.649 Y133.511 E0.04222
G1 X70.613 Y133.511 E0.03000
G1 X69.384 Y132.939 E0.04222
G1 X70.347 Y132.939 E0.03000
G1 X71.576 Y133.511 E0.04222
G1 X72.539 Y133.511 E0.03000
G1 X71.310 Y132.939 E0.04222
G1 X72.274 Y132.939 E0.03000
G1 X73.502 Y133.511 E0.04222
G1 X74.466 Y133.511 E0.03000
G1 X73.237 Y132.939 E0.04222
G1 X74.014 Y132.939 E0.02418
G1 X74.014 Y132.852 E0.00271
G1 X75.429 Y133.511 E0.04863
G1 X76.392 Y133.511 E0.03000
G1 X74.014 Y132.402 E0.08173
G1 X74.014 Y131.953 E0.01399
G1 X77.355 Y133.511 E0.11482
G1 X78.319 Y133.511 E0.03000
G1 X74.014 Y131.504 E0.14792
G1 X74.014 Y131.055 E0.01399
G1 X79.282 Y133.511 E0.18102
G1 X80.245 Y133.511 E0.03000
G1 X74.014 Y130.606 E0.21411
G1 X74.014 Y130.157 E0.01399
G1 X81.208 Y133.511 E0.24721
G1 X82.171 Y133.511 E0.03000
G1 X74.509 Y129.939 E0.26327
G1 X75.473 Y129.939 E0.03000
G1 X83.135 Y133.511 E0.26327
G1 X84.098 Y133.511 E0.03000
G1 X76.436 Y129.939 E0.26327
G1 X77.399 Y129.939 E0.03000
G1 X85.061 Y133.511 E0.26327
G1 X86.024 Y133.511 E0.03000
G1 X78.099 Y129.816 E0.27233
G1 X78.099 Y129.366 E0.01399
G1 X86.988 Y133.511 E0.30543
G1 X87.951 Y133.511 E0.03000
G1 X78.099 Y128.917 E0.33853
G1 X78.099 Y128.468 E0.01399
G1 X88.914 Y133.511 E0.37162
G1 X89.877 Y133.511 E0.03000
G1 X78.099 Y128.019 E0.40472
G1 X78.099 Y127.570 E0.01399
G1 X90.841 Y133.511 E0.43782
G1 X91.804 Y133.511 E0.03000
G1 X78.099 Y127.121 E0.47091
G1 X78.099 Y126.671 E0.01399
G1 X92.767 Y133.511 E0.50401
G1 X93.730 Y133.511 E0.03000
G1 X78.099 Y126.222 E0.53711
G1 X78.099 Y125.773 E0.01399
G1 X94.693 Y133.511 E0.57020
G1 X95.657 Y133.511 E0.03000
G1 X78.099 Y125.324 E0.60330
G1 X78.099 Y124.875 E0.01399
G1 X96.620 Y133.511 E0.63640
G1 X97.583 Y133.511 E0.03000
G1 X78.099 Y124.426 E0.66949
G1 X78.099 Y123.976 E0.01399
G1 X98.546 Y133.511 E0.70259
G1 X99.510 Y133.511 E0.03000
G1 X78.099 Y123.527 E0.73569
G1 X78.099 Y123.078 E0.01399
G1 X100.473 Y133.511 E0.76878
G1 X101.436 Y133.511 E0.03000
G1 X78.099 Y122.629 E0.80188
G1 X78.099 Y122.180 E0.01399
G1 X102.399 Y133.511 E0.83498
G1 X103.363 Y133.511 E0.03000
G1 X78.099 Y121.731 E0.86808
G1 X78.099 Y121.282 E0.01399
G1 X104.326 Y133.511 E0.90117
G1 X105.289 Y133.511 E0.03000
G1 X78.099 Y120.832 E0.93427
G1 X78.099 Y120.383 E0.01399
G1 X106.252 Y133.511 E0.96737
G1 X107.215 Y133.511 E0.03000
G1 X78.099 Y119.934 E1.00046
G1 X78.099 Y119.485 E0.01399
G1 X108.179 Y133.511 E1.03356
G1 X109.142 Y133.511 E0.03000
G1 X78.099 Y119.036 E1.06666
G1 X78.099 Y118.587 E0.01399
G1 X110.105 Y133.511 E1.09975
G1 X111.068 Y133.511 E0.03000
G1 X78.099 Y118.137 E1.13285
G1 X78.099 Y117.688 E0.01399
G1 X112.032 Y133.511 E1.16595
G1 X112.995 Y133.511 E0.03000
G1 X78.099 Y117.239 E1.19904
G1 X78.099 Y116.790 E0.01399
G1 X113.958 Y133.511 E1.23214
G1 X114.921 Y133.511 E0.03000
G1 X78.099 Y116.341 E1.26524
G1 X78.099 Y115.892 E0.01399
G1 X115.885 Y133.511 E1.29833
G1 X116.848 Y133.511 E0.03000
G1 X78.626 Y115.689 E1.31329
G1 X79.590 Y115.689 E0.03000
G1 X117.811 Y133.511 E1.31329
G1 X118.774 Y133.511 E0.03000
G1 X80.553 Y115.689 E1.31329
G1 X81.516 Y115.689 E0.03000
G1 X119.737 Y133.511 E1.31329
G1 X120.701 Y133.511 E0.03000
G1 X82.479 Y115.689 E1.31329
G1 X83.443 Y115.689 E0.03000
G1 X121.664 Y133.511 E1.31329
G1 X122.627 Y133.511 E0.03000
G1 X84.406 Y115.689 E1.31329
G1 X85.369 Y115.689 E0.03000
G1 X123.590 Y133.511 E1.31329
G1 X124.554 Y133.511 E0.03000
G1 X86.332 Y115.689 E1.31329
G1 X87.295 Y115.689 E0.03000
G1 X125.517 Y133.511 E1.31329
G1 X126.480 Y133.511 E0.03000
G1 X88.259 Y115.689 E1.31329
G1 X89.222 Y115.689 E0.03000
G1 X127.443 Y133.511 E1.31329
G1 X128.407 Y133.511 E0.03000
G1 X90.185 Y115.689 E1.31329
G1 X91.148 Y115.689 E0.03000
G1 X129.370 Y133.511 E1.31329
G1 X130.333 Y133.511 E0.03000
G1 X92.112 Y115.689 E1.31329
G1 X93.075 Y115.689 E0.03000
G1 X131.296 Y133.511 E1.31329
G1 X132.259 Y133.511 E0.03000
G1 X94.038 Y115.689 E1.31329
G1 X95.001 Y115.689 E0.03000
G1 X133.223 Y133.511 E1.31329
G1 X134.186 Y133.511 E0.03000
G1 X95.965 Y115.689 E1.31329
G1 X96.928 Y115.689 E0.03000
G1 X135.149 Y133.511 E1.31329
G1 X136.112 Y133.511 E0.03000
G1 X97.891 Y115.689 E1.31329
G1 X98.854 Y115.689 E0.03000
G1 X137.076 Y133.511 E1.31329
G1 X138.039 Y133.511 E0.03000
G1 X99.817 Y115.689 E1.31329
G1 X100.781 Y115.689 E0.03000
G1 X139.002 Y133.511 E1.31329
G1 X139.965 Y133.511 E0.03000
G1 X101.744 Y115.689 E1.31329
G1 X102.707 Y115.689 E0.03000
G1 X140.929 Y133.511 E1.31329
G1 X141.892 Y133.511 E0.03000
G1 X103.670 Y115.689 E1.31329
G1 X104.634 Y115.689 E0.03000
G1 X142.855 Y133.511 E1.31329
G1 X143.818 Y133.511 E0.03000
G1 X105.597 Y115.689 E1.31329
G1 X106.560 Y115.689 E0.03000
G1 X144.781 Y133.511 E1.31329
G1 X145.745 Y133.511 E0.03000
G1 X107.523 Y115.689 E1.31329
G1 X108.487 Y115.689 E0.03000
G1 X146.708 Y133.511 E1.31329
G1 X147.671 Y133.511 E0.03000
G1 X109.450 Y115.689 E1.31329
G1 X110.413 Y115.689 E0.03000
G1 X148.634 Y133.511 E1.31329
G1 X149.598 Y133.511 E0.03000
G1 X111.376 Y115.689 E1.31329
G1 X112.339 Y115.689 E0.03000
G1 X150.561 Y133.511 E1.31329
G1 X151.524 Y133.511 E0.03000
G1 X113.303 Y115.689 E1.31329
G1 X114.266 Y115.689 E0.03000
G1 X152.487 Y133.511 E1.31329
G1 X153.451 Y133.511 E0.03000
G1 X115.229 Y115.689 E1.31329
G1 X116.192 Y115.689 E0.03000
G1 X154.414 Y133.511 E1.31329
G1 X155.377 Y133.511 E0.03000
G1 X117.156 Y115.689 E1.31329
G1 X118.119 Y115.689 E0.03000
G1 X156.340 Y133.511 E1.31329
G1 X157.303 Y133.511 E0.03000
G1 X119.082 Y115.689 E1.31329
G1 X120.045 Y115.689 E0.03000
G1 X158.267 Y133.511 E1.31329
G1 X159.230 Y133.511 E0.03000
G1 X121.009 Y115.689 E1.31329
G1 X121.972 Y115.689 E0.03000
G1 X160.193 Y133.511 E1.31329
G1 X161.156 Y133.511 E0.03000
G1 X122.935 Y115.689 E1.31329
G1 X123.898 Y115.689 E0.03000
G1 X162.120 Y133.511 E1.31329
G1 X163.083 Y133.511 E0.03000
G1 X124.861 Y115.689 E1.31329
G1 X125.825 Y115.689 E0.03000
G1 X164.046 Y133.511 E1.31329
G1 X165.009 Y133.511 E0.03000
G1 X126.788 Y115.689 E1.31329
G1 X127.751 Y115.689 E0.03000
