G10 P0 R260 S260 ; sets the standby temperature
; generated by SuperSlicer 2.3.55 on 2023-05-13 at 18:43:15 UTC

; TODO: check the size of the extruder and the y-bar clearance. Optimize & test supports.

; external perimeters extrusion width = 0.39mm
; perimeters extrusion width = 0.60mm
; infill extrusion width = 0.80mm
; solid infill extrusion width = 0.60mm
; top infill extrusion width = 0.32mm
; support material extrusion width = 0.40mm
; first layer extrusion width = 0.45mm

; object:{"name":"z_chain_bottom_anchor","id":"z_chain_bottom_anchor.stl id:0 copy 0","object_center":[124.999998,124.981275,0.000000],"boundingbox_center":[124.999998,124.981275,7.500002],"boundingbox_size":[44.220245,40.800003,15.000005]}
; plater:{"center":[124.999998,124.981275,0.000000],"boundingbox_center":[124.999998,124.981275,7.500002],"boundingbox_size":[44.220245,40.800003,15.000005]}

;TYPE:Custom
; custom gcode: start_gcode
M106 P4 S255
M140 S95 ; set bed final temp
M104 S260 ; set extruder final temp
M190 S95 ; wait for bed final temp
M109 S260 ; wait for extruder final temp
;G29
G28
;M98 P"/macros/nozzle/brush.g"
;PRINT_START

G92 E0 ;Reset Extruder
;;G1 Z2.0 F3000 ;Move Z Axis up


G1 X100 Y4.6 Z0.3 F18000.0 ; Move to side a little

G1 X5 Y4.6 Z0.3 F1500.0 E10 ; Draw the second line

G1 X5 Y4.2 Z0.3 F1500.0 E10 ; Draw the third line

G1 X100 Y4.2 Z0.3 F1500.0 E10 ; Draw the third line


;G92 E0;		Reset extruder
;G1 X1 Y10 F6000;
;G1 Z1.7;
;G1 X1 Y60 E140 F50;
;G1 E-<DESTRING> F1500;
;G1 Z4
;G1 X<NEXTX> Y<NEXTY> F12000;
;G92 E0 ;Reset Extruder

;G1 Z2.0 F3000 ;Move Z Axis up
; custom gcode end: start_gcode
M107
G21 ; set units to millimeters
G90 ; use absolute coordinates
M83 ; use relative distances for extrusion
; custom gcode: start_filament_gcode
; Filament gcode
M572 D0 S0.08
; custom gcode end: start_filament_gcode
;LAYER_CHANGE
;Z:0.2
;HEIGHT:0.2
; custom gcode: before_layer_gcode
;BEFORE_LAYER_CHANGE
;0.2

; custom gcode end: before_layer_gcode

G1 Z0.200000 F18000.000
; custom gcode: layer_gcode
;AFTER_LAYER_CHANGE
;0.2
; custom gcode end: layer_gcode

G1 E-0.80000 F3000.00000
G1 Z1.000000 F18000.000
G1 X100.692 Y115.786
G1 Z0.200000
G1 E0.80000 F2100.00000
; custom gcode: feature_gcode
;Skirt
M204 P2000 T5000
; custom gcode end: feature_gcode

;TYPE:Skirt
G1 F2400.000
G1 X101.820 Y114.878 E0.04470
G1 X123.502 Y100.199 E0.80828
G1 X124.747 Y99.534 E0.04359
G1 X126.043 Y99.133 E0.04189
G1 X127.421 Y98.974 E0.04281
G1 X142.116 Y98.971 E0.45364
G1 X144.086 Y99.158 E0.06110
G1 X145.670 Y99.586 E0.05065
G1 X147.463 Y100.422 E0.06106
G1 X148.826 Y101.366 E0.05119
G1 X150.229 Y102.752 E0.06088
G1 X151.192 Y104.094 E0.05101
G1 X152.052 Y105.876 E0.06106
G1 X152.515 Y107.504 E0.05227
G1 X152.721 Y109.542 E0.06322
G1 X152.696 Y135.101 E0.78902
G1 X152.465 Y136.690 E0.04957
G1 X151.900 Y138.470 E0.05764
G1 X151.175 Y139.896 E0.04939
G1 X150.239 Y141.200 E0.04957
G1 X148.953 Y142.489 E0.05620
G1 X147.756 Y143.364 E0.04578
G1 X146.384 Y144.093 E0.04794
G1 X144.994 Y144.592 E0.04561
G1 X123.684 Y149.817 E0.67732
G1 X116.074 Y150.928 E0.23741
G1 X115.235 Y150.992 E0.02598
G1 X110.157 Y150.975 E0.15675
G1 X102.868 Y149.912 E0.22739
G1 X101.921 Y149.692 E0.03002
G1 X101.048 Y149.349 E0.02896
G1 X100.203 Y148.867 E0.03004
G1 X99.517 Y148.336 E0.02678
G1 X98.652 Y147.413 E0.03904
G1 X98.006 Y146.394 E0.03724
G1 X97.555 Y145.269 E0.03742
G1 X97.314 Y144.040 E0.03867
G1 X97.279 Y123.534 E0.63300
G1 X97.469 Y121.588 E0.06038
G1 X97.910 Y119.977 E0.05155
G1 X98.756 Y118.183 E0.06124
G1 X99.765 Y116.758 E0.05389
G1 X100.650 Y115.829 E0.03961
G1 X100.944 Y116.110 F18000.000
G1 F2400.000
G1 X102.054 Y115.212 E0.04407
G1 X123.729 Y100.537 E0.80803
G1 X124.907 Y99.908 E0.04122
G1 X126.131 Y99.531 E0.03955
G1 X127.441 Y99.380 E0.04072
G1 X142.116 Y99.378 E0.45300
G1 X144.017 Y99.559 E0.05896
G1 X145.535 Y99.970 E0.04854
G1 X147.268 Y100.779 E0.05905
G1 X148.569 Y101.682 E0.04889
G1 X149.922 Y103.019 E0.05871
G1 X150.844 Y104.306 E0.04888
G1 X151.674 Y106.029 E0.05905
G1 X152.119 Y107.602 E0.05045
G1 X152.314 Y109.550 E0.06044
G1 X152.291 Y135.063 E0.78760
G1 X152.070 Y136.592 E0.04768
G1 X151.522 Y138.319 E0.05593
G1 X150.824 Y139.690 E0.04750
G1 X149.915 Y140.952 E0.04802
G1 X148.681 Y142.186 E0.05385
G1 X147.529 Y143.026 E0.04403
G1 X146.209 Y143.725 E0.04611
G1 X144.871 Y144.204 E0.04386
G1 X123.598 Y149.419 E0.67616
G1 X116.017 Y150.525 E0.23649
G1 X115.227 Y150.585 E0.02445
G1 X110.190 Y150.569 E0.15549
G1 X102.941 Y149.512 E0.22616
G1 X102.040 Y149.303 E0.02854
G1 X101.213 Y148.977 E0.02745
G1 X100.417 Y148.521 E0.02831
G1 X99.765 Y148.012 E0.02553
G1 X98.961 Y147.147 E0.03646
G1 X98.359 Y146.190 E0.03490
G1 X97.941 Y145.139 E0.03490
G1 X97.717 Y143.980 E0.03646
G1 X97.687 Y123.525 E0.63145
G1 X97.871 Y121.652 E0.05809
G1 X98.296 Y120.109 E0.04941
G1 X99.113 Y118.379 E0.05905
G1 X100.085 Y117.011 E0.05183
G1 X100.903 Y116.153 E0.03657
; printing object z_chain_bottom_anchor.stl id:0 copy 0
G1 E-0.08000 F3000.00000
G1 F14400.000
G1 X102.054 Y115.212 E-0.29433
G1 X103.684 Y114.108 E-0.38967
G1 E-0.03600 F3000.00000
G1 Z0.600000 F18000.000
G1 X129.853 Y119.105
G1 Z0.200000
G1 E0.80000 F2100.00000
; custom gcode: feature_gcode
;Perimeter                        ;  Perimeter
M204 P1000 T5000
; custom gcode end: feature_gcode

;TYPE:Perimeter
G1 F2400.000
G1 X129.848 Y134.727 E0.48227
G1 X129.919 Y135.274 E0.01703
G1 X130.157 Y135.853 E0.01931
G1 X130.526 Y136.324 E0.01847
G1 X130.892 Y136.608 E0.01430
G1 X131.313 Y136.809 E0.01441
G1 X131.849 Y136.902 E0.01679
G1 X141.831 Y136.902 E0.30814
G1 X142.366 Y136.809 E0.01677
G1 X142.787 Y136.608 E0.01440
G1 X143.153 Y136.324 E0.01430
G1 X143.522 Y135.853 E0.01847
G1 X143.760 Y135.274 E0.01932
G1 X143.831 Y134.724 E0.01712
G1 X143.831 Y119.235 E0.47813
G1 X143.760 Y118.689 E0.01702
G1 X143.522 Y118.110 E0.01931
G1 X143.153 Y117.639 E0.01847
G1 X142.787 Y117.355 E0.01430
G1 X142.366 Y117.153 E0.01441
G1 X141.830 Y117.061 E0.01679
G1 X131.878 Y117.061 E0.30721
G1 X131.502 Y117.104 E0.01169
G1 X131.063 Y117.256 E0.01435
G1 X130.564 Y117.602 E0.01873
G1 X130.271 Y117.943 E0.01388
G1 X130.063 Y118.303 E0.01282
G1 X129.923 Y118.693 E0.01278
G1 X129.863 Y119.045 E0.01105
G1 X130.264 Y119.114 F18000.000
G1 F2400.000
G1 X130.255 Y134.701 E0.48117
G1 X130.316 Y135.169 E0.01456
G1 X130.512 Y135.646 E0.01593
G1 X130.816 Y136.033 E0.01519
G1 X131.107 Y136.260 E0.01140
G1 X131.438 Y136.418 E0.01131
G1 X131.884 Y136.495 E0.01398
G1 X141.796 Y136.495 E0.30599
G1 X142.241 Y136.418 E0.01395
G1 X142.572 Y136.260 E0.01130
G1 X142.863 Y136.033 E0.01140
G1 X143.167 Y135.646 E0.01519
G1 X143.363 Y135.168 E0.01594
G1 X143.424 Y134.697 E0.01466
G1 X143.424 Y119.262 E0.47650
G1 X143.363 Y118.794 E0.01456
G1 X143.167 Y118.317 E0.01593
G1 X142.863 Y117.929 E0.01519
G1 X142.572 Y117.703 E0.01140
G1 X142.241 Y117.545 E0.01131
G1 X141.795 Y117.468 E0.01398
G1 X131.901 Y117.468 E0.30543
G1 X131.593 Y117.503 E0.00958
G1 X131.249 Y117.623 E0.01124
G1 X130.839 Y117.907 E0.01541
G1 X130.604 Y118.180 E0.01110
G1 X130.434 Y118.475 E0.01052
G1 X130.319 Y118.796 E0.01055
G1 X130.275 Y119.055 E0.00809
G1 X130.678 Y119.124 F18000.000
; custom gcode: feature_gcode
;ExternalPerimeter                   ;  ExternalPerimeter
M204 P750 T5000
; custom gcode end: feature_gcode

;TYPE:External perimeter
G1 F1800.000
G1 X130.665 Y134.674 E0.48005
G1 X130.715 Y135.063 E0.01209
G1 X130.869 Y135.438 E0.01253
G1 X131.107 Y135.741 E0.01188
G1 X131.324 Y135.909 E0.00848
G1 X131.563 Y136.024 E0.00820
G1 X131.919 Y136.085 E0.01114
G1 X141.761 Y136.085 E0.30383
G1 X142.116 Y136.024 E0.01112
G1 X142.356 Y135.909 E0.00820
G1 X142.572 Y135.741 E0.00848
G1 X142.810 Y135.438 E0.01188
G1 X142.964 Y135.063 E0.01253
G1 X143.015 Y134.671 E0.01218
G1 X143.014 Y119.288 E0.47487
G1 X142.964 Y118.900 E0.01209
G1 X142.810 Y118.525 E0.01253
G1 X142.572 Y118.222 E0.01188
G1 X142.356 Y118.053 E0.00848
G1 X142.116 Y117.939 E0.00820
G1 X141.760 Y117.877 E0.01114
G1 X131.925 Y117.877 E0.30363
G1 X131.684 Y117.905 E0.00746
G1 X131.436 Y117.991 E0.00811
G1 X131.115 Y118.214 E0.01207
G1 X130.940 Y118.417 E0.00830
G1 X130.807 Y118.647 E0.00820
G1 X130.716 Y118.901 E0.00831
G1 X130.688 Y119.065 E0.00513
G1 X130.321 Y119.304 F18000.000
G1 E-0.08000 F3000.00000
G1 F14400.000
G1 X130.683 Y122.521 E-0.68400
G1 E-0.03600 F3000.00000
G1 X120.320 Y123.734 F18000.000
G1 E0.80000 F2100.00000
; custom gcode: feature_gcode
;Perimeter                        ;  Perimeter
M204 P1000 T5000
; custom gcode end: feature_gcode

;TYPE:Perimeter
G1 F2400.000
G1 X120.091 Y123.257 E0.01633
G1 X119.722 Y122.690 E0.02089
G1 X119.380 Y122.285 E0.01633
G1 X118.882 Y121.827 E0.02089
G1 X118.451 Y121.521 E0.01633
G1 X117.864 Y121.205 E0.02058
G1 X117.458 Y121.045 E0.01347
G1 X116.973 Y120.906 E0.01558
G1 X116.317 Y120.799 E0.02052
G1 X115.920 Y120.783 E0.01225
G1 X109.597 Y120.792 E0.19521
G1 X109.101 Y120.846 E0.01539
G1 X108.667 Y120.939 E0.01370
G1 X107.937 Y121.193 E0.02387
G1 X107.239 Y121.577 E0.02459
G1 X106.670 Y122.019 E0.02226
G1 X106.125 Y122.599 E0.02455
G1 X105.680 Y123.268 E0.02481
G1 X105.353 Y124.002 E0.02481
G1 X105.154 Y124.780 E0.02481
G1 X105.091 Y125.519 E0.02289
G1 X105.091 Y137.443 E0.36808
G1 X105.151 Y138.152 E0.02195
G1 X105.246 Y138.599 E0.01410
G1 X105.460 Y139.229 E0.02055
G1 X105.689 Y139.706 E0.01633
G1 X106.058 Y140.273 E0.02089
G1 X106.399 Y140.677 E0.01633
G1 X106.897 Y141.135 E0.02089
G1 X107.329 Y141.441 E0.01633
G1 X107.925 Y141.762 E0.02089
G1 X108.419 Y141.950 E0.01633
G1 X109.094 Y142.118 E0.02147
G1 X109.828 Y142.180 E0.02273
G1 X115.952 Y142.180 E0.18904
G1 X116.660 Y142.120 E0.02195
G1 X117.107 Y142.025 E0.01410
G1 X117.738 Y141.811 E0.02055
G1 X118.221 Y141.579 E0.01654
G1 X118.866 Y141.150 E0.02393
G1 X119.380 Y140.677 E0.02157
G1 X119.722 Y140.273 E0.01633
G1 X120.102 Y139.688 E0.02154
G1 X120.418 Y138.979 E0.02398
G1 X120.565 Y138.464 E0.01652
G1 X120.676 Y137.779 E0.02144
G1 X120.688 Y125.520 E0.37842
G1 X120.629 Y124.811 E0.02197
G1 X120.534 Y124.364 E0.01410
G1 X120.339 Y123.790 E0.01870
G1 X119.954 Y123.921 F18000.000
G1 F2400.000
G1 X119.735 Y123.457 E0.01585
G1 X119.394 Y122.933 E0.01930
G1 X119.086 Y122.567 E0.01476
G1 X118.626 Y122.144 E0.01930
G1 X118.236 Y121.868 E0.01476
G1 X117.692 Y121.575 E0.01907
G1 X117.327 Y121.430 E0.01212
G1 X116.884 Y121.304 E0.01422
G1 X116.275 Y121.205 E0.01903
G1 X115.912 Y121.190 E0.01123
G1 X109.619 Y121.199 E0.19426
G1 X109.166 Y121.249 E0.01408
G1 X108.777 Y121.332 E0.01228
G1 X108.103 Y121.566 E0.02202
G1 X107.463 Y121.918 E0.02254
G1 X106.944 Y122.321 E0.02028
G1 X106.445 Y122.852 E0.02251
G1 X106.038 Y123.465 E0.02270
G1 X105.739 Y124.136 E0.02270
G1 X105.556 Y124.849 E0.02270
G1 X105.499 Y125.537 E0.02131
G1 X105.499 Y137.426 E0.36703
G1 X105.555 Y138.092 E0.02064
G1 X105.639 Y138.491 E0.01257
G1 X105.838 Y139.075 E0.01905
G1 X106.045 Y139.506 E0.01476
G1 X106.386 Y140.030 E0.01930
G1 X106.694 Y140.395 E0.01476
G1 X107.154 Y140.818 E0.01930
G1 X107.544 Y141.095 E0.01476
G1 X108.094 Y141.391 E0.01930
G1 X108.541 Y141.561 E0.01476
G1 X109.161 Y141.715 E0.01971
G1 X109.845 Y141.773 E0.02119
G1 X115.935 Y141.773 E0.18798
G1 X116.601 Y141.717 E0.02064
G1 X116.999 Y141.632 E0.01257
G1 X117.583 Y141.434 E0.01905
G1 X118.019 Y141.225 E0.01491
G1 X118.614 Y140.829 E0.02207
G1 X119.086 Y140.395 E0.01978
G1 X119.394 Y140.030 E0.01476
G1 X119.743 Y139.493 E0.01976
G1 X120.035 Y138.839 E0.02210
G1 X120.167 Y138.375 E0.01489
G1 X120.269 Y137.746 E0.01969
G1 X120.281 Y125.537 E0.37688
G1 X120.225 Y124.870 E0.02065
G1 X120.141 Y124.472 E0.01257
G1 X119.973 Y123.978 E0.01610
G1 X119.587 Y124.109 F18000.000
G1 F2400.000
G1 X119.380 Y123.657 E0.01536
G1 X119.067 Y123.176 E0.01770
G1 X118.791 Y122.850 E0.01319
G1 X118.369 Y122.461 E0.01770
G1 X118.021 Y122.214 E0.01319
G1 X117.520 Y121.945 E0.01757
G1 X117.195 Y121.816 E0.01077
G1 X116.795 Y121.702 E0.01286
G1 X116.234 Y121.611 E0.01754
G1 X115.904 Y121.597 E0.01021
G1 X109.642 Y121.606 E0.19330
G1 X109.231 Y121.651 E0.01277
G1 X108.886 Y121.724 E0.01087
G1 X108.269 Y121.939 E0.02017
G1 X107.688 Y122.259 E0.02049
G1 X107.219 Y122.623 E0.01830
G1 X106.765 Y123.106 E0.02047
G1 X106.396 Y123.662 E0.02059
G1 X106.125 Y124.271 E0.02059
G1 X105.959 Y124.917 E0.02059
G1 X105.906 Y125.554 E0.01973
G1 X105.906 Y137.409 E0.36597
G1 X105.958 Y138.032 E0.01932
G1 X106.032 Y138.382 E0.01104
G1 X106.215 Y138.921 E0.01755
G1 X106.400 Y139.306 E0.01319
G1 X106.713 Y139.786 E0.01770
G1 X106.988 Y140.113 E0.01319
G1 X107.410 Y140.501 E0.01770
G1 X107.759 Y140.748 E0.01319
G1 X108.264 Y141.020 E0.01770
G1 X108.663 Y141.172 E0.01319
G1 X109.228 Y141.312 E0.01796
G1 X109.862 Y141.366 E0.01966
G1 X115.918 Y141.366 E0.18693
G1 X116.541 Y141.313 E0.01932
G1 X116.891 Y141.239 E0.01104
G1 X117.429 Y141.056 E0.01755
G1 X117.817 Y140.870 E0.01328
G1 X118.362 Y140.508 E0.02020
G1 X118.791 Y140.113 E0.01800
G1 X119.067 Y139.786 E0.01319
G1 X119.385 Y139.298 E0.01799
G1 X119.651 Y138.700 E0.02023
G1 X119.769 Y138.286 E0.01327
G1 X119.862 Y137.713 E0.01794
G1 X119.874 Y125.554 E0.37534
G1 X119.822 Y124.930 E0.01933
G1 X119.747 Y124.580 E0.01104
G1 X119.607 Y124.166 E0.01351
G1 X119.219 Y124.297 F18000.000
; custom gcode: feature_gcode
;ExternalPerimeter                   ;  ExternalPerimeter
M204 P750 T5000
; custom gcode end: feature_gcode

;TYPE:External perimeter
G1 F1800.000
G1 X119.022 Y123.858 E0.01487
G1 X118.738 Y123.421 E0.01610
G1 X118.495 Y123.133 E0.01161
G1 X118.111 Y122.780 E0.01610
G1 X117.805 Y122.563 E0.01161
G1 X117.347 Y122.316 E0.01605
G1 X117.064 Y122.204 E0.00940
G1 X116.706 Y122.102 E0.01149
G1 X116.193 Y122.019 E0.01604
G1 X109.665 Y122.015 E0.20152
G1 X109.296 Y122.056 E0.01146
G1 X108.997 Y122.119 E0.00944
G1 X108.436 Y122.314 E0.01832
G1 X107.913 Y122.602 E0.01843
G1 X107.496 Y122.926 E0.01631
G1 X107.087 Y123.361 E0.01842
G1 X106.756 Y123.859 E0.01846
G1 X106.513 Y124.406 E0.01846
G1 X106.364 Y124.985 E0.01847
G1 X106.315 Y125.571 E0.01814
G1 X106.315 Y137.392 E0.36491
G1 X106.364 Y137.973 E0.01799
G1 X106.428 Y138.274 E0.00950
G1 X106.595 Y138.766 E0.01605
G1 X106.757 Y139.105 E0.01161
G1 X107.042 Y139.542 E0.01610
G1 X107.285 Y139.829 E0.01161
G1 X107.668 Y140.182 E0.01610
G1 X107.975 Y140.400 E0.01161
G1 X108.434 Y140.647 E0.01610
G1 X108.786 Y140.780 E0.01160
G1 X109.295 Y140.907 E0.01619
G1 X109.879 Y140.956 E0.01811
G1 X115.900 Y140.956 E0.18587
G1 X116.481 Y140.907 E0.01799
G1 X116.782 Y140.843 E0.00950
G1 X117.275 Y140.676 E0.01605
G1 X117.614 Y140.513 E0.01164
G1 X118.109 Y140.185 E0.01833
G1 X118.495 Y139.829 E0.01621
G1 X118.738 Y139.542 E0.01161
G1 X119.024 Y139.102 E0.01620
G1 X119.266 Y138.559 E0.01834
G1 X119.369 Y138.197 E0.01163
G1 X119.453 Y137.680 E0.01618
G1 X119.465 Y125.571 E0.37380
G1 X119.416 Y124.990 E0.01800
G1 X119.352 Y124.689 E0.00950
G1 X119.238 Y124.354 E0.01091
G1 X119.464 Y123.981 F18000.000
G1 E-0.08000 F3000.00000
G1 F14400.000
G1 X119.022 Y123.858 E-0.10715
G1 X118.738 Y123.421 E-0.10322
G1 X118.495 Y123.133 E-0.07441
G1 X118.111 Y122.780 E-0.10322
G1 X117.805 Y122.563 E-0.07441
G1 X117.347 Y122.316 E-0.10291
G1 X117.064 Y122.204 E-0.06030
G1 X116.780 Y122.123 E-0.05838
G1 E-0.03600 F3000.00000
G1 X128.288 Y120.379 F18000.000
G1 E0.80000 F2100.00000
; custom gcode: feature_gcode
;Perimeter                        ;  Perimeter
M204 P1000 T5000
; custom gcode end: feature_gcode

;TYPE:Perimeter
G1 F2400.000
G1 X128.288 Y106.380 E0.43213
G1 X142.361 Y106.391 E0.43442
G1 X142.825 Y106.464 E0.01452
G1 X143.236 Y106.586 E0.01321
G1 X143.418 Y106.660 E0.00608
G1 X143.666 Y106.786 E0.00858
G1 X144.025 Y107.017 E0.01317
G1 X144.398 Y107.344 E0.01530
G1 X144.533 Y107.491 E0.00617
G1 X144.788 Y107.832 E0.01316
G1 X145.028 Y108.266 E0.01530
G1 X145.106 Y108.456 E0.00632
G1 X145.227 Y108.866 E0.01321
G1 X145.300 Y109.330 E0.01450
G1 X145.300 Y134.632 E0.78109
G1 X145.227 Y135.096 E0.01450
G1 X145.106 Y135.507 E0.01321
G1 X145.031 Y135.689 E0.00608
G1 X144.905 Y135.937 E0.00858
G1 X144.674 Y136.296 E0.01317
G1 X144.348 Y136.669 E0.01530
